( PCB Contour )
( Generated by Carbide Copper )
( Material Size )
( X= 152.400, Y= 101.600, Z= 1.580 )
()
G17
G21
G54
G90
G00  X-77.014 Y42.624
G01 F750 Z0
G01 F400 Z-0.060
G01 F400 X-77.014 Y42.230
G01 F400 X-79.183 Y42.230
G01 F400 X-79.204 Y42.239
G01 F400 X-79.393 Y42.280
G01 F400 X-79.587 Y42.280
G01 F400 X-79.776 Y42.239
G01 F400 X-79.952 Y42.161
G01 F400 X-80.109 Y42.047
G01 F400 X-80.238 Y41.904
G01 F400 X-80.335 Y41.736
G01 F400 X-80.395 Y41.552
G01 F400 X-80.415 Y41.360
G01 F400 X-80.395 Y41.168
G01 F400 X-80.335 Y40.984
G01 F400 X-80.238 Y40.816
G01 F400 X-80.109 Y40.673
G01 F400 X-79.952 Y40.559
G01 F400 X-79.776 Y40.480
G01 F400 X-79.587 Y40.440
G01 F400 X-79.393 Y40.440
G01 F400 X-79.204 Y40.480
G01 F400 X-79.183 Y40.490
G01 F400 X-76.139 Y40.490
G01 F400 X-75.960 Y40.528
G01 F400 X-75.852 Y40.576
G01 F400 X-74.966 Y40.576
G01 F400 X-74.966 Y42.624
G01 F400 X-77.014 Y42.624
G00 Z3.000
G00  X-73.557 Y42.619
G01 F750 Z0
G01 F400 Z-0.060
G01 F400 X-73.767 Y42.575
G01 F400 X-73.962 Y42.488
G01 F400 X-74.136 Y42.362
G01 F400 X-74.279 Y42.202
G01 F400 X-74.386 Y42.017
G01 F400 X-74.452 Y41.813
G01 F400 X-74.475 Y41.600
G01 F400 X-74.452 Y41.387
G01 F400 X-74.386 Y41.183
G01 F400 X-74.279 Y40.998
G01 F400 X-74.136 Y40.838
G01 F400 X-73.962 Y40.712
G01 F400 X-73.767 Y40.625
G01 F400 X-73.557 Y40.581
G01 F400 X-73.343 Y40.581
G01 F400 X-73.133 Y40.625
G01 F400 X-72.938 Y40.712
G01 F400 X-72.913 Y40.730
G01 F400 X-64.615 Y40.730
G01 F400 X-57.244 Y33.360
G01 F400 X-57.244 Y31.186
G01 F400 X-57.275 Y31.092
G01 F400 X-57.295 Y30.900
G01 F400 X-57.275 Y30.708
G01 F400 X-57.215 Y30.524
G01 F400 X-57.118 Y30.356
G01 F400 X-56.989 Y30.213
G01 F400 X-56.832 Y30.099
G01 F400 X-56.656 Y30.021
G01 F400 X-56.467 Y29.980
G01 F400 X-56.273 Y29.980
G01 F400 X-56.084 Y30.021
G01 F400 X-55.908 Y30.099
G01 F400 X-55.751 Y30.213
G01 F400 X-55.622 Y30.356
G01 F400 X-55.544 Y30.491
G01 F400 X-55.005 Y31.030
G01 F400 X-51.515 Y31.030
G01 F400 X-49.333 Y28.848
G01 F400 X-49.187 Y28.742
G01 F400 X-49.020 Y28.668
G01 F400 X-48.841 Y28.630
G01 F400 X-48.659 Y28.630
G01 F400 X-48.480 Y28.668
G01 F400 X-48.312 Y28.743
G01 F400 X-48.200 Y28.826
G01 F400 X-47.326 Y28.826
G01 F400 X-47.326 Y30.173
G01 F400 X-48.196 Y30.181
G01 F400 X-50.567 Y32.552
G01 F400 X-50.713 Y32.658
G01 F400 X-50.880 Y32.732
G01 F400 X-51.059 Y32.770
G01 F400 X-55.463 Y32.770
G01 F400 X-55.496 Y32.762
G01 F400 X-55.496 Y33.727
G01 F400 X-55.514 Y33.902
G01 F400 X-55.571 Y34.076
G01 F400 X-55.662 Y34.234
G01 F400 X-55.778 Y34.363
G01 F400 X-63.667 Y42.252
G01 F400 X-63.813 Y42.358
G01 F400 X-63.980 Y42.432
G01 F400 X-64.159 Y42.470
G01 F400 X-72.913 Y42.470
G01 F400 X-72.938 Y42.488
G01 F400 X-73.133 Y42.575
G01 F400 X-73.343 Y42.619
G01 F400 X-73.557 Y42.619
G00 Z3.000
G00  X-94.247 Y42.300
G01 F750 Z0
G01 F400 Z-0.060
G01 F400 X-94.436 Y42.260
G01 F400 X-94.612 Y42.181
G01 F400 X-94.769 Y42.067
G01 F400 X-94.855 Y41.970
G01 F400 X-97.326 Y41.970
G01 F400 X-97.326 Y42.124
G01 F400 X-99.374 Y42.124
G01 F400 X-99.374 Y40.076
G01 F400 X-97.326 Y40.076
G01 F400 X-97.326 Y40.230
G01 F400 X-94.339 Y40.230
G01 F400 X-94.160 Y40.268
G01 F400 X-93.993 Y40.342
G01 F400 X-93.847 Y40.448
G01 F400 X-93.739 Y40.556
G01 F400 X-93.688 Y40.579
G01 F400 X-93.531 Y40.693
G01 F400 X-93.402 Y40.836
G01 F400 X-93.305 Y41.004
G01 F400 X-93.245 Y41.188
G01 F400 X-93.225 Y41.380
G01 F400 X-93.245 Y41.572
G01 F400 X-93.305 Y41.756
G01 F400 X-93.402 Y41.924
G01 F400 X-93.531 Y42.067
G01 F400 X-93.688 Y42.181
G01 F400 X-93.864 Y42.260
G01 F400 X-94.053 Y42.300
G01 F400 X-94.247 Y42.300
G00 Z3.000
G00  X-84.147 Y42.300
G01 F750 Z0
G01 F400 Z-0.060
G01 F400 X-84.336 Y42.260
G01 F400 X-84.357 Y42.250
G01 F400 X-89.031 Y42.250
G01 F400 X-89.210 Y42.212
G01 F400 X-89.251 Y42.194
G01 F400 X-90.174 Y42.194
G01 F400 X-90.174 Y40.146
G01 F400 X-88.126 Y40.146
G01 F400 X-88.126 Y40.510
G01 F400 X-84.357 Y40.510
G01 F400 X-84.336 Y40.501
G01 F400 X-84.147 Y40.460
G01 F400 X-83.953 Y40.460
G01 F400 X-83.764 Y40.501
G01 F400 X-83.588 Y40.579
G01 F400 X-83.431 Y40.693
G01 F400 X-83.302 Y40.836
G01 F400 X-83.205 Y41.004
G01 F400 X-83.145 Y41.188
G01 F400 X-83.125 Y41.380
G01 F400 X-83.145 Y41.572
G01 F400 X-83.205 Y41.756
G01 F400 X-83.302 Y41.924
G01 F400 X-83.431 Y42.067
G01 F400 X-83.588 Y42.181
G01 F400 X-83.764 Y42.260
G01 F400 X-83.953 Y42.300
G01 F400 X-84.147 Y42.300
G00 Z3.000
G00  X-100.997 Y42.119
G01 F750 Z0
G01 F400 Z-0.060
G01 F400 X-101.207 Y42.075
G01 F400 X-101.402 Y41.988
G01 F400 X-101.576 Y41.862
G01 F400 X-101.719 Y41.702
G01 F400 X-101.827 Y41.516
G01 F400 X-101.881 Y41.344
G01 F400 X-105.542 Y37.683
G01 F400 X-105.658 Y37.554
G01 F400 X-105.749 Y37.396
G01 F400 X-105.806 Y37.222
G01 F400 X-105.824 Y37.047
G01 F400 X-105.824 Y36.755
G01 F400 X-105.870 Y36.722
G01 F400 X-106.062 Y36.508
G01 F400 X-106.206 Y36.259
G01 F400 X-106.295 Y35.986
G01 F400 X-106.325 Y35.700
G01 F400 X-106.295 Y35.414
G01 F400 X-106.206 Y35.141
G01 F400 X-106.062 Y34.892
G01 F400 X-105.870 Y34.678
G01 F400 X-105.637 Y34.509
G01 F400 X-105.375 Y34.392
G01 F400 X-105.094 Y34.333
G01 F400 X-104.806 Y34.333
G01 F400 X-104.525 Y34.392
G01 F400 X-104.263 Y34.509
G01 F400 X-104.030 Y34.678
G01 F400 X-103.838 Y34.892
G01 F400 X-103.694 Y35.141
G01 F400 X-103.605 Y35.414
G01 F400 X-103.575 Y35.700
G01 F400 X-103.605 Y35.986
G01 F400 X-103.694 Y36.259
G01 F400 X-103.838 Y36.508
G01 F400 X-104.030 Y36.722
G01 F400 X-104.032 Y36.723
G01 F400 X-100.645 Y40.110
G01 F400 X-100.573 Y40.125
G01 F400 X-100.378 Y40.212
G01 F400 X-100.204 Y40.338
G01 F400 X-100.061 Y40.498
G01 F400 X-99.954 Y40.683
G01 F400 X-99.888 Y40.887
G01 F400 X-99.865 Y41.100
G01 F400 X-99.888 Y41.313
G01 F400 X-99.954 Y41.517
G01 F400 X-100.061 Y41.702
G01 F400 X-100.204 Y41.862
G01 F400 X-100.378 Y41.988
G01 F400 X-100.573 Y42.075
G01 F400 X-100.783 Y42.119
G01 F400 X-100.997 Y42.119
G00 Z3.000
G00  X-6.894 Y41.667
G01 F750 Z0
G01 F400 Z-0.060
G01 F400 X-7.175 Y41.608
G01 F400 X-7.437 Y41.491
G01 F400 X-7.670 Y41.322
G01 F400 X-7.862 Y41.108
G01 F400 X-8.006 Y40.859
G01 F400 X-8.095 Y40.586
G01 F400 X-8.125 Y40.300
G01 F400 X-8.112 Y40.173
G01 F400 X-9.415 Y38.870
G01 F400 X-10.241 Y38.870
G01 F400 X-10.256 Y38.896
G01 F400 X-10.470 Y39.133
G01 F400 X-10.728 Y39.321
G01 F400 X-11.019 Y39.450
G01 F400 X-11.331 Y39.516
G01 F400 X-11.649 Y39.516
G01 F400 X-11.961 Y39.450
G01 F400 X-12.252 Y39.321
G01 F400 X-12.510 Y39.133
G01 F400 X-12.724 Y38.896
G01 F400 X-12.883 Y38.620
G01 F400 X-12.982 Y38.317
G01 F400 X-13.015 Y38.000
G01 F400 X-12.982 Y37.683
G01 F400 X-12.883 Y37.380
G01 F400 X-12.724 Y37.104
G01 F400 X-12.510 Y36.867
G01 F400 X-12.252 Y36.680
G01 F400 X-11.961 Y36.550
G01 F400 X-11.649 Y36.484
G01 F400 X-11.331 Y36.484
G01 F400 X-11.019 Y36.550
G01 F400 X-10.728 Y36.680
G01 F400 X-10.470 Y36.867
G01 F400 X-10.256 Y37.104
G01 F400 X-10.241 Y37.130
G01 F400 X-9.115 Y37.130
G01 F400 X-6.212 Y34.227
G01 F400 X-6.225 Y34.100
G01 F400 X-6.195 Y33.814
G01 F400 X-6.106 Y33.541
G01 F400 X-5.962 Y33.292
G01 F400 X-5.770 Y33.078
G01 F400 X-5.537 Y32.909
G01 F400 X-5.275 Y32.793
G01 F400 X-4.994 Y32.733
G01 F400 X-4.706 Y32.733
G01 F400 X-4.425 Y32.793
G01 F400 X-4.163 Y32.909
G01 F400 X-3.930 Y33.078
G01 F400 X-3.738 Y33.292
G01 F400 X-3.594 Y33.541
G01 F400 X-3.505 Y33.814
G01 F400 X-3.475 Y34.100
G01 F400 X-3.505 Y34.386
G01 F400 X-3.594 Y34.659
G01 F400 X-3.738 Y34.908
G01 F400 X-3.930 Y35.122
G01 F400 X-4.163 Y35.291
G01 F400 X-4.425 Y35.407
G01 F400 X-4.706 Y35.467
G01 F400 X-4.982 Y35.467
G01 F400 X-6.645 Y37.130
G01 F400 X-4.215 Y37.130
G01 F400 X-3.111 Y36.027
G01 F400 X-3.125 Y35.900
G01 F400 X-3.095 Y35.614
G01 F400 X-3.006 Y35.341
G01 F400 X-2.862 Y35.092
G01 F400 X-2.670 Y34.878
G01 F400 X-2.437 Y34.709
G01 F400 X-2.175 Y34.593
G01 F400 X-1.894 Y34.533
G01 F400 X-1.606 Y34.533
G01 F400 X-1.325 Y34.593
G01 F400 X-1.063 Y34.709
G01 F400 X-0.830 Y34.878
G01 F400 X-0.638 Y35.092
G01 F400 X-0.494 Y35.341
G01 F400 X-0.405 Y35.614
G01 F400 X-0.375 Y35.900
G01 F400 X-0.405 Y36.186
G01 F400 X-0.494 Y36.459
G01 F400 X-0.638 Y36.708
G01 F400 X-0.830 Y36.922
G01 F400 X-1.063 Y37.091
G01 F400 X-1.325 Y37.208
G01 F400 X-1.606 Y37.267
G01 F400 X-1.883 Y37.267
G01 F400 X-3.267 Y38.652
G01 F400 X-3.413 Y38.758
G01 F400 X-3.580 Y38.832
G01 F400 X-3.759 Y38.870
G01 F400 X-6.945 Y38.870
G01 F400 X-6.883 Y38.933
G01 F400 X-6.606 Y38.933
G01 F400 X-6.325 Y38.992
G01 F400 X-6.063 Y39.109
G01 F400 X-5.830 Y39.278
G01 F400 X-5.638 Y39.492
G01 F400 X-5.494 Y39.741
G01 F400 X-5.405 Y40.014
G01 F400 X-5.375 Y40.300
G01 F400 X-5.405 Y40.586
G01 F400 X-5.494 Y40.859
G01 F400 X-5.638 Y41.108
G01 F400 X-5.830 Y41.322
G01 F400 X-6.063 Y41.491
G01 F400 X-6.325 Y41.608
G01 F400 X-6.606 Y41.667
G01 F400 X-6.894 Y41.667
G00 Z3.000
G00  X-89.257 Y39.649
G01 F750 Z0
G01 F400 Z-0.060
G01 F400 X-89.467 Y39.605
G01 F400 X-89.662 Y39.518
G01 F400 X-89.836 Y39.392
G01 F400 X-89.979 Y39.232
G01 F400 X-90.086 Y39.047
G01 F400 X-90.152 Y38.843
G01 F400 X-90.175 Y38.630
G01 F400 X-90.152 Y38.417
G01 F400 X-90.086 Y38.213
G01 F400 X-89.979 Y38.028
G01 F400 X-89.836 Y37.868
G01 F400 X-89.662 Y37.742
G01 F400 X-89.467 Y37.655
G01 F400 X-89.395 Y37.640
G01 F400 X-88.384 Y36.630
G01 F400 X-88.384 Y23.886
G01 F400 X-88.415 Y23.792
G01 F400 X-88.435 Y23.600
G01 F400 X-88.415 Y23.408
G01 F400 X-88.355 Y23.224
G01 F400 X-88.258 Y23.056
G01 F400 X-88.129 Y22.913
G01 F400 X-87.972 Y22.799
G01 F400 X-87.796 Y22.721
G01 F400 X-87.607 Y22.680
G01 F400 X-87.413 Y22.680
G01 F400 X-87.224 Y22.721
G01 F400 X-87.203 Y22.730
G01 F400 X-82.615 Y22.730
G01 F400 X-80.703 Y20.818
G01 F400 X-80.557 Y20.712
G01 F400 X-80.390 Y20.638
G01 F400 X-80.211 Y20.600
G01 F400 X-80.029 Y20.600
G01 F400 X-79.850 Y20.638
G01 F400 X-79.682 Y20.713
G01 F400 X-79.570 Y20.796
G01 F400 X-78.696 Y20.796
G01 F400 X-78.696 Y22.143
G01 F400 X-79.566 Y22.151
G01 F400 X-81.667 Y24.252
G01 F400 X-81.813 Y24.358
G01 F400 X-81.980 Y24.432
G01 F400 X-82.159 Y24.470
G01 F400 X-86.636 Y24.470
G01 F400 X-86.636 Y36.997
G01 F400 X-86.654 Y37.172
G01 F400 X-86.711 Y37.346
G01 F400 X-86.802 Y37.504
G01 F400 X-86.918 Y37.633
G01 F400 X-88.161 Y38.884
G01 F400 X-88.214 Y39.047
G01 F400 X-88.321 Y39.232
G01 F400 X-88.464 Y39.392
G01 F400 X-88.638 Y39.518
G01 F400 X-88.833 Y39.605
G01 F400 X-89.043 Y39.649
G01 F400 X-89.257 Y39.649
G00 Z3.000
G00  X-110.194 Y39.367
G01 F750 Z0
G01 F400 Z-0.060
G01 F400 X-110.475 Y39.308
G01 F400 X-110.737 Y39.191
G01 F400 X-110.970 Y39.022
G01 F400 X-111.162 Y38.808
G01 F400 X-111.306 Y38.559
G01 F400 X-111.395 Y38.286
G01 F400 X-111.425 Y38.000
G01 F400 X-111.412 Y37.873
G01 F400 X-111.749 Y37.535
G01 F400 X-111.865 Y37.407
G01 F400 X-111.957 Y37.248
G01 F400 X-112.013 Y37.074
G01 F400 X-112.032 Y36.899
G01 F400 X-112.032 Y35.567
G01 F400 X-112.094 Y35.759
G01 F400 X-112.238 Y36.008
G01 F400 X-112.430 Y36.222
G01 F400 X-112.663 Y36.391
G01 F400 X-112.925 Y36.508
G01 F400 X-113.206 Y36.567
G01 F400 X-113.494 Y36.567
G01 F400 X-113.775 Y36.508
G01 F400 X-114.037 Y36.391
G01 F400 X-114.270 Y36.222
G01 F400 X-114.462 Y36.008
G01 F400 X-114.606 Y35.759
G01 F400 X-114.695 Y35.486
G01 F400 X-114.725 Y35.200
G01 F400 X-114.695 Y34.914
G01 F400 X-114.606 Y34.641
G01 F400 X-114.462 Y34.392
G01 F400 X-114.270 Y34.178
G01 F400 X-114.037 Y34.009
G01 F400 X-113.775 Y33.892
G01 F400 X-113.494 Y33.833
G01 F400 X-113.217 Y33.833
G01 F400 X-112.032 Y32.647
G01 F400 X-112.032 Y30.889
G01 F400 X-112.178 Y30.783
G01 F400 X-112.391 Y30.546
G01 F400 X-112.550 Y30.270
G01 F400 X-112.649 Y29.967
G01 F400 X-112.682 Y29.650
G01 F400 X-112.649 Y29.333
G01 F400 X-112.550 Y29.030
G01 F400 X-112.391 Y28.754
G01 F400 X-112.178 Y28.517
G01 F400 X-111.920 Y28.330
G01 F400 X-111.629 Y28.200
G01 F400 X-111.317 Y28.134
G01 F400 X-110.998 Y28.134
G01 F400 X-110.686 Y28.200
G01 F400 X-110.395 Y28.330
G01 F400 X-110.137 Y28.517
G01 F400 X-109.924 Y28.754
G01 F400 X-109.764 Y29.030
G01 F400 X-109.666 Y29.333
G01 F400 X-109.633 Y29.650
G01 F400 X-109.666 Y29.967
G01 F400 X-109.764 Y30.270
G01 F400 X-109.924 Y30.546
G01 F400 X-110.137 Y30.783
G01 F400 X-110.283 Y30.889
G01 F400 X-110.283 Y32.332
G01 F400 X-108.983 Y33.633
G01 F400 X-108.706 Y33.633
G01 F400 X-108.425 Y33.693
G01 F400 X-108.163 Y33.809
G01 F400 X-107.930 Y33.978
G01 F400 X-107.738 Y34.192
G01 F400 X-107.594 Y34.441
G01 F400 X-107.505 Y34.714
G01 F400 X-107.475 Y35.000
G01 F400 X-107.505 Y35.286
G01 F400 X-107.594 Y35.559
G01 F400 X-107.738 Y35.808
G01 F400 X-107.930 Y36.022
G01 F400 X-108.163 Y36.191
G01 F400 X-108.425 Y36.308
G01 F400 X-108.706 Y36.367
G01 F400 X-108.994 Y36.367
G01 F400 X-109.275 Y36.308
G01 F400 X-109.537 Y36.191
G01 F400 X-109.770 Y36.022
G01 F400 X-109.962 Y35.808
G01 F400 X-110.106 Y35.559
G01 F400 X-110.195 Y35.286
G01 F400 X-110.225 Y35.000
G01 F400 X-110.212 Y34.873
G01 F400 X-110.283 Y34.801
G01 F400 X-110.283 Y36.532
G01 F400 X-110.183 Y36.633
G01 F400 X-109.906 Y36.633
G01 F400 X-109.625 Y36.693
G01 F400 X-109.363 Y36.809
G01 F400 X-109.130 Y36.978
G01 F400 X-108.938 Y37.192
G01 F400 X-108.794 Y37.441
G01 F400 X-108.705 Y37.714
G01 F400 X-108.675 Y38.000
G01 F400 X-108.705 Y38.286
G01 F400 X-108.794 Y38.559
G01 F400 X-108.938 Y38.808
G01 F400 X-109.130 Y39.022
G01 F400 X-109.363 Y39.191
G01 F400 X-109.625 Y39.308
G01 F400 X-109.906 Y39.367
G01 F400 X-110.194 Y39.367
G00 Z3.000
G00  X-16.706 Y38.870
G01 F750 Z0
G01 F400 Z-0.060
G01 F400 X-16.884 Y38.832
G01 F400 X-17.052 Y38.758
G01 F400 X-17.197 Y38.652
G01 F400 X-28.156 Y27.693
G01 F400 X-28.160 Y27.692
G01 F400 X-28.327 Y27.618
G01 F400 X-28.475 Y27.510
G01 F400 X-28.598 Y27.374
G01 F400 X-28.689 Y27.216
G01 F400 X-28.746 Y27.042
G01 F400 X-28.764 Y26.867
G01 F400 X-28.764 Y22.574
G01 F400 X-28.746 Y22.398
G01 F400 X-28.689 Y22.224
G01 F400 X-28.598 Y22.066
G01 F400 X-28.482 Y21.937
G01 F400 X-18.665 Y12.120
G01 F400 X-20.842 Y9.943
G01 F400 X-20.958 Y9.814
G01 F400 X-21.049 Y9.656
G01 F400 X-21.106 Y9.482
G01 F400 X-21.124 Y9.306
G01 F400 X-21.124 Y4.421
G01 F400 X-24.421 Y1.124
G01 F400 X-24.472 Y1.101
G01 F400 X-24.629 Y0.987
G01 F400 X-24.758 Y0.844
G01 F400 X-24.855 Y0.676
G01 F400 X-24.915 Y0.492
G01 F400 X-24.935 Y0.300
G01 F400 X-24.915 Y0.108
G01 F400 X-24.855 Y-0.076
G01 F400 X-24.758 Y-0.244
G01 F400 X-24.629 Y-0.387
G01 F400 X-24.472 Y-0.501
G01 F400 X-24.296 Y-0.580
G01 F400 X-24.107 Y-0.620
G01 F400 X-23.913 Y-0.620
G01 F400 X-23.724 Y-0.580
G01 F400 X-23.548 Y-0.501
G01 F400 X-23.391 Y-0.387
G01 F400 X-23.262 Y-0.244
G01 F400 X-23.184 Y-0.108
G01 F400 X-19.658 Y3.417
G01 F400 X-19.542 Y3.546
G01 F400 X-19.451 Y3.704
G01 F400 X-19.394 Y3.878
G01 F400 X-19.376 Y4.054
G01 F400 X-19.376 Y8.940
G01 F400 X-17.019 Y11.296
G01 F400 X-16.968 Y11.319
G01 F400 X-16.811 Y11.433
G01 F400 X-16.682 Y11.576
G01 F400 X-16.585 Y11.744
G01 F400 X-16.525 Y11.928
G01 F400 X-16.505 Y12.120
G01 F400 X-16.525 Y12.312
G01 F400 X-16.585 Y12.496
G01 F400 X-16.682 Y12.664
G01 F400 X-16.811 Y12.807
G01 F400 X-16.968 Y12.921
G01 F400 X-17.019 Y12.944
G01 F400 X-27.016 Y22.941
G01 F400 X-27.016 Y26.364
G01 F400 X-26.131 Y27.248
G01 F400 X-26.149 Y27.216
G01 F400 X-26.206 Y27.042
G01 F400 X-26.225 Y26.860
G01 F400 X-26.206 Y26.678
G01 F400 X-26.149 Y26.504
G01 F400 X-26.058 Y26.346
G01 F400 X-25.935 Y26.210
G01 F400 X-25.787 Y26.102
G01 F400 X-25.620 Y26.028
G01 F400 X-25.441 Y25.990
G01 F400 X-20.915 Y25.990
G01 F400 X-20.613 Y25.688
G01 F400 X-20.467 Y25.582
G01 F400 X-20.300 Y25.508
G01 F400 X-20.121 Y25.470
G01 F400 X-19.939 Y25.470
G01 F400 X-19.760 Y25.508
G01 F400 X-19.593 Y25.582
G01 F400 X-19.445 Y25.690
G01 F400 X-19.322 Y25.826
G01 F400 X-19.231 Y25.984
G01 F400 X-19.174 Y26.158
G01 F400 X-19.156 Y26.334
G01 F400 X-19.156 Y28.759
G01 F400 X-18.085 Y29.830
G01 F400 X-8.115 Y29.830
G01 F400 X-1.624 Y23.340
G01 F400 X-1.624 Y-15.639
G01 F400 X-4.682 Y-18.697
G01 F400 X-4.798 Y-18.826
G01 F400 X-4.889 Y-18.984
G01 F400 X-4.946 Y-19.158
G01 F400 X-4.965 Y-19.340
G01 F400 X-4.962 Y-19.370
G01 F400 X-4.965 Y-19.400
G01 F400 X-4.946 Y-19.582
G01 F400 X-4.889 Y-19.756
G01 F400 X-4.798 Y-19.914
G01 F400 X-4.675 Y-20.050
G01 F400 X-4.527 Y-20.158
G01 F400 X-4.360 Y-20.232
G01 F400 X-4.181 Y-20.270
G01 F400 X-3.999 Y-20.270
G01 F400 X-3.820 Y-20.232
G01 F400 X-3.653 Y-20.158
G01 F400 X-3.505 Y-20.050
G01 F400 X-3.382 Y-19.914
G01 F400 X-3.318 Y-19.802
G01 F400 X-0.158 Y-16.643
G01 F400 X-0.042 Y-16.514
G01 F400 X0.049 Y-16.356
G01 F400 X0.106 Y-16.182
G01 F400 X0.124 Y-16.006
G01 F400 X0.124 Y23.707
G01 F400 X0.106 Y23.882
G01 F400 X0.049 Y24.056
G01 F400 X-0.042 Y24.214
G01 F400 X-0.158 Y24.343
G01 F400 X-7.167 Y31.352
G01 F400 X-7.313 Y31.458
G01 F400 X-7.480 Y31.532
G01 F400 X-7.659 Y31.570
G01 F400 X-18.541 Y31.570
G01 F400 X-18.720 Y31.532
G01 F400 X-18.887 Y31.458
G01 F400 X-19.033 Y31.352
G01 F400 X-20.622 Y29.763
G01 F400 X-20.738 Y29.634
G01 F400 X-20.829 Y29.476
G01 F400 X-20.886 Y29.302
G01 F400 X-20.904 Y29.127
G01 F400 X-20.904 Y27.730
G01 F400 X-25.441 Y27.730
G01 F400 X-25.620 Y27.692
G01 F400 X-25.739 Y27.639
G01 F400 X-16.187 Y37.183
G01 F400 X-16.053 Y37.242
G01 F400 X-15.905 Y37.350
G01 F400 X-15.782 Y37.486
G01 F400 X-15.691 Y37.644
G01 F400 X-15.634 Y37.818
G01 F400 X-15.615 Y38.000
G01 F400 X-15.634 Y38.182
G01 F400 X-15.691 Y38.356
G01 F400 X-15.782 Y38.514
G01 F400 X-15.905 Y38.650
G01 F400 X-16.053 Y38.758
G01 F400 X-16.220 Y38.832
G01 F400 X-16.399 Y38.870
G01 F400 X-16.706 Y38.870
G00 Z3.000
G00  X-73.294 Y33.867
G01 F750 Z0
G01 F400 Z-0.060
G01 F400 X-73.575 Y33.808
G01 F400 X-73.837 Y33.691
G01 F400 X-74.070 Y33.522
G01 F400 X-74.262 Y33.308
G01 F400 X-74.406 Y33.059
G01 F400 X-74.495 Y32.786
G01 F400 X-74.525 Y32.500
G01 F400 X-74.511 Y32.373
G01 F400 X-74.815 Y32.070
G01 F400 X-79.183 Y32.070
G01 F400 X-79.204 Y32.080
G01 F400 X-79.393 Y32.120
G01 F400 X-79.587 Y32.120
G01 F400 X-79.776 Y32.080
G01 F400 X-79.952 Y32.001
G01 F400 X-80.109 Y31.887
G01 F400 X-80.238 Y31.744
G01 F400 X-80.335 Y31.576
G01 F400 X-80.395 Y31.392
G01 F400 X-80.415 Y31.200
G01 F400 X-80.395 Y31.008
G01 F400 X-80.335 Y30.824
G01 F400 X-80.238 Y30.656
G01 F400 X-80.109 Y30.513
G01 F400 X-79.952 Y30.399
G01 F400 X-79.776 Y30.321
G01 F400 X-79.587 Y30.280
G01 F400 X-79.393 Y30.280
G01 F400 X-79.204 Y30.321
G01 F400 X-79.183 Y30.330
G01 F400 X-75.555 Y30.330
G01 F400 X-77.215 Y28.670
G01 F400 X-81.485 Y28.670
G01 F400 X-83.176 Y30.361
G01 F400 X-83.176 Y30.934
G01 F400 X-83.145 Y31.028
G01 F400 X-83.125 Y31.220
G01 F400 X-83.145 Y31.412
G01 F400 X-83.205 Y31.596
G01 F400 X-83.302 Y31.764
G01 F400 X-83.431 Y31.907
G01 F400 X-83.588 Y32.021
G01 F400 X-83.764 Y32.099
G01 F400 X-83.953 Y32.140
G01 F400 X-84.147 Y32.140
G01 F400 X-84.336 Y32.099
G01 F400 X-84.512 Y32.021
G01 F400 X-84.669 Y31.907
G01 F400 X-84.798 Y31.764
G01 F400 X-84.895 Y31.596
G01 F400 X-84.955 Y31.412
G01 F400 X-84.975 Y31.220
G01 F400 X-84.955 Y31.028
G01 F400 X-84.924 Y30.934
G01 F400 X-84.924 Y29.994
G01 F400 X-84.906 Y29.818
G01 F400 X-84.849 Y29.644
G01 F400 X-84.758 Y29.486
G01 F400 X-84.642 Y29.357
G01 F400 X-82.433 Y27.148
G01 F400 X-82.287 Y27.042
G01 F400 X-82.120 Y26.968
G01 F400 X-81.941 Y26.930
G01 F400 X-76.759 Y26.930
G01 F400 X-76.580 Y26.968
G01 F400 X-76.413 Y27.042
G01 F400 X-76.267 Y27.148
G01 F400 X-72.558 Y30.857
G01 F400 X-72.442 Y30.986
G01 F400 X-72.351 Y31.144
G01 F400 X-72.294 Y31.318
G01 F400 X-72.282 Y31.441
G01 F400 X-72.230 Y31.478
G01 F400 X-72.038 Y31.692
G01 F400 X-71.894 Y31.941
G01 F400 X-71.805 Y32.214
G01 F400 X-71.775 Y32.500
G01 F400 X-71.805 Y32.786
G01 F400 X-71.894 Y33.059
G01 F400 X-72.038 Y33.308
G01 F400 X-72.230 Y33.522
G01 F400 X-72.463 Y33.691
G01 F400 X-72.725 Y33.808
G01 F400 X-73.006 Y33.867
G01 F400 X-73.294 Y33.867
G00 Z3.000
G00  X-98.394 Y33.567
G01 F750 Z0
G01 F400 Z-0.060
G01 F400 X-98.675 Y33.508
G01 F400 X-98.937 Y33.391
G01 F400 X-99.170 Y33.222
G01 F400 X-99.362 Y33.008
G01 F400 X-99.506 Y32.759
G01 F400 X-99.595 Y32.486
G01 F400 X-99.625 Y32.200
G01 F400 X-99.595 Y31.914
G01 F400 X-99.506 Y31.641
G01 F400 X-99.362 Y31.392
G01 F400 X-99.170 Y31.178
G01 F400 X-98.937 Y31.009
G01 F400 X-98.675 Y30.893
G01 F400 X-98.394 Y30.833
G01 F400 X-98.118 Y30.833
G01 F400 X-97.853 Y30.568
G01 F400 X-97.707 Y30.462
G01 F400 X-97.540 Y30.388
G01 F400 X-97.361 Y30.350
G01 F400 X-94.457 Y30.350
G01 F400 X-94.436 Y30.341
G01 F400 X-94.247 Y30.300
G01 F400 X-94.053 Y30.300
G01 F400 X-93.864 Y30.341
G01 F400 X-93.688 Y30.419
G01 F400 X-93.531 Y30.533
G01 F400 X-93.402 Y30.676
G01 F400 X-93.305 Y30.844
G01 F400 X-93.245 Y31.028
G01 F400 X-93.225 Y31.220
G01 F400 X-93.245 Y31.412
G01 F400 X-93.305 Y31.596
G01 F400 X-93.402 Y31.764
G01 F400 X-93.531 Y31.907
G01 F400 X-93.688 Y32.021
G01 F400 X-93.864 Y32.099
G01 F400 X-94.053 Y32.140
G01 F400 X-94.247 Y32.140
G01 F400 X-94.436 Y32.099
G01 F400 X-94.457 Y32.090
G01 F400 X-96.887 Y32.090
G01 F400 X-96.875 Y32.200
G01 F400 X-96.905 Y32.486
G01 F400 X-96.994 Y32.759
G01 F400 X-97.138 Y33.008
G01 F400 X-97.330 Y33.222
G01 F400 X-97.563 Y33.391
G01 F400 X-97.825 Y33.508
G01 F400 X-98.106 Y33.567
G01 F400 X-98.394 Y33.567
G00 Z3.000
G00  X-66.627 Y31.820
G01 F750 Z0
G01 F400 Z-0.060
G01 F400 X-66.816 Y31.780
G01 F400 X-66.992 Y31.701
G01 F400 X-67.149 Y31.587
G01 F400 X-67.278 Y31.444
G01 F400 X-67.356 Y31.308
G01 F400 X-71.852 Y26.813
G01 F400 X-72.106 Y26.867
G01 F400 X-72.394 Y26.867
G01 F400 X-72.675 Y26.808
G01 F400 X-72.937 Y26.691
G01 F400 X-73.170 Y26.522
G01 F400 X-73.362 Y26.308
G01 F400 X-73.506 Y26.059
G01 F400 X-73.595 Y25.786
G01 F400 X-73.625 Y25.500
G01 F400 X-73.612 Y25.373
G01 F400 X-75.442 Y23.543
G01 F400 X-75.558 Y23.414
G01 F400 X-75.649 Y23.256
G01 F400 X-75.706 Y23.082
G01 F400 X-75.724 Y22.907
G01 F400 X-75.724 Y8.994
G01 F400 X-75.706 Y8.818
G01 F400 X-75.649 Y8.644
G01 F400 X-75.558 Y8.486
G01 F400 X-75.442 Y8.357
G01 F400 X-71.633 Y4.548
G01 F400 X-71.487 Y4.442
G01 F400 X-71.320 Y4.368
G01 F400 X-71.235 Y4.350
G01 F400 X-74.442 Y1.143
G01 F400 X-74.558 Y1.014
G01 F400 X-74.649 Y0.856
G01 F400 X-74.706 Y0.682
G01 F400 X-74.724 Y0.507
G01 F400 X-74.724 Y-4.306
G01 F400 X-74.706 Y-4.482
G01 F400 X-74.649 Y-4.656
G01 F400 X-74.558 Y-4.814
G01 F400 X-74.442 Y-4.943
G01 F400 X-74.324 Y-5.061
G01 F400 X-74.324 Y-13.687
G01 F400 X-74.306 Y-13.862
G01 F400 X-74.249 Y-14.036
G01 F400 X-74.158 Y-14.194
G01 F400 X-74.042 Y-14.323
G01 F400 X-71.556 Y-16.808
G01 F400 X-71.478 Y-16.944
G01 F400 X-71.349 Y-17.087
G01 F400 X-71.192 Y-17.201
G01 F400 X-71.016 Y-17.280
G01 F400 X-70.827 Y-17.320
G01 F400 X-70.633 Y-17.320
G01 F400 X-70.444 Y-17.280
G01 F400 X-70.268 Y-17.201
G01 F400 X-70.111 Y-17.087
G01 F400 X-69.982 Y-16.944
G01 F400 X-69.885 Y-16.776
G01 F400 X-69.825 Y-16.592
G01 F400 X-69.805 Y-16.400
G01 F400 X-69.825 Y-16.208
G01 F400 X-69.885 Y-16.024
G01 F400 X-69.982 Y-15.856
G01 F400 X-70.111 Y-15.713
G01 F400 X-70.268 Y-15.599
G01 F400 X-70.319 Y-15.576
G01 F400 X-72.576 Y-13.320
G01 F400 X-72.576 Y-6.707
G01 F400 X-72.520 Y-6.732
G01 F400 X-72.387 Y-6.760
G01 F400 X-71.533 Y-7.548
G01 F400 X-71.478 Y-7.644
G01 F400 X-71.349 Y-7.787
G01 F400 X-71.192 Y-7.901
G01 F400 X-71.016 Y-7.980
G01 F400 X-70.827 Y-8.020
G01 F400 X-70.633 Y-8.020
G01 F400 X-70.444 Y-7.980
G01 F400 X-70.268 Y-7.901
G01 F400 X-70.111 Y-7.787
G01 F400 X-69.982 Y-7.644
G01 F400 X-69.885 Y-7.476
G01 F400 X-69.825 Y-7.292
G01 F400 X-69.805 Y-7.100
G01 F400 X-69.825 Y-6.908
G01 F400 X-69.885 Y-6.724
G01 F400 X-69.982 Y-6.556
G01 F400 X-70.111 Y-6.413
G01 F400 X-70.268 Y-6.299
G01 F400 X-70.319 Y-6.276
G01 F400 X-71.347 Y-5.248
G01 F400 X-71.493 Y-5.142
G01 F400 X-71.660 Y-5.068
G01 F400 X-71.839 Y-5.030
G01 F400 X-71.885 Y-5.030
G01 F400 X-72.976 Y-3.939
G01 F400 X-72.976 Y0.140
G01 F400 X-69.283 Y3.833
G01 F400 X-69.006 Y3.833
G01 F400 X-68.725 Y3.893
G01 F400 X-68.463 Y4.009
G01 F400 X-68.230 Y4.178
G01 F400 X-68.038 Y4.392
G01 F400 X-67.894 Y4.641
G01 F400 X-67.805 Y4.914
G01 F400 X-67.775 Y5.200
G01 F400 X-67.805 Y5.486
G01 F400 X-67.894 Y5.759
G01 F400 X-68.038 Y6.008
G01 F400 X-68.230 Y6.222
G01 F400 X-68.463 Y6.391
G01 F400 X-68.725 Y6.508
G01 F400 X-69.006 Y6.567
G01 F400 X-69.294 Y6.567
G01 F400 X-69.575 Y6.508
G01 F400 X-69.837 Y6.391
G01 F400 X-70.070 Y6.222
G01 F400 X-70.206 Y6.070
G01 F400 X-70.685 Y6.070
G01 F400 X-73.976 Y9.361
G01 F400 X-73.976 Y22.540
G01 F400 X-72.383 Y24.133
G01 F400 X-72.117 Y24.133
G01 F400 X-69.733 Y21.748
G01 F400 X-69.587 Y21.642
G01 F400 X-69.420 Y21.568
G01 F400 X-69.241 Y21.530
G01 F400 X-66.857 Y21.530
G01 F400 X-66.836 Y21.521
G01 F400 X-66.647 Y21.480
G01 F400 X-66.453 Y21.480
G01 F400 X-66.264 Y21.521
G01 F400 X-66.088 Y21.599
G01 F400 X-65.931 Y21.713
G01 F400 X-65.802 Y21.856
G01 F400 X-65.705 Y22.024
G01 F400 X-65.645 Y22.208
G01 F400 X-65.625 Y22.400
G01 F400 X-65.645 Y22.592
G01 F400 X-65.705 Y22.776
G01 F400 X-65.802 Y22.944
G01 F400 X-65.931 Y23.087
G01 F400 X-66.088 Y23.201
G01 F400 X-66.264 Y23.280
G01 F400 X-66.453 Y23.320
G01 F400 X-66.647 Y23.320
G01 F400 X-66.836 Y23.280
G01 F400 X-66.857 Y23.270
G01 F400 X-68.785 Y23.270
G01 F400 X-70.855 Y25.340
G01 F400 X-66.119 Y30.076
G01 F400 X-66.068 Y30.099
G01 F400 X-65.911 Y30.213
G01 F400 X-65.782 Y30.356
G01 F400 X-65.685 Y30.524
G01 F400 X-65.625 Y30.708
G01 F400 X-65.605 Y30.900
G01 F400 X-65.625 Y31.092
G01 F400 X-65.685 Y31.276
G01 F400 X-65.782 Y31.444
G01 F400 X-65.911 Y31.587
G01 F400 X-66.068 Y31.701
G01 F400 X-66.244 Y31.780
G01 F400 X-66.433 Y31.820
G01 F400 X-66.627 Y31.820
G00 Z3.000
G00  X-101.994 Y29.467
G01 F750 Z0
G01 F400 Z-0.060
G01 F400 X-102.275 Y29.408
G01 F400 X-102.537 Y29.291
G01 F400 X-102.770 Y29.122
G01 F400 X-102.962 Y28.908
G01 F400 X-103.106 Y28.659
G01 F400 X-103.195 Y28.386
G01 F400 X-103.225 Y28.100
G01 F400 X-103.212 Y27.973
G01 F400 X-105.665 Y25.520
G01 F400 X-111.249 Y25.520
G01 F400 X-111.428 Y25.482
G01 F400 X-111.595 Y25.408
G01 F400 X-111.743 Y25.300
G01 F400 X-111.865 Y25.164
G01 F400 X-111.957 Y25.006
G01 F400 X-112.013 Y24.832
G01 F400 X-112.032 Y24.657
G01 F400 X-112.032 Y13.318
G01 F400 X-112.925 Y12.424
G01 F400 X-113.539 Y12.424
G01 F400 X-113.539 Y10.576
G01 F400 X-111.691 Y10.576
G01 F400 X-111.691 Y11.190
G01 F400 X-110.566 Y12.315
G01 F400 X-110.450 Y12.443
G01 F400 X-110.358 Y12.602
G01 F400 X-110.302 Y12.776
G01 F400 X-110.283 Y12.951
G01 F400 X-110.283 Y23.780
G01 F400 X-105.209 Y23.780
G01 F400 X-105.030 Y23.818
G01 F400 X-104.863 Y23.892
G01 F400 X-104.717 Y23.998
G01 F400 X-102.010 Y26.705
G01 F400 X-98.905 Y23.600
G01 F400 X-101.342 Y21.163
G01 F400 X-101.458 Y21.034
G01 F400 X-101.549 Y20.876
G01 F400 X-101.606 Y20.702
G01 F400 X-101.624 Y20.527
G01 F400 X-101.624 Y16.954
G01 F400 X-101.606 Y16.778
G01 F400 X-101.549 Y16.604
G01 F400 X-101.458 Y16.446
G01 F400 X-101.379 Y16.358
G01 F400 X-101.342 Y16.317
G01 F400 X-98.316 Y13.292
G01 F400 X-98.238 Y13.156
G01 F400 X-98.109 Y13.013
G01 F400 X-97.952 Y12.899
G01 F400 X-97.776 Y12.821
G01 F400 X-97.587 Y12.780
G01 F400 X-97.393 Y12.780
G01 F400 X-97.204 Y12.821
G01 F400 X-97.028 Y12.899
G01 F400 X-96.871 Y13.013
G01 F400 X-96.742 Y13.156
G01 F400 X-96.645 Y13.324
G01 F400 X-96.585 Y13.508
G01 F400 X-96.565 Y13.700
G01 F400 X-96.585 Y13.892
G01 F400 X-96.645 Y14.076
G01 F400 X-96.742 Y14.244
G01 F400 X-96.871 Y14.387
G01 F400 X-97.028 Y14.501
G01 F400 X-97.079 Y14.524
G01 F400 X-99.876 Y17.320
G01 F400 X-99.876 Y20.160
G01 F400 X-97.259 Y22.776
G01 F400 X-97.208 Y22.799
G01 F400 X-97.051 Y22.913
G01 F400 X-96.922 Y23.056
G01 F400 X-96.825 Y23.224
G01 F400 X-96.765 Y23.408
G01 F400 X-96.745 Y23.600
G01 F400 X-96.765 Y23.792
G01 F400 X-96.825 Y23.976
G01 F400 X-96.922 Y24.144
G01 F400 X-97.051 Y24.287
G01 F400 X-97.208 Y24.401
G01 F400 X-97.258 Y24.423
G01 F400 X-100.538 Y27.713
G01 F400 X-100.505 Y27.814
G01 F400 X-100.475 Y28.100
G01 F400 X-100.505 Y28.386
G01 F400 X-100.594 Y28.659
G01 F400 X-100.738 Y28.908
G01 F400 X-100.930 Y29.122
G01 F400 X-101.163 Y29.291
G01 F400 X-101.425 Y29.408
G01 F400 X-101.706 Y29.467
G01 F400 X-101.994 Y29.467
G00 Z3.000
G00  X-50.111 Y29.100
G01 F750 Z0
G01 F400 Z-0.060
G01 F400 X-50.290 Y29.062
G01 F400 X-50.457 Y28.988
G01 F400 X-50.603 Y28.882
G01 F400 X-51.815 Y27.670
G01 F400 X-56.063 Y27.670
G01 F400 X-56.084 Y27.680
G01 F400 X-56.273 Y27.720
G01 F400 X-56.467 Y27.720
G01 F400 X-56.656 Y27.680
G01 F400 X-56.832 Y27.601
G01 F400 X-56.989 Y27.487
G01 F400 X-57.118 Y27.344
G01 F400 X-57.215 Y27.176
G01 F400 X-57.275 Y26.992
G01 F400 X-57.295 Y26.800
G01 F400 X-57.275 Y26.608
G01 F400 X-57.215 Y26.424
G01 F400 X-57.118 Y26.256
G01 F400 X-56.989 Y26.113
G01 F400 X-56.832 Y25.999
G01 F400 X-56.656 Y25.921
G01 F400 X-56.467 Y25.880
G01 F400 X-56.273 Y25.880
G01 F400 X-56.084 Y25.921
G01 F400 X-56.063 Y25.930
G01 F400 X-51.359 Y25.930
G01 F400 X-51.180 Y25.968
G01 F400 X-51.013 Y26.042
G01 F400 X-50.867 Y26.148
G01 F400 X-49.428 Y27.587
G01 F400 X-49.312 Y27.716
G01 F400 X-49.221 Y27.874
G01 F400 X-49.164 Y28.048
G01 F400 X-49.145 Y28.230
G01 F400 X-49.164 Y28.412
G01 F400 X-49.221 Y28.586
G01 F400 X-49.312 Y28.744
G01 F400 X-49.435 Y28.880
G01 F400 X-49.583 Y28.988
G01 F400 X-49.750 Y29.062
G01 F400 X-49.929 Y29.100
G01 F400 X-50.111 Y29.100
G00 Z3.000
G00  X-48.841 Y27.830
G01 F750 Z0
G01 F400 Z-0.060
G01 F400 X-49.020 Y27.792
G01 F400 X-49.187 Y27.718
G01 F400 X-49.335 Y27.610
G01 F400 X-49.458 Y27.474
G01 F400 X-49.549 Y27.316
G01 F400 X-49.606 Y27.142
G01 F400 X-49.625 Y26.960
G01 F400 X-49.606 Y26.778
G01 F400 X-49.549 Y26.604
G01 F400 X-49.458 Y26.446
G01 F400 X-49.335 Y26.310
G01 F400 X-49.187 Y26.202
G01 F400 X-49.020 Y26.128
G01 F400 X-48.841 Y26.090
G01 F400 X-46.075 Y26.090
G01 F400 X-45.012 Y25.027
G01 F400 X-45.025 Y24.900
G01 F400 X-44.995 Y24.614
G01 F400 X-44.906 Y24.341
G01 F400 X-44.762 Y24.092
G01 F400 X-44.570 Y23.878
G01 F400 X-44.337 Y23.709
G01 F400 X-44.075 Y23.593
G01 F400 X-43.794 Y23.533
G01 F400 X-43.506 Y23.533
G01 F400 X-43.225 Y23.593
G01 F400 X-42.963 Y23.709
G01 F400 X-42.730 Y23.878
G01 F400 X-42.538 Y24.092
G01 F400 X-42.394 Y24.341
G01 F400 X-42.305 Y24.614
G01 F400 X-42.275 Y24.900
G01 F400 X-42.305 Y25.186
G01 F400 X-42.394 Y25.459
G01 F400 X-42.538 Y25.708
G01 F400 X-42.730 Y25.922
G01 F400 X-42.963 Y26.091
G01 F400 X-43.225 Y26.207
G01 F400 X-43.506 Y26.267
G01 F400 X-43.783 Y26.267
G01 F400 X-45.127 Y27.612
G01 F400 X-45.273 Y27.718
G01 F400 X-45.440 Y27.792
G01 F400 X-45.619 Y27.830
G01 F400 X-48.841 Y27.830
G00 Z3.000
G00  X-31.304 Y27.734
G01 F750 Z0
G01 F400 Z-0.060
G01 F400 X-31.304 Y27.221
G01 F400 X-31.942 Y26.583
G01 F400 X-32.058 Y26.454
G01 F400 X-32.149 Y26.296
G01 F400 X-32.206 Y26.122
G01 F400 X-32.224 Y25.947
G01 F400 X-32.224 Y20.055
G01 F400 X-32.270 Y20.022
G01 F400 X-32.462 Y19.808
G01 F400 X-32.606 Y19.559
G01 F400 X-32.695 Y19.286
G01 F400 X-32.725 Y19.000
G01 F400 X-32.712 Y18.873
G01 F400 X-37.142 Y14.443
G01 F400 X-37.258 Y14.314
G01 F400 X-37.349 Y14.156
G01 F400 X-37.406 Y13.982
G01 F400 X-37.424 Y13.807
G01 F400 X-37.424 Y-1.339
G01 F400 X-40.315 Y-4.230
G01 F400 X-45.541 Y-4.230
G01 F400 X-45.720 Y-4.268
G01 F400 X-45.887 Y-4.342
G01 F400 X-46.033 Y-4.448
G01 F400 X-49.315 Y-7.730
G01 F400 X-52.085 Y-7.730
G01 F400 X-53.367 Y-6.448
G01 F400 X-53.513 Y-6.342
G01 F400 X-53.680 Y-6.268
G01 F400 X-53.859 Y-6.230
G01 F400 X-60.205 Y-6.230
G01 F400 X-62.426 Y-4.009
G01 F400 X-62.426 Y-2.339
G01 F400 X-62.280 Y-2.233
G01 F400 X-62.066 Y-1.996
G01 F400 X-61.907 Y-1.720
G01 F400 X-61.809 Y-1.417
G01 F400 X-61.775 Y-1.100
G01 F400 X-61.809 Y-0.783
G01 F400 X-61.907 Y-0.480
G01 F400 X-62.066 Y-0.204
G01 F400 X-62.280 Y0.033
G01 F400 X-62.538 Y0.221
G01 F400 X-62.829 Y0.350
G01 F400 X-63.141 Y0.416
G01 F400 X-63.459 Y0.416
G01 F400 X-63.771 Y0.350
G01 F400 X-64.062 Y0.221
G01 F400 X-64.320 Y0.033
G01 F400 X-64.534 Y-0.204
G01 F400 X-64.693 Y-0.480
G01 F400 X-64.791 Y-0.783
G01 F400 X-64.825 Y-1.100
G01 F400 X-64.791 Y-1.417
G01 F400 X-64.693 Y-1.720
G01 F400 X-64.534 Y-1.996
G01 F400 X-64.320 Y-2.233
G01 F400 X-64.174 Y-2.339
G01 F400 X-64.174 Y-4.377
G01 F400 X-64.156 Y-4.552
G01 F400 X-64.099 Y-4.726
G01 F400 X-64.008 Y-4.884
G01 F400 X-63.892 Y-5.013
G01 F400 X-61.396 Y-7.508
G01 F400 X-61.318 Y-7.644
G01 F400 X-61.189 Y-7.787
G01 F400 X-61.032 Y-7.901
G01 F400 X-60.856 Y-7.980
G01 F400 X-60.667 Y-8.020
G01 F400 X-60.473 Y-8.020
G01 F400 X-60.284 Y-7.980
G01 F400 X-60.263 Y-7.970
G01 F400 X-54.315 Y-7.970
G01 F400 X-53.033 Y-9.252
G01 F400 X-52.887 Y-9.358
G01 F400 X-52.720 Y-9.432
G01 F400 X-52.541 Y-9.470
G01 F400 X-48.859 Y-9.470
G01 F400 X-48.680 Y-9.432
G01 F400 X-48.513 Y-9.358
G01 F400 X-48.367 Y-9.252
G01 F400 X-45.085 Y-5.970
G01 F400 X-39.859 Y-5.970
G01 F400 X-39.680 Y-5.932
G01 F400 X-39.513 Y-5.858
G01 F400 X-39.367 Y-5.752
G01 F400 X-35.958 Y-2.343
G01 F400 X-35.842 Y-2.214
G01 F400 X-35.751 Y-2.056
G01 F400 X-35.694 Y-1.882
G01 F400 X-35.676 Y-1.707
G01 F400 X-35.676 Y13.440
G01 F400 X-31.483 Y17.633
G01 F400 X-31.206 Y17.633
G01 F400 X-30.925 Y17.693
G01 F400 X-30.663 Y17.809
G01 F400 X-30.430 Y17.978
G01 F400 X-30.238 Y18.192
G01 F400 X-30.094 Y18.441
G01 F400 X-30.005 Y18.714
G01 F400 X-29.975 Y19.000
G01 F400 X-30.005 Y19.286
G01 F400 X-30.094 Y19.559
G01 F400 X-30.238 Y19.808
G01 F400 X-30.430 Y20.022
G01 F400 X-30.476 Y20.055
G01 F400 X-30.476 Y25.579
G01 F400 X-30.069 Y25.986
G01 F400 X-29.556 Y25.986
G01 F400 X-29.556 Y27.734
G01 F400 X-31.304 Y27.734
G00 Z3.000
G00  X-66.627 Y27.720
G01 F750 Z0
G01 F400 Z-0.060
G01 F400 X-66.816 Y27.680
G01 F400 X-66.992 Y27.601
G01 F400 X-67.149 Y27.487
G01 F400 X-67.278 Y27.344
G01 F400 X-67.375 Y27.176
G01 F400 X-67.435 Y26.992
G01 F400 X-67.455 Y26.800
G01 F400 X-67.435 Y26.608
G01 F400 X-67.375 Y26.424
G01 F400 X-67.278 Y26.256
G01 F400 X-67.149 Y26.113
G01 F400 X-66.992 Y25.999
G01 F400 X-66.816 Y25.921
G01 F400 X-66.627 Y25.880
G01 F400 X-66.433 Y25.880
G01 F400 X-66.244 Y25.921
G01 F400 X-66.223 Y25.930
G01 F400 X-61.155 Y25.930
G01 F400 X-57.216 Y21.992
G01 F400 X-57.138 Y21.856
G01 F400 X-57.009 Y21.713
G01 F400 X-56.852 Y21.599
G01 F400 X-56.676 Y21.521
G01 F400 X-56.487 Y21.480
G01 F400 X-56.293 Y21.480
G01 F400 X-56.104 Y21.521
G01 F400 X-55.928 Y21.599
G01 F400 X-55.771 Y21.713
G01 F400 X-55.642 Y21.856
G01 F400 X-55.564 Y21.991
G01 F400 X-54.225 Y23.330
G01 F400 X-49.915 Y23.330
G01 F400 X-49.433 Y22.848
G01 F400 X-49.287 Y22.742
G01 F400 X-49.120 Y22.668
G01 F400 X-48.941 Y22.630
G01 F400 X-48.759 Y22.630
G01 F400 X-48.580 Y22.668
G01 F400 X-48.412 Y22.743
G01 F400 X-48.300 Y22.826
G01 F400 X-47.426 Y22.826
G01 F400 X-47.426 Y24.173
G01 F400 X-48.296 Y24.181
G01 F400 X-48.967 Y24.852
G01 F400 X-49.113 Y24.958
G01 F400 X-49.280 Y25.032
G01 F400 X-49.459 Y25.070
G01 F400 X-54.681 Y25.070
G01 F400 X-54.860 Y25.032
G01 F400 X-55.027 Y24.958
G01 F400 X-55.173 Y24.852
G01 F400 X-56.390 Y23.635
G01 F400 X-60.207 Y27.452
G01 F400 X-60.353 Y27.558
G01 F400 X-60.520 Y27.632
G01 F400 X-60.699 Y27.670
G01 F400 X-66.223 Y27.670
G01 F400 X-66.244 Y27.680
G01 F400 X-66.433 Y27.720
G01 F400 X-66.627 Y27.720
G00 Z3.000
G00  X-10.227 Y27.300
G01 F750 Z0
G01 F400 Z-0.060
G01 F400 X-10.416 Y27.260
G01 F400 X-10.527 Y27.210
G01 F400 X-14.200 Y27.214
G01 F400 X-15.824 Y27.214
G01 F400 X-15.824 Y19.893
G01 F400 X-15.806 Y19.718
G01 F400 X-15.749 Y19.544
G01 F400 X-15.658 Y19.386
G01 F400 X-15.542 Y19.257
G01 F400 X-14.824 Y18.540
G01 F400 X-14.824 Y9.861
G01 F400 X-17.842 Y6.843
G01 F400 X-17.958 Y6.714
G01 F400 X-18.049 Y6.556
G01 F400 X-18.106 Y6.382
G01 F400 X-18.124 Y6.207
G01 F400 X-18.124 Y0.461
G01 F400 X-21.215 Y-2.630
G01 F400 X-25.685 Y-2.630
G01 F400 X-27.667 Y-0.648
G01 F400 X-27.813 Y-0.542
G01 F400 X-27.980 Y-0.468
G01 F400 X-28.159 Y-0.430
G01 F400 X-30.651 Y-0.430
G01 F400 X-30.666 Y-0.404
G01 F400 X-30.880 Y-0.167
G01 F400 X-31.138 Y0.021
G01 F400 X-31.429 Y0.150
G01 F400 X-31.741 Y0.216
G01 F400 X-32.059 Y0.216
G01 F400 X-32.371 Y0.150
G01 F400 X-32.662 Y0.021
G01 F400 X-32.920 Y-0.167
G01 F400 X-33.134 Y-0.404
G01 F400 X-33.293 Y-0.680
G01 F400 X-33.392 Y-0.983
G01 F400 X-33.425 Y-1.300
G01 F400 X-33.392 Y-1.617
G01 F400 X-33.293 Y-1.920
G01 F400 X-33.134 Y-2.196
G01 F400 X-32.920 Y-2.433
G01 F400 X-32.774 Y-2.539
G01 F400 X-32.774 Y-7.902
G01 F400 X-32.789 Y-7.913
G01 F400 X-32.918 Y-8.056
G01 F400 X-33.015 Y-8.224
G01 F400 X-33.075 Y-8.408
G01 F400 X-33.095 Y-8.600
G01 F400 X-33.075 Y-8.792
G01 F400 X-33.015 Y-8.976
G01 F400 X-32.918 Y-9.144
G01 F400 X-32.789 Y-9.287
G01 F400 X-32.632 Y-9.401
G01 F400 X-32.456 Y-9.479
G01 F400 X-32.267 Y-9.520
G01 F400 X-32.073 Y-9.520
G01 F400 X-31.884 Y-9.479
G01 F400 X-31.863 Y-9.470
G01 F400 X-27.275 Y-9.470
G01 F400 X-25.363 Y-11.382
G01 F400 X-25.217 Y-11.488
G01 F400 X-25.050 Y-11.562
G01 F400 X-24.871 Y-11.600
G01 F400 X-24.689 Y-11.600
G01 F400 X-24.510 Y-11.562
G01 F400 X-24.342 Y-11.487
G01 F400 X-24.230 Y-11.404
G01 F400 X-23.356 Y-11.404
G01 F400 X-23.356 Y-10.057
G01 F400 X-24.226 Y-10.049
G01 F400 X-26.327 Y-7.948
G01 F400 X-26.473 Y-7.842
G01 F400 X-26.640 Y-7.768
G01 F400 X-26.819 Y-7.730
G01 F400 X-31.026 Y-7.730
G01 F400 X-31.026 Y-2.539
G01 F400 X-30.880 Y-2.433
G01 F400 X-30.666 Y-2.196
G01 F400 X-30.651 Y-2.170
G01 F400 X-28.615 Y-2.170
G01 F400 X-26.633 Y-4.152
G01 F400 X-26.487 Y-4.258
G01 F400 X-26.320 Y-4.332
G01 F400 X-26.141 Y-4.370
G01 F400 X-20.759 Y-4.370
G01 F400 X-20.580 Y-4.332
G01 F400 X-20.413 Y-4.258
G01 F400 X-20.267 Y-4.152
G01 F400 X-16.658 Y-0.543
G01 F400 X-16.542 Y-0.414
G01 F400 X-16.451 Y-0.256
G01 F400 X-16.394 Y-0.082
G01 F400 X-16.376 Y0.093
G01 F400 X-16.376 Y5.840
G01 F400 X-13.358 Y8.857
G01 F400 X-13.242 Y8.986
G01 F400 X-13.151 Y9.144
G01 F400 X-13.094 Y9.318
G01 F400 X-13.076 Y9.494
G01 F400 X-13.076 Y18.907
G01 F400 X-13.094 Y19.082
G01 F400 X-13.151 Y19.256
G01 F400 X-13.242 Y19.414
G01 F400 X-13.358 Y19.543
G01 F400 X-14.076 Y20.261
G01 F400 X-14.076 Y25.470
G01 F400 X-10.273 Y25.470
G01 F400 X-10.227 Y25.460
G01 F400 X-10.033 Y25.460
G01 F400 X-9.844 Y25.501
G01 F400 X-9.668 Y25.579
G01 F400 X-9.511 Y25.693
G01 F400 X-9.382 Y25.836
G01 F400 X-9.285 Y26.004
G01 F400 X-9.225 Y26.188
G01 F400 X-9.205 Y26.380
G01 F400 X-9.225 Y26.572
G01 F400 X-9.285 Y26.756
G01 F400 X-9.382 Y26.924
G01 F400 X-9.511 Y27.067
G01 F400 X-9.668 Y27.181
G01 F400 X-9.844 Y27.260
G01 F400 X-10.033 Y27.300
G01 F400 X-10.227 Y27.300
G00 Z3.000
G00  X-17.581 Y27.210
G01 F750 Z0
G01 F400 Z-0.060
G01 F400 X-17.760 Y27.172
G01 F400 X-17.927 Y27.098
G01 F400 X-18.075 Y26.990
G01 F400 X-18.198 Y26.854
G01 F400 X-18.289 Y26.696
G01 F400 X-18.346 Y26.522
G01 F400 X-18.364 Y26.347
G01 F400 X-18.364 Y22.332
G01 F400 X-18.341 Y22.152
G01 F400 X-18.335 Y22.088
G01 F400 X-18.275 Y21.904
G01 F400 X-18.178 Y21.736
G01 F400 X-18.049 Y21.593
G01 F400 X-17.892 Y21.479
G01 F400 X-17.716 Y21.401
G01 F400 X-17.527 Y21.360
G01 F400 X-17.333 Y21.360
G01 F400 X-17.144 Y21.401
G01 F400 X-16.968 Y21.479
G01 F400 X-16.811 Y21.593
G01 F400 X-16.682 Y21.736
G01 F400 X-16.585 Y21.904
G01 F400 X-16.525 Y22.088
G01 F400 X-16.505 Y22.280
G01 F400 X-16.525 Y22.472
G01 F400 X-16.585 Y22.656
G01 F400 X-16.616 Y22.709
G01 F400 X-16.616 Y26.347
G01 F400 X-16.634 Y26.522
G01 F400 X-16.691 Y26.696
G01 F400 X-16.782 Y26.854
G01 F400 X-16.905 Y26.990
G01 F400 X-17.053 Y27.098
G01 F400 X-17.220 Y27.172
G01 F400 X-17.399 Y27.210
G01 F400 X-17.581 Y27.210
G00 Z3.000
G00  X-5.494 Y24.467
G01 F750 Z0
G01 F400 Z-0.060
G01 F400 X-5.775 Y24.408
G01 F400 X-6.037 Y24.291
G01 F400 X-6.270 Y24.122
G01 F400 X-6.462 Y23.908
G01 F400 X-6.606 Y23.659
G01 F400 X-6.695 Y23.386
G01 F400 X-6.725 Y23.100
G01 F400 X-6.695 Y22.814
G01 F400 X-6.606 Y22.541
G01 F400 X-6.462 Y22.292
G01 F400 X-6.270 Y22.078
G01 F400 X-6.037 Y21.909
G01 F400 X-5.775 Y21.793
G01 F400 X-5.494 Y21.733
G01 F400 X-5.217 Y21.733
G01 F400 X-4.764 Y21.280
G01 F400 X-4.764 Y19.806
G01 F400 X-4.795 Y19.712
G01 F400 X-4.815 Y19.520
G01 F400 X-4.795 Y19.328
G01 F400 X-4.735 Y19.144
G01 F400 X-4.638 Y18.976
G01 F400 X-4.509 Y18.833
G01 F400 X-4.352 Y18.719
G01 F400 X-4.176 Y18.640
G01 F400 X-3.987 Y18.600
G01 F400 X-3.793 Y18.600
G01 F400 X-3.604 Y18.640
G01 F400 X-3.428 Y18.719
G01 F400 X-3.271 Y18.833
G01 F400 X-3.142 Y18.976
G01 F400 X-3.045 Y19.144
G01 F400 X-2.985 Y19.328
G01 F400 X-2.965 Y19.520
G01 F400 X-2.985 Y19.712
G01 F400 X-3.016 Y19.806
G01 F400 X-3.016 Y21.646
G01 F400 X-3.034 Y21.822
G01 F400 X-3.091 Y21.996
G01 F400 X-3.182 Y22.154
G01 F400 X-3.298 Y22.283
G01 F400 X-3.989 Y22.973
G01 F400 X-3.975 Y23.100
G01 F400 X-4.005 Y23.386
G01 F400 X-4.094 Y23.659
G01 F400 X-4.238 Y23.908
G01 F400 X-4.430 Y24.122
G01 F400 X-4.663 Y24.291
G01 F400 X-4.925 Y24.408
G01 F400 X-5.206 Y24.467
G01 F400 X-5.494 Y24.467
G00 Z3.000
G00  X-50.211 Y23.100
G01 F750 Z0
G01 F400 Z-0.060
G01 F400 X-50.390 Y23.062
G01 F400 X-50.557 Y22.988
G01 F400 X-50.703 Y22.882
G01 F400 X-54.815 Y18.770
G01 F400 X-56.063 Y18.770
G01 F400 X-56.084 Y18.780
G01 F400 X-56.273 Y18.820
G01 F400 X-56.467 Y18.820
G01 F400 X-56.656 Y18.780
G01 F400 X-56.832 Y18.701
G01 F400 X-56.989 Y18.587
G01 F400 X-57.118 Y18.444
G01 F400 X-57.215 Y18.276
G01 F400 X-57.275 Y18.092
G01 F400 X-57.295 Y17.900
G01 F400 X-57.275 Y17.708
G01 F400 X-57.215 Y17.524
G01 F400 X-57.118 Y17.356
G01 F400 X-56.989 Y17.213
G01 F400 X-56.832 Y17.099
G01 F400 X-56.656 Y17.021
G01 F400 X-56.467 Y16.980
G01 F400 X-56.273 Y16.980
G01 F400 X-56.084 Y17.021
G01 F400 X-56.063 Y17.030
G01 F400 X-54.359 Y17.030
G01 F400 X-54.180 Y17.068
G01 F400 X-54.013 Y17.142
G01 F400 X-53.867 Y17.248
G01 F400 X-49.528 Y21.587
G01 F400 X-49.412 Y21.716
G01 F400 X-49.321 Y21.874
G01 F400 X-49.264 Y22.048
G01 F400 X-49.245 Y22.230
G01 F400 X-49.264 Y22.412
G01 F400 X-49.321 Y22.586
G01 F400 X-49.412 Y22.744
G01 F400 X-49.535 Y22.880
G01 F400 X-49.683 Y22.988
G01 F400 X-49.850 Y23.062
G01 F400 X-50.029 Y23.100
G01 F400 X-50.211 Y23.100
G00 Z3.000
G00  X-48.941 Y21.830
G01 F750 Z0
G01 F400 Z-0.060
G01 F400 X-49.120 Y21.792
G01 F400 X-49.287 Y21.718
G01 F400 X-49.435 Y21.610
G01 F400 X-49.558 Y21.474
G01 F400 X-49.649 Y21.316
G01 F400 X-49.706 Y21.142
G01 F400 X-49.724 Y20.966
G01 F400 X-49.724 Y17.434
G01 F400 X-49.706 Y17.258
G01 F400 X-49.649 Y17.084
G01 F400 X-49.558 Y16.926
G01 F400 X-49.435 Y16.790
G01 F400 X-49.287 Y16.682
G01 F400 X-49.120 Y16.608
G01 F400 X-48.941 Y16.570
G01 F400 X-48.759 Y16.570
G01 F400 X-48.580 Y16.608
G01 F400 X-48.412 Y16.683
G01 F400 X-48.300 Y16.766
G01 F400 X-47.426 Y16.766
G01 F400 X-47.426 Y18.114
G01 F400 X-47.976 Y18.114
G01 F400 X-47.976 Y20.966
G01 F400 X-47.994 Y21.142
G01 F400 X-48.051 Y21.316
G01 F400 X-48.142 Y21.474
G01 F400 X-48.265 Y21.610
G01 F400 X-48.413 Y21.718
G01 F400 X-48.580 Y21.792
G01 F400 X-48.759 Y21.830
G01 F400 X-48.941 Y21.830
G00 Z3.000
G00  X-105.194 Y21.567
G01 F750 Z0
G01 F400 Z-0.060
G01 F400 X-105.475 Y21.508
G01 F400 X-105.737 Y21.391
G01 F400 X-105.970 Y21.222
G01 F400 X-106.162 Y21.008
G01 F400 X-106.306 Y20.759
G01 F400 X-106.395 Y20.486
G01 F400 X-106.425 Y20.200
G01 F400 X-106.395 Y19.914
G01 F400 X-106.306 Y19.641
G01 F400 X-106.162 Y19.392
G01 F400 X-105.970 Y19.178
G01 F400 X-105.869 Y19.105
G01 F400 X-105.869 Y11.786
G01 F400 X-105.900 Y11.692
G01 F400 X-105.920 Y11.500
G01 F400 X-105.900 Y11.308
G01 F400 X-105.840 Y11.124
G01 F400 X-105.743 Y10.956
G01 F400 X-105.614 Y10.813
G01 F400 X-105.457 Y10.699
G01 F400 X-105.281 Y10.620
G01 F400 X-105.092 Y10.580
G01 F400 X-104.898 Y10.580
G01 F400 X-104.709 Y10.620
G01 F400 X-104.688 Y10.630
G01 F400 X-100.955 Y10.630
G01 F400 X-99.555 Y9.230
G01 F400 X-112.507 Y-3.722
G01 F400 X-112.623 Y-3.851
G01 F400 X-112.714 Y-4.009
G01 F400 X-112.771 Y-4.183
G01 F400 X-112.789 Y-4.359
G01 F400 X-112.789 Y-10.376
G01 F400 X-112.839 Y-10.376
G01 F400 X-112.839 Y-12.224
G01 F400 X-112.789 Y-12.224
G01 F400 X-112.789 Y-22.701
G01 F400 X-112.771 Y-22.877
G01 F400 X-112.734 Y-22.989
G01 F400 X-112.734 Y-23.724
G01 F400 X-110.886 Y-23.724
G01 F400 X-110.886 Y-21.876
G01 F400 X-111.041 Y-21.876
G01 F400 X-111.041 Y-12.224
G01 F400 X-110.991 Y-12.224
G01 F400 X-110.991 Y-11.176
G01 F400 X-106.283 Y-6.467
G01 F400 X-106.006 Y-6.467
G01 F400 X-105.725 Y-6.408
G01 F400 X-105.463 Y-6.291
G01 F400 X-105.230 Y-6.122
G01 F400 X-105.038 Y-5.908
G01 F400 X-104.894 Y-5.659
G01 F400 X-104.805 Y-5.386
G01 F400 X-104.775 Y-5.100
G01 F400 X-104.805 Y-4.814
G01 F400 X-104.894 Y-4.541
G01 F400 X-105.038 Y-4.292
G01 F400 X-105.230 Y-4.078
G01 F400 X-105.463 Y-3.909
G01 F400 X-105.725 Y-3.792
G01 F400 X-106.006 Y-3.733
G01 F400 X-106.294 Y-3.733
G01 F400 X-106.575 Y-3.792
G01 F400 X-106.837 Y-3.909
G01 F400 X-107.070 Y-4.078
G01 F400 X-107.262 Y-4.292
G01 F400 X-107.406 Y-4.541
G01 F400 X-107.495 Y-4.814
G01 F400 X-107.525 Y-5.100
G01 F400 X-107.511 Y-5.227
G01 F400 X-111.041 Y-8.756
G01 F400 X-111.041 Y-4.726
G01 F400 X-98.585 Y7.730
G01 F400 X-97.997 Y7.730
G01 F400 X-97.976 Y7.721
G01 F400 X-97.787 Y7.680
G01 F400 X-97.593 Y7.680
G01 F400 X-97.404 Y7.721
G01 F400 X-97.228 Y7.799
G01 F400 X-97.071 Y7.913
G01 F400 X-96.942 Y8.056
G01 F400 X-96.845 Y8.224
G01 F400 X-96.785 Y8.408
G01 F400 X-96.765 Y8.600
G01 F400 X-96.785 Y8.792
G01 F400 X-96.845 Y8.976
G01 F400 X-96.942 Y9.144
G01 F400 X-97.071 Y9.287
G01 F400 X-97.228 Y9.401
G01 F400 X-97.279 Y9.424
G01 F400 X-100.007 Y12.152
G01 F400 X-100.153 Y12.258
G01 F400 X-100.320 Y12.332
G01 F400 X-100.499 Y12.370
G01 F400 X-104.121 Y12.370
G01 F400 X-104.121 Y19.189
G01 F400 X-103.938 Y19.392
G01 F400 X-103.794 Y19.641
G01 F400 X-103.705 Y19.914
G01 F400 X-103.675 Y20.200
G01 F400 X-103.705 Y20.486
G01 F400 X-103.794 Y20.759
G01 F400 X-103.938 Y21.008
G01 F400 X-104.130 Y21.222
G01 F400 X-104.363 Y21.391
G01 F400 X-104.625 Y21.508
G01 F400 X-104.906 Y21.567
G01 F400 X-105.194 Y21.567
G00 Z3.000
G00  X-81.481 Y21.070
G01 F750 Z0
G01 F400 Z-0.060
G01 F400 X-81.660 Y21.032
G01 F400 X-81.827 Y20.958
G01 F400 X-81.973 Y20.852
G01 F400 X-83.055 Y19.770
G01 F400 X-87.203 Y19.770
G01 F400 X-87.224 Y19.780
G01 F400 X-87.413 Y19.820
G01 F400 X-87.607 Y19.820
G01 F400 X-87.796 Y19.780
G01 F400 X-87.972 Y19.701
G01 F400 X-88.129 Y19.587
G01 F400 X-88.258 Y19.444
G01 F400 X-88.355 Y19.276
G01 F400 X-88.415 Y19.092
G01 F400 X-88.435 Y18.900
G01 F400 X-88.415 Y18.708
G01 F400 X-88.355 Y18.524
G01 F400 X-88.258 Y18.356
G01 F400 X-88.129 Y18.213
G01 F400 X-87.972 Y18.099
G01 F400 X-87.796 Y18.021
G01 F400 X-87.607 Y17.980
G01 F400 X-87.413 Y17.980
G01 F400 X-87.224 Y18.021
G01 F400 X-87.203 Y18.030
G01 F400 X-82.599 Y18.030
G01 F400 X-82.420 Y18.068
G01 F400 X-82.253 Y18.142
G01 F400 X-82.107 Y18.248
G01 F400 X-80.798 Y19.557
G01 F400 X-80.682 Y19.686
G01 F400 X-80.591 Y19.844
G01 F400 X-80.534 Y20.018
G01 F400 X-80.515 Y20.200
G01 F400 X-80.534 Y20.382
G01 F400 X-80.591 Y20.556
G01 F400 X-80.682 Y20.714
G01 F400 X-80.805 Y20.850
G01 F400 X-80.953 Y20.958
G01 F400 X-81.120 Y21.032
G01 F400 X-81.299 Y21.070
G01 F400 X-81.481 Y21.070
G00 Z3.000
G00  X-97.767 Y19.820
G01 F750 Z0
G01 F400 Z-0.060
G01 F400 X-97.956 Y19.780
G01 F400 X-98.132 Y19.701
G01 F400 X-98.289 Y19.587
G01 F400 X-98.418 Y19.444
G01 F400 X-98.515 Y19.276
G01 F400 X-98.575 Y19.092
G01 F400 X-98.595 Y18.900
G01 F400 X-98.575 Y18.708
G01 F400 X-98.515 Y18.524
G01 F400 X-98.418 Y18.356
G01 F400 X-98.289 Y18.213
G01 F400 X-98.132 Y18.099
G01 F400 X-97.956 Y18.021
G01 F400 X-97.767 Y17.980
G01 F400 X-97.573 Y17.980
G01 F400 X-97.384 Y18.021
G01 F400 X-97.363 Y18.030
G01 F400 X-92.895 Y18.030
G01 F400 X-88.156 Y13.292
G01 F400 X-88.078 Y13.156
G01 F400 X-87.949 Y13.013
G01 F400 X-87.792 Y12.899
G01 F400 X-87.616 Y12.821
G01 F400 X-87.427 Y12.780
G01 F400 X-87.233 Y12.780
G01 F400 X-87.044 Y12.821
G01 F400 X-86.868 Y12.899
G01 F400 X-86.711 Y13.013
G01 F400 X-86.582 Y13.156
G01 F400 X-86.504 Y13.291
G01 F400 X-84.965 Y14.830
G01 F400 X-82.115 Y14.830
G01 F400 X-80.603 Y13.318
G01 F400 X-80.457 Y13.212
G01 F400 X-80.290 Y13.138
G01 F400 X-80.111 Y13.100
G01 F400 X-79.929 Y13.100
G01 F400 X-79.750 Y13.138
G01 F400 X-79.582 Y13.213
G01 F400 X-79.470 Y13.296
G01 F400 X-78.596 Y13.296
G01 F400 X-78.596 Y14.643
G01 F400 X-79.466 Y14.651
G01 F400 X-81.167 Y16.352
G01 F400 X-81.313 Y16.458
G01 F400 X-81.480 Y16.532
G01 F400 X-81.659 Y16.570
G01 F400 X-85.421 Y16.570
G01 F400 X-85.600 Y16.532
G01 F400 X-85.767 Y16.458
G01 F400 X-85.913 Y16.352
G01 F400 X-87.330 Y14.935
G01 F400 X-91.947 Y19.552
G01 F400 X-92.093 Y19.658
G01 F400 X-92.260 Y19.732
G01 F400 X-92.439 Y19.770
G01 F400 X-97.363 Y19.770
G01 F400 X-97.384 Y19.780
G01 F400 X-97.573 Y19.820
G01 F400 X-97.767 Y19.820
G00 Z3.000
G00  X-80.211 Y19.800
G01 F750 Z0
G01 F400 Z-0.060
G01 F400 X-80.390 Y19.762
G01 F400 X-80.557 Y19.688
G01 F400 X-80.705 Y19.580
G01 F400 X-80.828 Y19.444
G01 F400 X-80.919 Y19.286
G01 F400 X-80.976 Y19.112
G01 F400 X-80.995 Y18.930
G01 F400 X-80.976 Y18.748
G01 F400 X-80.919 Y18.574
G01 F400 X-80.828 Y18.416
G01 F400 X-80.705 Y18.280
G01 F400 X-80.557 Y18.172
G01 F400 X-80.390 Y18.098
G01 F400 X-80.211 Y18.060
G01 F400 X-79.645 Y18.060
G01 F400 X-78.612 Y17.027
G01 F400 X-78.625 Y16.900
G01 F400 X-78.595 Y16.614
G01 F400 X-78.506 Y16.341
G01 F400 X-78.362 Y16.092
G01 F400 X-78.170 Y15.878
G01 F400 X-77.937 Y15.709
G01 F400 X-77.675 Y15.593
G01 F400 X-77.394 Y15.533
G01 F400 X-77.106 Y15.533
G01 F400 X-76.825 Y15.593
G01 F400 X-76.563 Y15.709
G01 F400 X-76.330 Y15.878
G01 F400 X-76.138 Y16.092
G01 F400 X-75.994 Y16.341
G01 F400 X-75.905 Y16.614
G01 F400 X-75.875 Y16.900
G01 F400 X-75.905 Y17.186
G01 F400 X-75.994 Y17.459
G01 F400 X-76.138 Y17.708
G01 F400 X-76.330 Y17.922
G01 F400 X-76.563 Y18.091
G01 F400 X-76.825 Y18.207
G01 F400 X-77.106 Y18.267
G01 F400 X-77.383 Y18.267
G01 F400 X-78.697 Y19.582
G01 F400 X-78.843 Y19.688
G01 F400 X-79.010 Y19.762
G01 F400 X-79.189 Y19.800
G01 F400 X-80.211 Y19.800
G00 Z3.000
G00  X-66.627 Y18.820
G01 F750 Z0
G01 F400 Z-0.060
G01 F400 X-66.816 Y18.780
G01 F400 X-66.837 Y18.770
G01 F400 X-70.441 Y18.770
G01 F400 X-70.620 Y18.732
G01 F400 X-70.787 Y18.658
G01 F400 X-70.933 Y18.552
G01 F400 X-72.842 Y16.643
G01 F400 X-72.958 Y16.514
G01 F400 X-73.049 Y16.356
G01 F400 X-73.106 Y16.182
G01 F400 X-73.124 Y16.006
G01 F400 X-73.124 Y13.555
G01 F400 X-73.170 Y13.522
G01 F400 X-73.362 Y13.308
G01 F400 X-73.506 Y13.059
G01 F400 X-73.595 Y12.786
G01 F400 X-73.625 Y12.500
G01 F400 X-73.595 Y12.214
G01 F400 X-73.506 Y11.941
G01 F400 X-73.362 Y11.692
G01 F400 X-73.170 Y11.478
G01 F400 X-72.937 Y11.309
G01 F400 X-72.675 Y11.193
G01 F400 X-72.394 Y11.133
G01 F400 X-72.106 Y11.133
G01 F400 X-71.825 Y11.193
G01 F400 X-71.563 Y11.309
G01 F400 X-71.330 Y11.478
G01 F400 X-71.138 Y11.692
G01 F400 X-70.994 Y11.941
G01 F400 X-70.905 Y12.214
G01 F400 X-70.875 Y12.500
G01 F400 X-70.905 Y12.786
G01 F400 X-70.994 Y13.059
G01 F400 X-71.138 Y13.308
G01 F400 X-71.330 Y13.522
G01 F400 X-71.376 Y13.555
G01 F400 X-71.376 Y15.639
G01 F400 X-69.985 Y17.030
G01 F400 X-66.837 Y17.030
G01 F400 X-66.816 Y17.021
G01 F400 X-66.627 Y16.980
G01 F400 X-66.433 Y16.980
G01 F400 X-66.244 Y17.021
G01 F400 X-66.068 Y17.099
G01 F400 X-65.911 Y17.213
G01 F400 X-65.782 Y17.356
G01 F400 X-65.685 Y17.524
G01 F400 X-65.625 Y17.708
G01 F400 X-65.605 Y17.900
G01 F400 X-65.625 Y18.092
G01 F400 X-65.685 Y18.276
G01 F400 X-65.782 Y18.444
G01 F400 X-65.911 Y18.587
G01 F400 X-66.068 Y18.701
G01 F400 X-66.244 Y18.780
G01 F400 X-66.433 Y18.820
G01 F400 X-66.627 Y18.820
G00 Z3.000
G00  X-10.227 Y17.140
G01 F750 Z0
G01 F400 Z-0.060
G01 F400 X-10.416 Y17.100
G01 F400 X-10.592 Y17.021
G01 F400 X-10.749 Y16.907
G01 F400 X-10.878 Y16.764
G01 F400 X-10.975 Y16.596
G01 F400 X-11.035 Y16.412
G01 F400 X-11.055 Y16.220
G01 F400 X-11.035 Y16.028
G01 F400 X-10.975 Y15.844
G01 F400 X-10.878 Y15.676
G01 F400 X-10.749 Y15.533
G01 F400 X-10.592 Y15.419
G01 F400 X-10.416 Y15.341
G01 F400 X-10.227 Y15.300
G01 F400 X-10.033 Y15.300
G01 F400 X-9.844 Y15.341
G01 F400 X-9.668 Y15.419
G01 F400 X-9.511 Y15.533
G01 F400 X-9.382 Y15.676
G01 F400 X-9.285 Y15.844
G01 F400 X-9.225 Y16.028
G01 F400 X-9.205 Y16.220
G01 F400 X-9.225 Y16.412
G01 F400 X-9.285 Y16.596
G01 F400 X-9.382 Y16.764
G01 F400 X-9.511 Y16.907
G01 F400 X-9.668 Y17.021
G01 F400 X-9.844 Y17.100
G01 F400 X-10.033 Y17.140
G01 F400 X-10.227 Y17.140
G00 Z3.000
G00  X-50.211 Y17.040
G01 F750 Z0
G01 F400 Z-0.060
G01 F400 X-50.390 Y17.002
G01 F400 X-50.557 Y16.928
G01 F400 X-50.703 Y16.822
G01 F400 X-52.855 Y14.670
G01 F400 X-56.083 Y14.670
G01 F400 X-56.104 Y14.680
G01 F400 X-56.293 Y14.720
G01 F400 X-56.487 Y14.720
G01 F400 X-56.676 Y14.680
G01 F400 X-56.852 Y14.601
G01 F400 X-57.009 Y14.487
G01 F400 X-57.138 Y14.344
G01 F400 X-57.235 Y14.176
G01 F400 X-57.295 Y13.992
G01 F400 X-57.315 Y13.800
G01 F400 X-57.295 Y13.608
G01 F400 X-57.235 Y13.424
G01 F400 X-57.138 Y13.256
G01 F400 X-57.009 Y13.113
G01 F400 X-56.852 Y12.999
G01 F400 X-56.676 Y12.921
G01 F400 X-56.487 Y12.880
G01 F400 X-56.293 Y12.880
G01 F400 X-56.104 Y12.921
G01 F400 X-56.083 Y12.930
G01 F400 X-52.399 Y12.930
G01 F400 X-52.220 Y12.968
G01 F400 X-52.053 Y13.042
G01 F400 X-51.907 Y13.148
G01 F400 X-49.528 Y15.527
G01 F400 X-49.412 Y15.656
G01 F400 X-49.321 Y15.814
G01 F400 X-49.264 Y15.988
G01 F400 X-49.245 Y16.170
G01 F400 X-49.264 Y16.352
G01 F400 X-49.321 Y16.526
G01 F400 X-49.412 Y16.684
G01 F400 X-49.535 Y16.820
G01 F400 X-49.683 Y16.928
G01 F400 X-49.850 Y17.002
G01 F400 X-50.029 Y17.040
G01 F400 X-50.211 Y17.040
G00 Z3.000
G00  X-48.941 Y15.770
G01 F750 Z0
G01 F400 Z-0.060
G01 F400 X-49.120 Y15.732
G01 F400 X-49.287 Y15.658
G01 F400 X-49.435 Y15.550
G01 F400 X-49.558 Y15.414
G01 F400 X-49.649 Y15.256
G01 F400 X-49.706 Y15.082
G01 F400 X-49.725 Y14.900
G01 F400 X-49.706 Y14.718
G01 F400 X-49.649 Y14.544
G01 F400 X-49.558 Y14.386
G01 F400 X-49.442 Y14.257
G01 F400 X-45.312 Y10.127
G01 F400 X-45.325 Y10.000
G01 F400 X-45.295 Y9.714
G01 F400 X-45.206 Y9.441
G01 F400 X-45.062 Y9.192
G01 F400 X-44.870 Y8.978
G01 F400 X-44.637 Y8.809
G01 F400 X-44.375 Y8.693
G01 F400 X-44.094 Y8.633
G01 F400 X-43.806 Y8.633
G01 F400 X-43.525 Y8.693
G01 F400 X-43.263 Y8.809
G01 F400 X-43.030 Y8.978
G01 F400 X-42.838 Y9.192
G01 F400 X-42.694 Y9.441
G01 F400 X-42.605 Y9.714
G01 F400 X-42.575 Y10.000
G01 F400 X-42.605 Y10.286
G01 F400 X-42.694 Y10.559
G01 F400 X-42.838 Y10.808
G01 F400 X-43.030 Y11.022
G01 F400 X-43.263 Y11.191
G01 F400 X-43.525 Y11.308
G01 F400 X-43.806 Y11.367
G01 F400 X-44.083 Y11.367
G01 F400 X-48.267 Y15.552
G01 F400 X-48.413 Y15.658
G01 F400 X-48.580 Y15.732
G01 F400 X-48.759 Y15.770
G01 F400 X-48.941 Y15.770
G00 Z3.000
G00  X-66.647 Y14.720
G01 F750 Z0
G01 F400 Z-0.060
G01 F400 X-66.836 Y14.680
G01 F400 X-67.012 Y14.601
G01 F400 X-67.169 Y14.487
G01 F400 X-67.298 Y14.344
G01 F400 X-67.395 Y14.176
G01 F400 X-67.455 Y13.992
G01 F400 X-67.475 Y13.800
G01 F400 X-67.455 Y13.608
G01 F400 X-67.395 Y13.424
G01 F400 X-67.298 Y13.256
G01 F400 X-67.169 Y13.113
G01 F400 X-67.012 Y12.999
G01 F400 X-66.961 Y12.976
G01 F400 X-52.233 Y-1.752
G01 F400 X-52.124 Y-1.831
G01 F400 X-52.124 Y-2.624
G01 F400 X-49.076 Y-2.624
G01 F400 X-49.076 Y-2.170
G01 F400 X-46.124 Y-2.170
G01 F400 X-46.124 Y-2.824
G01 F400 X-43.076 Y-2.824
G01 F400 X-43.076 Y0.224
G01 F400 X-46.124 Y0.224
G01 F400 X-46.124 Y-0.427
G01 F400 X-49.076 Y-0.421
G01 F400 X-49.076 Y0.424
G01 F400 X-51.939 Y0.424
G01 F400 X-65.724 Y14.208
G01 F400 X-65.802 Y14.344
G01 F400 X-65.931 Y14.487
G01 F400 X-66.088 Y14.601
G01 F400 X-66.264 Y14.680
G01 F400 X-66.453 Y14.720
G01 F400 X-66.647 Y14.720
G00 Z3.000
G00  X-81.381 Y13.570
G01 F750 Z0
G01 F400 Z-0.060
G01 F400 X-81.560 Y13.532
G01 F400 X-81.727 Y13.458
G01 F400 X-81.873 Y13.352
G01 F400 X-85.755 Y9.470
G01 F400 X-87.223 Y9.470
G01 F400 X-87.244 Y9.479
G01 F400 X-87.433 Y9.520
G01 F400 X-87.627 Y9.520
G01 F400 X-87.816 Y9.479
G01 F400 X-87.992 Y9.401
G01 F400 X-88.149 Y9.287
G01 F400 X-88.278 Y9.144
G01 F400 X-88.375 Y8.976
G01 F400 X-88.435 Y8.792
G01 F400 X-88.455 Y8.600
G01 F400 X-88.435 Y8.408
G01 F400 X-88.375 Y8.224
G01 F400 X-88.278 Y8.056
G01 F400 X-88.149 Y7.913
G01 F400 X-87.992 Y7.799
G01 F400 X-87.816 Y7.721
G01 F400 X-87.627 Y7.680
G01 F400 X-87.433 Y7.680
G01 F400 X-87.244 Y7.721
G01 F400 X-87.223 Y7.730
G01 F400 X-85.299 Y7.730
G01 F400 X-85.120 Y7.768
G01 F400 X-84.953 Y7.842
G01 F400 X-84.807 Y7.948
G01 F400 X-80.698 Y12.057
G01 F400 X-80.582 Y12.186
G01 F400 X-80.491 Y12.344
G01 F400 X-80.434 Y12.518
G01 F400 X-80.415 Y12.700
G01 F400 X-80.434 Y12.882
G01 F400 X-80.491 Y13.056
G01 F400 X-80.582 Y13.214
G01 F400 X-80.705 Y13.350
G01 F400 X-80.853 Y13.458
G01 F400 X-81.020 Y13.532
G01 F400 X-81.199 Y13.570
G01 F400 X-81.381 Y13.570
G00 Z3.000
G00  X-9.294 Y12.667
G01 F750 Z0
G01 F400 Z-0.060
G01 F400 X-9.575 Y12.607
G01 F400 X-9.837 Y12.491
G01 F400 X-10.070 Y12.322
G01 F400 X-10.262 Y12.108
G01 F400 X-10.406 Y11.859
G01 F400 X-10.495 Y11.586
G01 F400 X-10.525 Y11.300
G01 F400 X-10.511 Y11.173
G01 F400 X-14.342 Y7.343
G01 F400 X-14.458 Y7.214
G01 F400 X-14.549 Y7.056
G01 F400 X-14.606 Y6.882
G01 F400 X-14.624 Y6.707
G01 F400 X-14.624 Y5.786
G01 F400 X-14.655 Y5.692
G01 F400 X-14.675 Y5.500
G01 F400 X-14.655 Y5.308
G01 F400 X-14.595 Y5.124
G01 F400 X-14.498 Y4.956
G01 F400 X-14.369 Y4.813
G01 F400 X-14.212 Y4.699
G01 F400 X-14.036 Y4.620
G01 F400 X-13.847 Y4.580
G01 F400 X-13.653 Y4.580
G01 F400 X-13.464 Y4.620
G01 F400 X-13.443 Y4.630
G01 F400 X-7.178 Y4.630
G01 F400 X-7.017 Y4.666
G01 F400 X-6.356 Y4.666
G01 F400 X-6.356 Y5.179
G01 F400 X-3.298 Y8.237
G01 F400 X-3.182 Y8.366
G01 F400 X-3.091 Y8.524
G01 F400 X-3.034 Y8.698
G01 F400 X-3.016 Y8.873
G01 F400 X-3.016 Y9.074
G01 F400 X-2.985 Y9.168
G01 F400 X-2.965 Y9.360
G01 F400 X-2.985 Y9.552
G01 F400 X-3.045 Y9.736
G01 F400 X-3.142 Y9.904
G01 F400 X-3.271 Y10.047
G01 F400 X-3.428 Y10.161
G01 F400 X-3.604 Y10.240
G01 F400 X-3.793 Y10.280
G01 F400 X-3.987 Y10.280
G01 F400 X-4.176 Y10.240
G01 F400 X-4.352 Y10.161
G01 F400 X-4.509 Y10.047
G01 F400 X-4.638 Y9.904
G01 F400 X-4.735 Y9.736
G01 F400 X-4.795 Y9.552
G01 F400 X-4.815 Y9.360
G01 F400 X-4.799 Y9.206
G01 F400 X-7.591 Y6.414
G01 F400 X-8.104 Y6.414
G01 F400 X-8.104 Y6.370
G01 F400 X-12.845 Y6.370
G01 F400 X-9.283 Y9.933
G01 F400 X-9.006 Y9.933
G01 F400 X-8.725 Y9.992
G01 F400 X-8.463 Y10.109
G01 F400 X-8.230 Y10.278
G01 F400 X-8.038 Y10.492
G01 F400 X-7.894 Y10.741
G01 F400 X-7.805 Y11.014
G01 F400 X-7.775 Y11.300
G01 F400 X-7.805 Y11.586
G01 F400 X-7.894 Y11.859
G01 F400 X-8.038 Y12.108
G01 F400 X-8.230 Y12.322
G01 F400 X-8.463 Y12.491
G01 F400 X-8.725 Y12.607
G01 F400 X-9.006 Y12.667
G01 F400 X-9.294 Y12.667
G00 Z3.000
G00  X-80.111 Y12.300
G01 F750 Z0
G01 F400 Z-0.060
G01 F400 X-80.290 Y12.262
G01 F400 X-80.457 Y12.188
G01 F400 X-80.605 Y12.080
G01 F400 X-80.728 Y11.944
G01 F400 X-80.819 Y11.786
G01 F400 X-80.876 Y11.612
G01 F400 X-80.894 Y11.437
G01 F400 X-80.894 Y7.364
G01 F400 X-80.876 Y7.188
G01 F400 X-80.819 Y7.014
G01 F400 X-80.728 Y6.856
G01 F400 X-80.605 Y6.720
G01 F400 X-80.457 Y6.612
G01 F400 X-80.290 Y6.538
G01 F400 X-80.111 Y6.500
G01 F400 X-79.929 Y6.500
G01 F400 X-79.750 Y6.538
G01 F400 X-79.582 Y6.613
G01 F400 X-79.470 Y6.696
G01 F400 X-78.596 Y6.696
G01 F400 X-78.596 Y8.044
G01 F400 X-79.146 Y8.044
G01 F400 X-79.146 Y11.437
G01 F400 X-79.164 Y11.612
G01 F400 X-79.221 Y11.786
G01 F400 X-79.312 Y11.944
G01 F400 X-79.435 Y12.080
G01 F400 X-79.583 Y12.188
G01 F400 X-79.750 Y12.262
G01 F400 X-79.929 Y12.300
G01 F400 X-80.111 Y12.300
G00 Z3.000
G00  X-76.294 Y7.367
G01 F750 Z0
G01 F400 Z-0.060
G01 F400 X-76.575 Y7.308
G01 F400 X-76.837 Y7.191
G01 F400 X-77.070 Y7.022
G01 F400 X-77.262 Y6.808
G01 F400 X-77.406 Y6.559
G01 F400 X-77.495 Y6.286
G01 F400 X-77.525 Y6.000
G01 F400 X-77.511 Y5.873
G01 F400 X-77.685 Y5.700
G01 F400 X-80.111 Y5.700
G01 F400 X-80.290 Y5.662
G01 F400 X-80.457 Y5.588
G01 F400 X-80.605 Y5.480
G01 F400 X-80.728 Y5.344
G01 F400 X-80.819 Y5.186
G01 F400 X-80.876 Y5.012
G01 F400 X-80.895 Y4.830
G01 F400 X-80.876 Y4.648
G01 F400 X-80.819 Y4.474
G01 F400 X-80.728 Y4.316
G01 F400 X-80.605 Y4.180
G01 F400 X-80.457 Y4.072
G01 F400 X-80.290 Y3.998
G01 F400 X-80.111 Y3.960
G01 F400 X-77.229 Y3.960
G01 F400 X-77.050 Y3.998
G01 F400 X-76.883 Y4.072
G01 F400 X-76.737 Y4.178
G01 F400 X-76.282 Y4.633
G01 F400 X-76.006 Y4.633
G01 F400 X-75.725 Y4.692
G01 F400 X-75.463 Y4.809
G01 F400 X-75.230 Y4.978
G01 F400 X-75.038 Y5.192
G01 F400 X-74.894 Y5.441
G01 F400 X-74.805 Y5.714
G01 F400 X-74.775 Y6.000
G01 F400 X-74.805 Y6.286
G01 F400 X-74.894 Y6.559
G01 F400 X-75.038 Y6.808
G01 F400 X-75.230 Y7.022
G01 F400 X-75.463 Y7.191
G01 F400 X-75.725 Y7.308
G01 F400 X-76.006 Y7.367
G01 F400 X-76.294 Y7.367
G00 Z3.000
G00  X-81.381 Y6.970
G01 F750 Z0
G01 F400 Z-0.060
G01 F400 X-81.560 Y6.932
G01 F400 X-81.727 Y6.858
G01 F400 X-81.873 Y6.752
G01 F400 X-84.055 Y4.570
G01 F400 X-87.223 Y4.570
G01 F400 X-87.244 Y4.580
G01 F400 X-87.433 Y4.620
G01 F400 X-87.627 Y4.620
G01 F400 X-87.816 Y4.580
G01 F400 X-87.992 Y4.501
G01 F400 X-88.149 Y4.387
G01 F400 X-88.278 Y4.244
G01 F400 X-88.375 Y4.076
G01 F400 X-88.435 Y3.892
G01 F400 X-88.455 Y3.700
G01 F400 X-88.435 Y3.508
G01 F400 X-88.375 Y3.324
G01 F400 X-88.278 Y3.156
G01 F400 X-88.149 Y3.013
G01 F400 X-87.992 Y2.899
G01 F400 X-87.816 Y2.821
G01 F400 X-87.627 Y2.780
G01 F400 X-87.433 Y2.780
G01 F400 X-87.244 Y2.821
G01 F400 X-87.223 Y2.830
G01 F400 X-83.599 Y2.830
G01 F400 X-83.420 Y2.868
G01 F400 X-83.253 Y2.942
G01 F400 X-83.107 Y3.048
G01 F400 X-80.698 Y5.457
G01 F400 X-80.582 Y5.586
G01 F400 X-80.491 Y5.744
G01 F400 X-80.434 Y5.918
G01 F400 X-80.415 Y6.100
G01 F400 X-80.434 Y6.282
G01 F400 X-80.491 Y6.456
G01 F400 X-80.582 Y6.614
G01 F400 X-80.705 Y6.750
G01 F400 X-80.853 Y6.858
G01 F400 X-81.020 Y6.932
G01 F400 X-81.199 Y6.970
G01 F400 X-81.381 Y6.970
G00 Z3.000
G00  X-24.007 Y6.420
G01 F750 Z0
G01 F400 Z-0.060
G01 F400 X-24.196 Y6.380
G01 F400 X-24.372 Y6.301
G01 F400 X-24.529 Y6.187
G01 F400 X-24.658 Y6.044
G01 F400 X-24.755 Y5.876
G01 F400 X-24.815 Y5.692
G01 F400 X-24.835 Y5.500
G01 F400 X-24.815 Y5.308
G01 F400 X-24.755 Y5.124
G01 F400 X-24.658 Y4.956
G01 F400 X-24.529 Y4.813
G01 F400 X-24.372 Y4.699
G01 F400 X-24.196 Y4.620
G01 F400 X-24.007 Y4.580
G01 F400 X-23.813 Y4.580
G01 F400 X-23.624 Y4.620
G01 F400 X-23.448 Y4.699
G01 F400 X-23.291 Y4.813
G01 F400 X-23.162 Y4.956
G01 F400 X-23.065 Y5.124
G01 F400 X-23.005 Y5.308
G01 F400 X-22.985 Y5.500
G01 F400 X-23.005 Y5.692
G01 F400 X-23.065 Y5.876
G01 F400 X-23.162 Y6.044
G01 F400 X-23.291 Y6.187
G01 F400 X-23.448 Y6.301
G01 F400 X-23.624 Y6.380
G01 F400 X-23.813 Y6.420
G01 F400 X-24.007 Y6.420
G00 Z3.000
G00  X-97.787 Y4.620
G01 F750 Z0
G01 F400 Z-0.060
G01 F400 X-97.976 Y4.580
G01 F400 X-98.152 Y4.501
G01 F400 X-98.309 Y4.387
G01 F400 X-98.438 Y4.244
G01 F400 X-98.535 Y4.076
G01 F400 X-98.595 Y3.892
G01 F400 X-98.615 Y3.700
G01 F400 X-98.595 Y3.508
G01 F400 X-98.535 Y3.324
G01 F400 X-98.438 Y3.156
G01 F400 X-98.309 Y3.013
G01 F400 X-98.152 Y2.899
G01 F400 X-97.976 Y2.821
G01 F400 X-97.787 Y2.780
G01 F400 X-97.593 Y2.780
G01 F400 X-97.404 Y2.821
G01 F400 X-97.383 Y2.830
G01 F400 X-94.895 Y2.830
G01 F400 X-88.256 Y-3.808
G01 F400 X-88.178 Y-3.944
G01 F400 X-88.049 Y-4.087
G01 F400 X-87.892 Y-4.201
G01 F400 X-87.716 Y-4.280
G01 F400 X-87.527 Y-4.320
G01 F400 X-87.333 Y-4.320
G01 F400 X-87.144 Y-4.280
G01 F400 X-87.123 Y-4.270
G01 F400 X-85.559 Y-4.270
G01 F400 X-85.380 Y-4.232
G01 F400 X-85.213 Y-4.158
G01 F400 X-85.067 Y-4.052
G01 F400 X-83.085 Y-2.070
G01 F400 X-81.815 Y-2.070
G01 F400 X-80.984 Y-2.901
G01 F400 X-80.984 Y-4.067
G01 F400 X-80.966 Y-4.242
G01 F400 X-80.909 Y-4.416
G01 F400 X-80.818 Y-4.574
G01 F400 X-80.695 Y-4.710
G01 F400 X-80.547 Y-4.818
G01 F400 X-80.380 Y-4.892
G01 F400 X-80.201 Y-4.930
G01 F400 X-80.019 Y-4.930
G01 F400 X-79.840 Y-4.892
G01 F400 X-79.672 Y-4.817
G01 F400 X-79.560 Y-4.734
G01 F400 X-78.686 Y-4.734
G01 F400 X-78.686 Y-3.386
G01 F400 X-79.236 Y-3.386
G01 F400 X-79.236 Y-2.534
G01 F400 X-79.254 Y-2.358
G01 F400 X-79.311 Y-2.184
G01 F400 X-79.402 Y-2.026
G01 F400 X-79.518 Y-1.897
G01 F400 X-80.867 Y-0.548
G01 F400 X-81.013 Y-0.442
G01 F400 X-81.180 Y-0.368
G01 F400 X-81.359 Y-0.330
G01 F400 X-83.541 Y-0.330
G01 F400 X-83.720 Y-0.368
G01 F400 X-83.887 Y-0.442
G01 F400 X-84.033 Y-0.548
G01 F400 X-86.015 Y-2.530
G01 F400 X-87.065 Y-2.530
G01 F400 X-93.947 Y4.352
G01 F400 X-94.093 Y4.458
G01 F400 X-94.260 Y4.532
G01 F400 X-94.439 Y4.570
G01 F400 X-97.383 Y4.570
G01 F400 X-97.404 Y4.580
G01 F400 X-97.593 Y4.620
G01 F400 X-97.787 Y4.620
G00 Z3.000
G00  X-9.641 Y3.870
G01 F750 Z0
G01 F400 Z-0.060
G01 F400 X-9.820 Y3.832
G01 F400 X-9.987 Y3.758
G01 F400 X-10.133 Y3.652
G01 F400 X-10.215 Y3.570
G01 F400 X-11.541 Y3.570
G01 F400 X-11.720 Y3.532
G01 F400 X-11.887 Y3.458
G01 F400 X-12.033 Y3.352
G01 F400 X-14.261 Y1.124
G01 F400 X-14.312 Y1.101
G01 F400 X-14.469 Y0.987
G01 F400 X-14.598 Y0.844
G01 F400 X-14.695 Y0.676
G01 F400 X-14.755 Y0.492
G01 F400 X-14.775 Y0.300
G01 F400 X-14.755 Y0.108
G01 F400 X-14.695 Y-0.076
G01 F400 X-14.598 Y-0.244
G01 F400 X-14.469 Y-0.387
G01 F400 X-14.312 Y-0.501
G01 F400 X-14.136 Y-0.580
G01 F400 X-13.947 Y-0.620
G01 F400 X-13.753 Y-0.620
G01 F400 X-13.564 Y-0.580
G01 F400 X-13.388 Y-0.501
G01 F400 X-13.231 Y-0.387
G01 F400 X-13.102 Y-0.244
G01 F400 X-13.024 Y-0.109
G01 F400 X-11.085 Y1.830
G01 F400 X-9.759 Y1.830
G01 F400 X-9.580 Y1.868
G01 F400 X-9.413 Y1.942
G01 F400 X-9.267 Y2.048
G01 F400 X-9.185 Y2.130
G01 F400 X-7.139 Y2.130
G01 F400 X-6.960 Y2.168
G01 F400 X-6.793 Y2.242
G01 F400 X-6.645 Y2.350
G01 F400 X-6.522 Y2.486
G01 F400 X-6.431 Y2.644
G01 F400 X-6.374 Y2.818
G01 F400 X-6.355 Y3.000
G01 F400 X-6.374 Y3.182
G01 F400 X-6.431 Y3.356
G01 F400 X-6.522 Y3.514
G01 F400 X-6.645 Y3.650
G01 F400 X-6.793 Y3.758
G01 F400 X-6.960 Y3.832
G01 F400 X-7.139 Y3.870
G01 F400 X-9.641 Y3.870
G00 Z3.000
G00  X-101.994 Y1.967
G01 F750 Z0
G01 F400 Z-0.060
G01 F400 X-102.275 Y1.908
G01 F400 X-102.537 Y1.791
G01 F400 X-102.770 Y1.622
G01 F400 X-102.962 Y1.408
G01 F400 X-103.106 Y1.159
G01 F400 X-103.195 Y0.886
G01 F400 X-103.225 Y0.600
G01 F400 X-103.195 Y0.314
G01 F400 X-103.106 Y0.041
G01 F400 X-102.962 Y-0.208
G01 F400 X-102.770 Y-0.422
G01 F400 X-102.537 Y-0.591
G01 F400 X-102.275 Y-0.708
G01 F400 X-102.124 Y-0.740
G01 F400 X-102.124 Y-9.046
G01 F400 X-102.106 Y-9.222
G01 F400 X-102.049 Y-9.396
G01 F400 X-101.958 Y-9.554
G01 F400 X-101.873 Y-9.648
G01 F400 X-101.842 Y-9.683
G01 F400 X-98.316 Y-13.208
G01 F400 X-98.238 Y-13.344
G01 F400 X-98.109 Y-13.487
G01 F400 X-97.952 Y-13.601
G01 F400 X-97.776 Y-13.680
G01 F400 X-97.587 Y-13.720
G01 F400 X-97.393 Y-13.720
G01 F400 X-97.204 Y-13.680
G01 F400 X-97.028 Y-13.601
G01 F400 X-96.871 Y-13.487
G01 F400 X-96.742 Y-13.344
G01 F400 X-96.645 Y-13.176
G01 F400 X-96.585 Y-12.992
G01 F400 X-96.565 Y-12.800
G01 F400 X-96.585 Y-12.608
G01 F400 X-96.645 Y-12.424
G01 F400 X-96.742 Y-12.256
G01 F400 X-96.871 Y-12.113
G01 F400 X-97.028 Y-11.999
G01 F400 X-97.079 Y-11.976
G01 F400 X-100.376 Y-8.680
G01 F400 X-100.376 Y-1.863
G01 F400 X-98.414 Y-3.812
G01 F400 X-98.338 Y-3.944
G01 F400 X-98.209 Y-4.087
G01 F400 X-98.052 Y-4.201
G01 F400 X-97.876 Y-4.280
G01 F400 X-97.687 Y-4.320
G01 F400 X-97.493 Y-4.320
G01 F400 X-97.304 Y-4.280
G01 F400 X-97.128 Y-4.201
G01 F400 X-96.971 Y-4.087
G01 F400 X-96.842 Y-3.944
G01 F400 X-96.745 Y-3.776
G01 F400 X-96.685 Y-3.592
G01 F400 X-96.665 Y-3.400
G01 F400 X-96.685 Y-3.208
G01 F400 X-96.745 Y-3.024
G01 F400 X-96.842 Y-2.856
G01 F400 X-96.971 Y-2.713
G01 F400 X-97.128 Y-2.599
G01 F400 X-97.179 Y-2.576
G01 F400 X-100.489 Y0.734
G01 F400 X-100.505 Y0.886
G01 F400 X-100.594 Y1.159
G01 F400 X-100.738 Y1.408
G01 F400 X-100.930 Y1.622
G01 F400 X-101.163 Y1.791
G01 F400 X-101.425 Y1.908
G01 F400 X-101.706 Y1.967
G01 F400 X-101.994 Y1.967
G00 Z3.000
G00  X-7.321 Y1.330
G01 F750 Z0
G01 F400 Z-0.060
G01 F400 X-7.500 Y1.292
G01 F400 X-7.667 Y1.218
G01 F400 X-7.815 Y1.110
G01 F400 X-7.938 Y0.974
G01 F400 X-8.029 Y0.816
G01 F400 X-8.086 Y0.642
G01 F400 X-8.104 Y0.467
G01 F400 X-8.104 Y-6.027
G01 F400 X-8.086 Y-6.202
G01 F400 X-8.029 Y-6.376
G01 F400 X-7.938 Y-6.534
G01 F400 X-7.822 Y-6.663
G01 F400 X-7.312 Y-7.173
G01 F400 X-7.325 Y-7.300
G01 F400 X-7.295 Y-7.586
G01 F400 X-7.206 Y-7.859
G01 F400 X-7.062 Y-8.108
G01 F400 X-6.870 Y-8.322
G01 F400 X-6.637 Y-8.491
G01 F400 X-6.375 Y-8.607
G01 F400 X-6.094 Y-8.667
G01 F400 X-5.817 Y-8.667
G01 F400 X-4.964 Y-9.521
G01 F400 X-4.964 Y-12.291
G01 F400 X-8.902 Y-8.354
G01 F400 X-8.875 Y-8.100
G01 F400 X-8.905 Y-7.814
G01 F400 X-8.994 Y-7.541
G01 F400 X-9.138 Y-7.292
G01 F400 X-9.330 Y-7.078
G01 F400 X-9.563 Y-6.909
G01 F400 X-9.825 Y-6.793
G01 F400 X-10.106 Y-6.733
G01 F400 X-10.394 Y-6.733
G01 F400 X-10.675 Y-6.793
G01 F400 X-10.937 Y-6.909
G01 F400 X-11.170 Y-7.078
G01 F400 X-11.362 Y-7.292
G01 F400 X-11.506 Y-7.541
G01 F400 X-11.595 Y-7.814
G01 F400 X-11.625 Y-8.100
G01 F400 X-11.595 Y-8.386
G01 F400 X-11.506 Y-8.659
G01 F400 X-11.362 Y-8.908
G01 F400 X-11.170 Y-9.122
G01 F400 X-10.937 Y-9.291
G01 F400 X-10.675 Y-9.408
G01 F400 X-10.394 Y-9.467
G01 F400 X-10.258 Y-9.467
G01 F400 X-6.195 Y-13.530
G01 F400 X-9.985 Y-13.530
G01 F400 X-10.389 Y-13.127
G01 F400 X-10.375 Y-13.000
G01 F400 X-10.405 Y-12.714
G01 F400 X-10.494 Y-12.441
G01 F400 X-10.638 Y-12.192
G01 F400 X-10.830 Y-11.978
G01 F400 X-11.063 Y-11.809
G01 F400 X-11.325 Y-11.693
G01 F400 X-11.606 Y-11.633
G01 F400 X-11.894 Y-11.633
G01 F400 X-12.175 Y-11.693
G01 F400 X-12.437 Y-11.809
G01 F400 X-12.670 Y-11.978
G01 F400 X-12.862 Y-12.192
G01 F400 X-13.006 Y-12.441
G01 F400 X-13.095 Y-12.714
G01 F400 X-13.125 Y-13.000
G01 F400 X-13.095 Y-13.286
G01 F400 X-13.006 Y-13.559
G01 F400 X-12.862 Y-13.808
G01 F400 X-12.670 Y-14.022
G01 F400 X-12.437 Y-14.191
G01 F400 X-12.175 Y-14.308
G01 F400 X-11.894 Y-14.367
G01 F400 X-11.617 Y-14.367
G01 F400 X-10.933 Y-15.052
G01 F400 X-10.787 Y-15.158
G01 F400 X-10.620 Y-15.232
G01 F400 X-10.441 Y-15.270
G01 F400 X-5.339 Y-15.270
G01 F400 X-5.324 Y-15.296
G01 F400 X-5.110 Y-15.533
G01 F400 X-4.852 Y-15.721
G01 F400 X-4.561 Y-15.850
G01 F400 X-4.249 Y-15.916
G01 F400 X-3.931 Y-15.916
G01 F400 X-3.619 Y-15.850
G01 F400 X-3.328 Y-15.721
G01 F400 X-3.070 Y-15.533
G01 F400 X-2.856 Y-15.296
G01 F400 X-2.697 Y-15.020
G01 F400 X-2.599 Y-14.717
G01 F400 X-2.565 Y-14.400
G01 F400 X-2.599 Y-14.083
G01 F400 X-2.697 Y-13.780
G01 F400 X-2.856 Y-13.504
G01 F400 X-3.070 Y-13.267
G01 F400 X-3.216 Y-13.161
G01 F400 X-3.216 Y-9.154
G01 F400 X-3.234 Y-8.978
G01 F400 X-3.291 Y-8.804
G01 F400 X-3.382 Y-8.646
G01 F400 X-3.498 Y-8.517
G01 F400 X-4.588 Y-7.427
G01 F400 X-4.575 Y-7.300
G01 F400 X-4.605 Y-7.014
G01 F400 X-4.694 Y-6.741
G01 F400 X-4.838 Y-6.492
G01 F400 X-5.030 Y-6.278
G01 F400 X-5.263 Y-6.109
G01 F400 X-5.525 Y-5.993
G01 F400 X-5.806 Y-5.933
G01 F400 X-6.083 Y-5.933
G01 F400 X-6.356 Y-5.660
G01 F400 X-6.356 Y0.467
G01 F400 X-6.374 Y0.642
G01 F400 X-6.431 Y0.816
G01 F400 X-6.522 Y0.974
G01 F400 X-6.645 Y1.110
G01 F400 X-6.793 Y1.218
G01 F400 X-6.960 Y1.292
G01 F400 X-7.139 Y1.330
G01 F400 X-7.321 Y1.330
G00 Z3.000
G00  X-81.471 Y-4.460
G01 F750 Z0
G01 F400 Z-0.060
G01 F400 X-81.650 Y-4.498
G01 F400 X-81.817 Y-4.572
G01 F400 X-81.963 Y-4.678
G01 F400 X-84.315 Y-7.030
G01 F400 X-87.023 Y-7.030
G01 F400 X-87.044 Y-7.021
G01 F400 X-87.233 Y-6.980
G01 F400 X-87.427 Y-6.980
G01 F400 X-87.616 Y-7.021
G01 F400 X-87.792 Y-7.099
G01 F400 X-87.949 Y-7.213
G01 F400 X-88.078 Y-7.356
G01 F400 X-88.175 Y-7.524
G01 F400 X-88.235 Y-7.708
G01 F400 X-88.255 Y-7.900
G01 F400 X-88.235 Y-8.092
G01 F400 X-88.175 Y-8.276
G01 F400 X-88.078 Y-8.444
G01 F400 X-87.949 Y-8.587
G01 F400 X-87.792 Y-8.701
G01 F400 X-87.616 Y-8.780
G01 F400 X-87.427 Y-8.820
G01 F400 X-87.233 Y-8.820
G01 F400 X-87.044 Y-8.780
G01 F400 X-87.023 Y-8.770
G01 F400 X-83.859 Y-8.770
G01 F400 X-83.680 Y-8.732
G01 F400 X-83.513 Y-8.658
G01 F400 X-83.367 Y-8.552
G01 F400 X-80.788 Y-5.973
G01 F400 X-80.672 Y-5.844
G01 F400 X-80.581 Y-5.686
G01 F400 X-80.524 Y-5.512
G01 F400 X-80.505 Y-5.330
G01 F400 X-80.524 Y-5.148
G01 F400 X-80.581 Y-4.974
G01 F400 X-80.672 Y-4.816
G01 F400 X-80.795 Y-4.680
G01 F400 X-80.943 Y-4.572
G01 F400 X-81.110 Y-4.498
G01 F400 X-81.289 Y-4.460
G01 F400 X-81.471 Y-4.460
G00 Z3.000
G00  X-80.201 Y-5.730
G01 F750 Z0
G01 F400 Z-0.060
G01 F400 X-80.380 Y-5.768
G01 F400 X-80.547 Y-5.842
G01 F400 X-80.695 Y-5.950
G01 F400 X-80.818 Y-6.086
G01 F400 X-80.909 Y-6.244
G01 F400 X-80.966 Y-6.418
G01 F400 X-80.985 Y-6.600
G01 F400 X-80.966 Y-6.782
G01 F400 X-80.909 Y-6.956
G01 F400 X-80.818 Y-7.114
G01 F400 X-80.695 Y-7.250
G01 F400 X-80.547 Y-7.358
G01 F400 X-80.380 Y-7.432
G01 F400 X-80.201 Y-7.470
G01 F400 X-79.015 Y-7.470
G01 F400 X-77.612 Y-8.873
G01 F400 X-77.625 Y-9.000
G01 F400 X-77.595 Y-9.286
G01 F400 X-77.506 Y-9.559
G01 F400 X-77.362 Y-9.808
G01 F400 X-77.170 Y-10.022
G01 F400 X-76.937 Y-10.191
G01 F400 X-76.675 Y-10.308
G01 F400 X-76.394 Y-10.367
G01 F400 X-76.106 Y-10.367
G01 F400 X-75.825 Y-10.308
G01 F400 X-75.563 Y-10.191
G01 F400 X-75.330 Y-10.022
G01 F400 X-75.138 Y-9.808
G01 F400 X-74.994 Y-9.559
G01 F400 X-74.905 Y-9.286
G01 F400 X-74.875 Y-9.000
G01 F400 X-74.905 Y-8.714
G01 F400 X-74.994 Y-8.441
G01 F400 X-75.138 Y-8.192
G01 F400 X-75.330 Y-7.978
G01 F400 X-75.563 Y-7.809
G01 F400 X-75.825 Y-7.693
G01 F400 X-76.106 Y-7.633
G01 F400 X-76.383 Y-7.633
G01 F400 X-78.067 Y-5.948
G01 F400 X-78.213 Y-5.842
G01 F400 X-78.380 Y-5.768
G01 F400 X-78.559 Y-5.730
G01 F400 X-80.201 Y-5.730
G00 Z3.000
G00  X-97.587 Y-6.980
G01 F750 Z0
G01 F400 Z-0.060
G01 F400 X-97.776 Y-7.021
G01 F400 X-97.952 Y-7.099
G01 F400 X-98.109 Y-7.213
G01 F400 X-98.238 Y-7.356
G01 F400 X-98.335 Y-7.524
G01 F400 X-98.395 Y-7.708
G01 F400 X-98.415 Y-7.900
G01 F400 X-98.395 Y-8.092
G01 F400 X-98.335 Y-8.276
G01 F400 X-98.238 Y-8.444
G01 F400 X-98.109 Y-8.587
G01 F400 X-97.952 Y-8.701
G01 F400 X-97.776 Y-8.780
G01 F400 X-97.587 Y-8.820
G01 F400 X-97.393 Y-8.820
G01 F400 X-97.204 Y-8.780
G01 F400 X-97.183 Y-8.770
G01 F400 X-92.595 Y-8.770
G01 F400 X-88.156 Y-13.209
G01 F400 X-88.078 Y-13.344
G01 F400 X-87.949 Y-13.487
G01 F400 X-87.792 Y-13.601
G01 F400 X-87.616 Y-13.680
G01 F400 X-87.427 Y-13.720
G01 F400 X-87.233 Y-13.720
G01 F400 X-87.044 Y-13.680
G01 F400 X-86.868 Y-13.601
G01 F400 X-86.711 Y-13.487
G01 F400 X-86.582 Y-13.344
G01 F400 X-86.504 Y-13.209
G01 F400 X-84.865 Y-11.570
G01 F400 X-81.435 Y-11.570
G01 F400 X-80.493 Y-12.512
G01 F400 X-80.347 Y-12.618
G01 F400 X-80.180 Y-12.692
G01 F400 X-80.001 Y-12.730
G01 F400 X-77.955 Y-12.730
G01 F400 X-76.824 Y-13.861
G01 F400 X-76.824 Y-23.507
G01 F400 X-76.806 Y-23.682
G01 F400 X-76.749 Y-23.856
G01 F400 X-76.658 Y-24.014
G01 F400 X-76.542 Y-24.143
G01 F400 X-74.433 Y-26.252
G01 F400 X-74.287 Y-26.358
G01 F400 X-74.120 Y-26.432
G01 F400 X-73.941 Y-26.470
G01 F400 X-71.115 Y-26.470
G01 F400 X-68.133 Y-29.452
G01 F400 X-67.987 Y-29.558
G01 F400 X-67.820 Y-29.632
G01 F400 X-67.641 Y-29.670
G01 F400 X-46.159 Y-29.670
G01 F400 X-45.980 Y-29.632
G01 F400 X-45.813 Y-29.558
G01 F400 X-45.667 Y-29.452
G01 F400 X-45.085 Y-28.870
G01 F400 X-42.657 Y-28.870
G01 F400 X-42.636 Y-28.880
G01 F400 X-42.447 Y-28.920
G01 F400 X-42.253 Y-28.920
G01 F400 X-42.064 Y-28.880
G01 F400 X-41.888 Y-28.801
G01 F400 X-41.731 Y-28.687
G01 F400 X-41.602 Y-28.544
G01 F400 X-41.505 Y-28.376
G01 F400 X-41.445 Y-28.192
G01 F400 X-41.425 Y-28.000
G01 F400 X-41.445 Y-27.808
G01 F400 X-41.505 Y-27.624
G01 F400 X-41.602 Y-27.456
G01 F400 X-41.731 Y-27.313
G01 F400 X-41.888 Y-27.199
G01 F400 X-42.064 Y-27.120
G01 F400 X-42.253 Y-27.080
G01 F400 X-42.447 Y-27.080
G01 F400 X-42.636 Y-27.120
G01 F400 X-42.657 Y-27.130
G01 F400 X-45.541 Y-27.130
G01 F400 X-45.720 Y-27.168
G01 F400 X-45.887 Y-27.242
G01 F400 X-46.033 Y-27.348
G01 F400 X-46.615 Y-27.930
G01 F400 X-67.185 Y-27.930
G01 F400 X-69.924 Y-25.192
G01 F400 X-70.002 Y-25.056
G01 F400 X-70.131 Y-24.913
G01 F400 X-70.288 Y-24.799
G01 F400 X-70.464 Y-24.721
G01 F400 X-70.653 Y-24.680
G01 F400 X-70.847 Y-24.680
G01 F400 X-71.036 Y-24.721
G01 F400 X-71.057 Y-24.730
G01 F400 X-73.485 Y-24.730
G01 F400 X-75.076 Y-23.139
G01 F400 X-75.076 Y-13.494
G01 F400 X-75.094 Y-13.318
G01 F400 X-75.151 Y-13.144
G01 F400 X-75.242 Y-12.986
G01 F400 X-75.358 Y-12.857
G01 F400 X-77.007 Y-11.208
G01 F400 X-77.153 Y-11.102
G01 F400 X-77.320 Y-11.028
G01 F400 X-77.499 Y-10.990
G01 F400 X-79.545 Y-10.990
G01 F400 X-80.487 Y-10.048
G01 F400 X-80.633 Y-9.942
G01 F400 X-80.800 Y-9.868
G01 F400 X-80.979 Y-9.830
G01 F400 X-85.321 Y-9.830
G01 F400 X-85.500 Y-9.868
G01 F400 X-85.667 Y-9.942
G01 F400 X-85.813 Y-10.048
G01 F400 X-87.330 Y-11.565
G01 F400 X-91.647 Y-7.248
G01 F400 X-91.793 Y-7.142
G01 F400 X-91.960 Y-7.068
G01 F400 X-92.139 Y-7.030
G01 F400 X-97.183 Y-7.030
G01 F400 X-97.204 Y-7.021
G01 F400 X-97.393 Y-6.980
G01 F400 X-97.587 Y-6.980
G00 Z3.000
G00  X-42.427 Y-7.680
G01 F750 Z0
G01 F400 Z-0.060
G01 F400 X-42.616 Y-7.721
G01 F400 X-42.637 Y-7.730
G01 F400 X-44.641 Y-7.730
G01 F400 X-44.820 Y-7.768
G01 F400 X-44.987 Y-7.842
G01 F400 X-45.133 Y-7.948
G01 F400 X-46.717 Y-9.533
G01 F400 X-46.994 Y-9.533
G01 F400 X-47.275 Y-9.593
G01 F400 X-47.537 Y-9.709
G01 F400 X-47.770 Y-9.878
G01 F400 X-47.962 Y-10.092
G01 F400 X-48.106 Y-10.341
G01 F400 X-48.195 Y-10.614
G01 F400 X-48.225 Y-10.900
G01 F400 X-48.195 Y-11.186
G01 F400 X-48.106 Y-11.459
G01 F400 X-47.962 Y-11.708
G01 F400 X-47.770 Y-11.922
G01 F400 X-47.724 Y-11.955
G01 F400 X-47.724 Y-13.287
G01 F400 X-47.706 Y-13.462
G01 F400 X-47.649 Y-13.636
G01 F400 X-47.558 Y-13.794
G01 F400 X-47.442 Y-13.923
G01 F400 X-43.056 Y-18.308
G01 F400 X-42.978 Y-18.444
G01 F400 X-42.849 Y-18.587
G01 F400 X-42.692 Y-18.701
G01 F400 X-42.516 Y-18.780
G01 F400 X-42.327 Y-18.820
G01 F400 X-42.133 Y-18.820
G01 F400 X-41.944 Y-18.780
G01 F400 X-41.768 Y-18.701
G01 F400 X-41.611 Y-18.587
G01 F400 X-41.482 Y-18.444
G01 F400 X-41.385 Y-18.276
G01 F400 X-41.325 Y-18.092
G01 F400 X-41.305 Y-17.900
G01 F400 X-41.325 Y-17.708
G01 F400 X-41.385 Y-17.524
G01 F400 X-41.482 Y-17.356
G01 F400 X-41.611 Y-17.213
G01 F400 X-41.768 Y-17.099
G01 F400 X-41.819 Y-17.076
G01 F400 X-45.976 Y-12.920
G01 F400 X-45.976 Y-11.955
G01 F400 X-45.930 Y-11.922
G01 F400 X-45.738 Y-11.708
G01 F400 X-45.594 Y-11.459
G01 F400 X-45.505 Y-11.186
G01 F400 X-45.475 Y-10.900
G01 F400 X-45.489 Y-10.773
G01 F400 X-44.185 Y-9.470
G01 F400 X-42.637 Y-9.470
G01 F400 X-42.616 Y-9.479
G01 F400 X-42.427 Y-9.520
G01 F400 X-42.233 Y-9.520
G01 F400 X-42.044 Y-9.479
G01 F400 X-41.868 Y-9.401
G01 F400 X-41.711 Y-9.287
G01 F400 X-41.582 Y-9.144
G01 F400 X-41.485 Y-8.976
G01 F400 X-41.425 Y-8.792
G01 F400 X-41.405 Y-8.600
G01 F400 X-41.425 Y-8.408
G01 F400 X-41.485 Y-8.224
G01 F400 X-41.582 Y-8.056
G01 F400 X-41.711 Y-7.913
G01 F400 X-41.868 Y-7.799
G01 F400 X-42.044 Y-7.721
G01 F400 X-42.233 Y-7.680
G01 F400 X-42.427 Y-7.680
G00 Z3.000
G00  X-53.811 Y-9.000
G01 F750 Z0
G01 F400 Z-0.060
G01 F400 X-53.990 Y-9.038
G01 F400 X-54.157 Y-9.112
G01 F400 X-54.303 Y-9.218
G01 F400 X-55.815 Y-10.730
G01 F400 X-60.363 Y-10.730
G01 F400 X-60.384 Y-10.721
G01 F400 X-60.573 Y-10.680
G01 F400 X-60.767 Y-10.680
G01 F400 X-60.956 Y-10.721
G01 F400 X-61.132 Y-10.799
G01 F400 X-61.289 Y-10.913
G01 F400 X-61.418 Y-11.056
G01 F400 X-61.515 Y-11.224
G01 F400 X-61.575 Y-11.408
G01 F400 X-61.595 Y-11.600
G01 F400 X-61.575 Y-11.792
G01 F400 X-61.515 Y-11.976
G01 F400 X-61.418 Y-12.144
G01 F400 X-61.289 Y-12.287
G01 F400 X-61.132 Y-12.401
G01 F400 X-60.956 Y-12.479
G01 F400 X-60.767 Y-12.520
G01 F400 X-60.573 Y-12.520
G01 F400 X-60.384 Y-12.479
G01 F400 X-60.363 Y-12.470
G01 F400 X-55.359 Y-12.470
G01 F400 X-55.180 Y-12.432
G01 F400 X-55.013 Y-12.358
G01 F400 X-54.867 Y-12.252
G01 F400 X-53.128 Y-10.513
G01 F400 X-53.012 Y-10.384
G01 F400 X-52.921 Y-10.226
G01 F400 X-52.864 Y-10.052
G01 F400 X-52.845 Y-9.870
G01 F400 X-52.864 Y-9.688
G01 F400 X-52.921 Y-9.514
G01 F400 X-53.012 Y-9.356
G01 F400 X-53.135 Y-9.220
G01 F400 X-53.283 Y-9.112
G01 F400 X-53.450 Y-9.038
G01 F400 X-53.629 Y-9.000
G01 F400 X-53.811 Y-9.000
G00 Z3.000
G00  X-52.541 Y-10.270
G01 F750 Z0
G01 F400 Z-0.060
G01 F400 X-52.720 Y-10.308
G01 F400 X-52.887 Y-10.382
G01 F400 X-53.035 Y-10.490
G01 F400 X-53.158 Y-10.626
G01 F400 X-53.249 Y-10.784
G01 F400 X-53.306 Y-10.958
G01 F400 X-53.325 Y-11.140
G01 F400 X-53.306 Y-11.322
G01 F400 X-53.249 Y-11.496
G01 F400 X-53.158 Y-11.654
G01 F400 X-53.035 Y-11.790
G01 F400 X-52.887 Y-11.898
G01 F400 X-52.720 Y-11.972
G01 F400 X-52.541 Y-12.010
G01 F400 X-52.075 Y-12.010
G01 F400 X-48.924 Y-15.161
G01 F400 X-48.924 Y-15.945
G01 F400 X-48.970 Y-15.978
G01 F400 X-49.162 Y-16.192
G01 F400 X-49.306 Y-16.441
G01 F400 X-49.395 Y-16.714
G01 F400 X-49.425 Y-17.000
G01 F400 X-49.395 Y-17.286
G01 F400 X-49.306 Y-17.559
G01 F400 X-49.162 Y-17.808
G01 F400 X-48.970 Y-18.022
G01 F400 X-48.737 Y-18.191
G01 F400 X-48.475 Y-18.308
G01 F400 X-48.194 Y-18.367
G01 F400 X-47.906 Y-18.367
G01 F400 X-47.625 Y-18.308
G01 F400 X-47.363 Y-18.191
G01 F400 X-47.130 Y-18.022
G01 F400 X-46.938 Y-17.808
G01 F400 X-46.794 Y-17.559
G01 F400 X-46.705 Y-17.286
G01 F400 X-46.675 Y-17.000
G01 F400 X-46.705 Y-16.714
G01 F400 X-46.794 Y-16.441
G01 F400 X-46.938 Y-16.192
G01 F400 X-47.130 Y-15.978
G01 F400 X-47.176 Y-15.945
G01 F400 X-47.176 Y-14.793
G01 F400 X-47.194 Y-14.618
G01 F400 X-47.251 Y-14.444
G01 F400 X-47.342 Y-14.286
G01 F400 X-47.458 Y-14.157
G01 F400 X-51.127 Y-10.488
G01 F400 X-51.273 Y-10.382
G01 F400 X-51.440 Y-10.308
G01 F400 X-51.619 Y-10.270
G01 F400 X-52.541 Y-10.270
G00 Z3.000
G00  X-104.392 Y-10.380
G01 F750 Z0
G01 F400 Z-0.060
G01 F400 X-104.581 Y-10.421
G01 F400 X-104.757 Y-10.499
G01 F400 X-104.914 Y-10.613
G01 F400 X-105.043 Y-10.756
G01 F400 X-105.140 Y-10.924
G01 F400 X-105.200 Y-11.108
G01 F400 X-105.220 Y-11.300
G01 F400 X-105.200 Y-11.492
G01 F400 X-105.140 Y-11.676
G01 F400 X-105.043 Y-11.844
G01 F400 X-104.914 Y-11.987
G01 F400 X-104.757 Y-12.101
G01 F400 X-104.581 Y-12.180
G01 F400 X-104.392 Y-12.220
G01 F400 X-104.198 Y-12.220
G01 F400 X-104.121 Y-12.203
G01 F400 X-98.316 Y-18.008
G01 F400 X-98.238 Y-18.144
G01 F400 X-98.109 Y-18.287
G01 F400 X-97.952 Y-18.401
G01 F400 X-97.776 Y-18.480
G01 F400 X-97.587 Y-18.520
G01 F400 X-97.393 Y-18.520
G01 F400 X-97.204 Y-18.480
G01 F400 X-97.183 Y-18.470
G01 F400 X-95.115 Y-18.470
G01 F400 X-92.224 Y-21.361
G01 F400 X-92.224 Y-25.707
G01 F400 X-92.206 Y-25.882
G01 F400 X-92.149 Y-26.056
G01 F400 X-92.058 Y-26.214
G01 F400 X-91.942 Y-26.343
G01 F400 X-88.733 Y-29.552
G01 F400 X-88.587 Y-29.658
G01 F400 X-88.420 Y-29.732
G01 F400 X-88.241 Y-29.770
G01 F400 X-81.116 Y-29.770
G01 F400 X-81.070 Y-29.822
G01 F400 X-80.837 Y-29.991
G01 F400 X-80.575 Y-30.108
G01 F400 X-80.294 Y-30.167
G01 F400 X-80.006 Y-30.167
G01 F400 X-79.725 Y-30.108
G01 F400 X-79.463 Y-29.991
G01 F400 X-79.230 Y-29.822
G01 F400 X-79.038 Y-29.608
G01 F400 X-78.894 Y-29.359
G01 F400 X-78.805 Y-29.086
G01 F400 X-78.775 Y-28.800
G01 F400 X-78.805 Y-28.514
G01 F400 X-78.894 Y-28.241
G01 F400 X-79.038 Y-27.992
G01 F400 X-79.230 Y-27.778
G01 F400 X-79.463 Y-27.609
G01 F400 X-79.725 Y-27.492
G01 F400 X-80.006 Y-27.433
G01 F400 X-80.294 Y-27.433
G01 F400 X-80.575 Y-27.492
G01 F400 X-80.837 Y-27.609
G01 F400 X-81.070 Y-27.778
G01 F400 X-81.262 Y-27.992
G01 F400 X-81.284 Y-28.030
G01 F400 X-87.785 Y-28.030
G01 F400 X-90.476 Y-25.339
G01 F400 X-90.476 Y-20.994
G01 F400 X-90.494 Y-20.818
G01 F400 X-90.551 Y-20.644
G01 F400 X-90.642 Y-20.486
G01 F400 X-90.758 Y-20.357
G01 F400 X-94.167 Y-16.948
G01 F400 X-94.313 Y-16.842
G01 F400 X-94.480 Y-16.768
G01 F400 X-94.659 Y-16.730
G01 F400 X-97.125 Y-16.730
G01 F400 X-103.207 Y-10.648
G01 F400 X-103.353 Y-10.542
G01 F400 X-103.520 Y-10.468
G01 F400 X-103.699 Y-10.430
G01 F400 X-103.988 Y-10.430
G01 F400 X-104.009 Y-10.421
G01 F400 X-104.198 Y-10.380
G01 F400 X-104.392 Y-10.380
G00 Z3.000
G00  X-70.927 Y-10.680
G01 F750 Z0
G01 F400 Z-0.060
G01 F400 X-71.116 Y-10.721
G01 F400 X-71.292 Y-10.799
G01 F400 X-71.449 Y-10.913
G01 F400 X-71.578 Y-11.056
G01 F400 X-71.675 Y-11.224
G01 F400 X-71.735 Y-11.408
G01 F400 X-71.755 Y-11.600
G01 F400 X-71.735 Y-11.792
G01 F400 X-71.675 Y-11.976
G01 F400 X-71.578 Y-12.144
G01 F400 X-71.449 Y-12.287
G01 F400 X-71.292 Y-12.401
G01 F400 X-71.116 Y-12.479
G01 F400 X-70.927 Y-12.520
G01 F400 X-70.733 Y-12.520
G01 F400 X-70.544 Y-12.479
G01 F400 X-70.523 Y-12.470
G01 F400 X-65.735 Y-12.470
G01 F400 X-61.396 Y-16.808
G01 F400 X-61.318 Y-16.944
G01 F400 X-61.189 Y-17.087
G01 F400 X-61.032 Y-17.201
G01 F400 X-60.856 Y-17.280
G01 F400 X-60.667 Y-17.320
G01 F400 X-60.473 Y-17.320
G01 F400 X-60.284 Y-17.280
G01 F400 X-60.263 Y-17.270
G01 F400 X-58.959 Y-17.270
G01 F400 X-58.780 Y-17.232
G01 F400 X-58.613 Y-17.158
G01 F400 X-58.467 Y-17.052
G01 F400 X-56.085 Y-14.670
G01 F400 X-53.515 Y-14.670
G01 F400 X-53.324 Y-14.861
G01 F400 X-53.324 Y-15.507
G01 F400 X-53.306 Y-15.682
G01 F400 X-53.249 Y-15.856
G01 F400 X-53.158 Y-16.014
G01 F400 X-53.035 Y-16.150
G01 F400 X-52.887 Y-16.258
G01 F400 X-52.720 Y-16.332
G01 F400 X-52.541 Y-16.370
G01 F400 X-52.359 Y-16.370
G01 F400 X-52.180 Y-16.332
G01 F400 X-52.012 Y-16.257
G01 F400 X-51.900 Y-16.174
G01 F400 X-51.026 Y-16.174
G01 F400 X-51.026 Y-14.826
G01 F400 X-51.576 Y-14.826
G01 F400 X-51.576 Y-14.494
G01 F400 X-51.594 Y-14.318
G01 F400 X-51.651 Y-14.144
G01 F400 X-51.742 Y-13.986
G01 F400 X-51.858 Y-13.857
G01 F400 X-52.567 Y-13.148
G01 F400 X-52.713 Y-13.042
G01 F400 X-52.880 Y-12.968
G01 F400 X-53.059 Y-12.930
G01 F400 X-56.541 Y-12.930
G01 F400 X-56.720 Y-12.968
G01 F400 X-56.887 Y-13.042
G01 F400 X-57.033 Y-13.148
G01 F400 X-59.415 Y-15.530
G01 F400 X-60.205 Y-15.530
G01 F400 X-64.787 Y-10.948
G01 F400 X-64.933 Y-10.842
G01 F400 X-65.100 Y-10.768
G01 F400 X-65.279 Y-10.730
G01 F400 X-70.523 Y-10.730
G01 F400 X-70.544 Y-10.721
G01 F400 X-70.733 Y-10.680
G01 F400 X-70.927 Y-10.680
G00 Z3.000
G00  X-26.141 Y-11.130
G01 F750 Z0
G01 F400 Z-0.060
G01 F400 X-26.320 Y-11.168
G01 F400 X-26.487 Y-11.242
G01 F400 X-26.633 Y-11.348
G01 F400 X-27.415 Y-12.130
G01 F400 X-31.863 Y-12.130
G01 F400 X-31.884 Y-12.120
G01 F400 X-32.073 Y-12.080
G01 F400 X-32.267 Y-12.080
G01 F400 X-32.456 Y-12.120
G01 F400 X-32.632 Y-12.199
G01 F400 X-32.789 Y-12.313
G01 F400 X-32.918 Y-12.456
G01 F400 X-33.015 Y-12.624
G01 F400 X-33.075 Y-12.808
G01 F400 X-33.095 Y-13.000
G01 F400 X-33.075 Y-13.192
G01 F400 X-33.015 Y-13.376
G01 F400 X-32.918 Y-13.544
G01 F400 X-32.789 Y-13.687
G01 F400 X-32.632 Y-13.801
G01 F400 X-32.456 Y-13.880
G01 F400 X-32.267 Y-13.920
G01 F400 X-32.073 Y-13.920
G01 F400 X-31.884 Y-13.880
G01 F400 X-31.863 Y-13.870
G01 F400 X-26.959 Y-13.870
G01 F400 X-26.780 Y-13.832
G01 F400 X-26.613 Y-13.758
G01 F400 X-26.467 Y-13.652
G01 F400 X-25.458 Y-12.643
G01 F400 X-25.342 Y-12.514
G01 F400 X-25.251 Y-12.356
G01 F400 X-25.194 Y-12.182
G01 F400 X-25.175 Y-12.000
G01 F400 X-25.194 Y-11.818
G01 F400 X-25.251 Y-11.644
G01 F400 X-25.342 Y-11.486
G01 F400 X-25.465 Y-11.350
G01 F400 X-25.613 Y-11.242
G01 F400 X-25.780 Y-11.168
G01 F400 X-25.959 Y-11.130
G01 F400 X-26.141 Y-11.130
G00 Z3.000
G00  X-42.427 Y-12.080
G01 F750 Z0
G01 F400 Z-0.060
G01 F400 X-42.616 Y-12.120
G01 F400 X-42.792 Y-12.199
G01 F400 X-42.949 Y-12.313
G01 F400 X-43.078 Y-12.456
G01 F400 X-43.175 Y-12.624
G01 F400 X-43.235 Y-12.808
G01 F400 X-43.255 Y-13.000
G01 F400 X-43.235 Y-13.192
G01 F400 X-43.175 Y-13.376
G01 F400 X-43.078 Y-13.544
G01 F400 X-42.949 Y-13.687
G01 F400 X-42.792 Y-13.801
G01 F400 X-42.616 Y-13.880
G01 F400 X-42.427 Y-13.920
G01 F400 X-42.233 Y-13.920
G01 F400 X-42.044 Y-13.880
G01 F400 X-42.023 Y-13.870
G01 F400 X-37.335 Y-13.870
G01 F400 X-32.896 Y-18.308
G01 F400 X-32.818 Y-18.444
G01 F400 X-32.689 Y-18.587
G01 F400 X-32.532 Y-18.701
G01 F400 X-32.356 Y-18.780
G01 F400 X-32.167 Y-18.820
G01 F400 X-31.973 Y-18.820
G01 F400 X-31.784 Y-18.780
G01 F400 X-31.608 Y-18.701
G01 F400 X-31.451 Y-18.587
G01 F400 X-31.322 Y-18.444
G01 F400 X-31.244 Y-18.309
G01 F400 X-30.205 Y-17.270
G01 F400 X-26.515 Y-17.270
G01 F400 X-25.333 Y-18.452
G01 F400 X-25.187 Y-18.558
G01 F400 X-25.020 Y-18.632
G01 F400 X-24.841 Y-18.670
G01 F400 X-24.659 Y-18.670
G01 F400 X-24.480 Y-18.632
G01 F400 X-24.312 Y-18.557
G01 F400 X-24.200 Y-18.474
G01 F400 X-23.326 Y-18.474
G01 F400 X-23.326 Y-17.127
G01 F400 X-24.196 Y-17.119
G01 F400 X-25.567 Y-15.748
G01 F400 X-25.713 Y-15.642
G01 F400 X-25.880 Y-15.568
G01 F400 X-26.059 Y-15.530
G01 F400 X-30.661 Y-15.530
G01 F400 X-30.840 Y-15.568
G01 F400 X-31.007 Y-15.642
G01 F400 X-31.153 Y-15.748
G01 F400 X-32.070 Y-16.665
G01 F400 X-36.387 Y-12.348
G01 F400 X-36.533 Y-12.242
G01 F400 X-36.700 Y-12.168
G01 F400 X-36.879 Y-12.130
G01 F400 X-42.023 Y-12.130
G01 F400 X-42.044 Y-12.120
G01 F400 X-42.233 Y-12.080
G01 F400 X-42.427 Y-12.080
G00 Z3.000
G00  X-81.271 Y-12.260
G01 F750 Z0
G01 F400 Z-0.060
G01 F400 X-81.450 Y-12.298
G01 F400 X-81.617 Y-12.372
G01 F400 X-81.763 Y-12.478
G01 F400 X-86.015 Y-16.730
G01 F400 X-87.023 Y-16.730
G01 F400 X-87.044 Y-16.721
G01 F400 X-87.233 Y-16.680
G01 F400 X-87.427 Y-16.680
G01 F400 X-87.616 Y-16.721
G01 F400 X-87.792 Y-16.799
G01 F400 X-87.949 Y-16.913
G01 F400 X-88.078 Y-17.056
G01 F400 X-88.175 Y-17.224
G01 F400 X-88.235 Y-17.408
G01 F400 X-88.255 Y-17.600
G01 F400 X-88.235 Y-17.792
G01 F400 X-88.175 Y-17.976
G01 F400 X-88.078 Y-18.144
G01 F400 X-87.949 Y-18.287
G01 F400 X-87.792 Y-18.401
G01 F400 X-87.616 Y-18.480
G01 F400 X-87.427 Y-18.520
G01 F400 X-87.233 Y-18.520
G01 F400 X-87.044 Y-18.480
G01 F400 X-87.023 Y-18.470
G01 F400 X-85.559 Y-18.470
G01 F400 X-85.380 Y-18.432
G01 F400 X-85.213 Y-18.358
G01 F400 X-85.067 Y-18.252
G01 F400 X-80.588 Y-13.773
G01 F400 X-80.472 Y-13.644
G01 F400 X-80.381 Y-13.486
G01 F400 X-80.324 Y-13.312
G01 F400 X-80.305 Y-13.130
G01 F400 X-80.324 Y-12.948
G01 F400 X-80.381 Y-12.774
G01 F400 X-80.472 Y-12.616
G01 F400 X-80.595 Y-12.480
G01 F400 X-80.743 Y-12.372
G01 F400 X-80.910 Y-12.298
G01 F400 X-81.089 Y-12.260
G01 F400 X-81.271 Y-12.260
G00 Z3.000
G00  X-24.871 Y-12.400
G01 F750 Z0
G01 F400 Z-0.060
G01 F400 X-25.050 Y-12.438
G01 F400 X-25.217 Y-12.512
G01 F400 X-25.365 Y-12.620
G01 F400 X-25.488 Y-12.756
G01 F400 X-25.579 Y-12.914
G01 F400 X-25.636 Y-13.088
G01 F400 X-25.655 Y-13.270
G01 F400 X-25.636 Y-13.452
G01 F400 X-25.579 Y-13.626
G01 F400 X-25.488 Y-13.784
G01 F400 X-25.365 Y-13.920
G01 F400 X-25.217 Y-14.028
G01 F400 X-25.050 Y-14.102
G01 F400 X-24.871 Y-14.140
G01 F400 X-23.245 Y-14.140
G01 F400 X-21.712 Y-15.673
G01 F400 X-21.725 Y-15.800
G01 F400 X-21.695 Y-16.086
G01 F400 X-21.606 Y-16.359
G01 F400 X-21.462 Y-16.608
G01 F400 X-21.270 Y-16.822
G01 F400 X-21.037 Y-16.991
G01 F400 X-20.775 Y-17.108
G01 F400 X-20.494 Y-17.167
G01 F400 X-20.206 Y-17.167
G01 F400 X-19.925 Y-17.108
G01 F400 X-19.663 Y-16.991
G01 F400 X-19.430 Y-16.822
G01 F400 X-19.238 Y-16.608
G01 F400 X-19.094 Y-16.359
G01 F400 X-19.005 Y-16.086
G01 F400 X-18.975 Y-15.800
G01 F400 X-19.005 Y-15.514
G01 F400 X-19.094 Y-15.241
G01 F400 X-19.238 Y-14.992
G01 F400 X-19.430 Y-14.778
G01 F400 X-19.663 Y-14.609
G01 F400 X-19.925 Y-14.493
G01 F400 X-20.206 Y-14.433
G01 F400 X-20.483 Y-14.433
G01 F400 X-22.297 Y-12.618
G01 F400 X-22.443 Y-12.512
G01 F400 X-22.610 Y-12.438
G01 F400 X-22.789 Y-12.400
G01 F400 X-24.871 Y-12.400
G00 Z3.000
G00  X-80.001 Y-13.530
G01 F750 Z0
G01 F400 Z-0.060
G01 F400 X-80.180 Y-13.568
G01 F400 X-80.347 Y-13.642
G01 F400 X-80.495 Y-13.750
G01 F400 X-80.618 Y-13.886
G01 F400 X-80.709 Y-14.044
G01 F400 X-80.766 Y-14.218
G01 F400 X-80.784 Y-14.394
G01 F400 X-80.784 Y-19.727
G01 F400 X-80.766 Y-19.902
G01 F400 X-80.709 Y-20.076
G01 F400 X-80.618 Y-20.234
G01 F400 X-80.502 Y-20.363
G01 F400 X-80.323 Y-20.542
G01 F400 X-80.177 Y-20.648
G01 F400 X-80.010 Y-20.722
G01 F400 X-79.831 Y-20.760
G01 F400 X-79.649 Y-20.760
G01 F400 X-79.470 Y-20.722
G01 F400 X-79.302 Y-20.647
G01 F400 X-79.190 Y-20.564
G01 F400 X-78.316 Y-20.564
G01 F400 X-78.316 Y-19.216
G01 F400 X-79.036 Y-19.216
G01 F400 X-79.036 Y-14.394
G01 F400 X-79.054 Y-14.218
G01 F400 X-79.111 Y-14.044
G01 F400 X-79.202 Y-13.886
G01 F400 X-79.325 Y-13.750
G01 F400 X-79.473 Y-13.642
G01 F400 X-79.640 Y-13.568
G01 F400 X-79.819 Y-13.530
G01 F400 X-80.001 Y-13.530
G00 Z3.000
G00  X-53.811 Y-15.900
G01 F750 Z0
G01 F400 Z-0.060
G01 F400 X-53.990 Y-15.938
G01 F400 X-54.157 Y-16.012
G01 F400 X-54.303 Y-16.118
G01 F400 X-58.115 Y-19.930
G01 F400 X-60.263 Y-19.930
G01 F400 X-60.284 Y-19.921
G01 F400 X-60.473 Y-19.880
G01 F400 X-60.667 Y-19.880
G01 F400 X-60.856 Y-19.921
G01 F400 X-61.032 Y-19.999
G01 F400 X-61.189 Y-20.113
G01 F400 X-61.318 Y-20.256
G01 F400 X-61.415 Y-20.424
G01 F400 X-61.475 Y-20.608
G01 F400 X-61.495 Y-20.800
G01 F400 X-61.475 Y-20.992
G01 F400 X-61.415 Y-21.176
G01 F400 X-61.318 Y-21.344
G01 F400 X-61.189 Y-21.487
G01 F400 X-61.032 Y-21.601
G01 F400 X-60.856 Y-21.680
G01 F400 X-60.667 Y-21.720
G01 F400 X-60.473 Y-21.720
G01 F400 X-60.284 Y-21.680
G01 F400 X-60.263 Y-21.670
G01 F400 X-57.659 Y-21.670
G01 F400 X-57.480 Y-21.632
G01 F400 X-57.313 Y-21.558
G01 F400 X-57.167 Y-21.452
G01 F400 X-53.128 Y-17.413
G01 F400 X-53.012 Y-17.284
G01 F400 X-52.921 Y-17.126
G01 F400 X-52.864 Y-16.952
G01 F400 X-52.845 Y-16.770
G01 F400 X-52.864 Y-16.588
G01 F400 X-52.921 Y-16.414
G01 F400 X-53.012 Y-16.256
G01 F400 X-53.135 Y-16.120
G01 F400 X-53.283 Y-16.012
G01 F400 X-53.450 Y-15.938
G01 F400 X-53.629 Y-15.900
G01 F400 X-53.811 Y-15.900
G00 Z3.000
G00  X-52.541 Y-17.170
G01 F750 Z0
G01 F400 Z-0.060
G01 F400 X-52.720 Y-17.208
G01 F400 X-52.887 Y-17.282
G01 F400 X-53.035 Y-17.390
G01 F400 X-53.158 Y-17.526
G01 F400 X-53.249 Y-17.684
G01 F400 X-53.306 Y-17.858
G01 F400 X-53.324 Y-18.034
G01 F400 X-53.324 Y-22.667
G01 F400 X-53.306 Y-22.842
G01 F400 X-53.249 Y-23.016
G01 F400 X-53.157 Y-23.176
G01 F400 X-53.023 Y-23.317
G01 F400 X-52.965 Y-23.380
G01 F400 X-52.817 Y-23.488
G01 F400 X-52.650 Y-23.562
G01 F400 X-52.471 Y-23.600
G01 F400 X-52.289 Y-23.600
G01 F400 X-52.110 Y-23.562
G01 F400 X-51.942 Y-23.487
G01 F400 X-51.830 Y-23.404
G01 F400 X-50.956 Y-23.404
G01 F400 X-50.956 Y-22.056
G01 F400 X-51.576 Y-22.056
G01 F400 X-51.576 Y-18.034
G01 F400 X-51.594 Y-17.858
G01 F400 X-51.651 Y-17.684
G01 F400 X-51.742 Y-17.526
G01 F400 X-51.865 Y-17.390
G01 F400 X-52.013 Y-17.282
G01 F400 X-52.180 Y-17.208
G01 F400 X-52.359 Y-17.170
G01 F400 X-52.541 Y-17.170
G00 Z3.000
G00  X-26.111 Y-18.200
G01 F750 Z0
G01 F400 Z-0.060
G01 F400 X-26.290 Y-18.238
G01 F400 X-26.457 Y-18.312
G01 F400 X-26.603 Y-18.418
G01 F400 X-30.115 Y-21.930
G01 F400 X-31.783 Y-21.930
G01 F400 X-31.804 Y-21.921
G01 F400 X-31.993 Y-21.880
G01 F400 X-32.187 Y-21.880
G01 F400 X-32.376 Y-21.921
G01 F400 X-32.552 Y-21.999
G01 F400 X-32.709 Y-22.113
G01 F400 X-32.838 Y-22.256
G01 F400 X-32.935 Y-22.424
G01 F400 X-32.995 Y-22.608
G01 F400 X-33.015 Y-22.800
G01 F400 X-32.995 Y-22.992
G01 F400 X-32.935 Y-23.176
G01 F400 X-32.838 Y-23.344
G01 F400 X-32.709 Y-23.487
G01 F400 X-32.552 Y-23.601
G01 F400 X-32.376 Y-23.680
G01 F400 X-32.187 Y-23.720
G01 F400 X-31.993 Y-23.720
G01 F400 X-31.804 Y-23.680
G01 F400 X-31.783 Y-23.670
G01 F400 X-29.659 Y-23.670
G01 F400 X-29.480 Y-23.632
G01 F400 X-29.313 Y-23.558
G01 F400 X-29.167 Y-23.452
G01 F400 X-25.428 Y-19.713
G01 F400 X-25.312 Y-19.584
G01 F400 X-25.221 Y-19.426
G01 F400 X-25.164 Y-19.252
G01 F400 X-25.145 Y-19.070
G01 F400 X-25.164 Y-18.888
G01 F400 X-25.221 Y-18.714
G01 F400 X-25.312 Y-18.556
G01 F400 X-25.435 Y-18.420
G01 F400 X-25.583 Y-18.312
G01 F400 X-25.750 Y-18.238
G01 F400 X-25.929 Y-18.200
G01 F400 X-26.111 Y-18.200
G00 Z3.000
G00  X-24.841 Y-19.470
G01 F750 Z0
G01 F400 Z-0.060
G01 F400 X-25.020 Y-19.508
G01 F400 X-25.187 Y-19.582
G01 F400 X-25.335 Y-19.690
G01 F400 X-25.458 Y-19.826
G01 F400 X-25.549 Y-19.984
G01 F400 X-25.606 Y-20.158
G01 F400 X-25.624 Y-20.334
G01 F400 X-25.624 Y-24.806
G01 F400 X-25.606 Y-24.982
G01 F400 X-25.549 Y-25.156
G01 F400 X-25.458 Y-25.314
G01 F400 X-25.335 Y-25.450
G01 F400 X-25.187 Y-25.558
G01 F400 X-25.020 Y-25.632
G01 F400 X-24.841 Y-25.670
G01 F400 X-24.659 Y-25.670
G01 F400 X-24.480 Y-25.632
G01 F400 X-24.312 Y-25.557
G01 F400 X-24.200 Y-25.474
G01 F400 X-23.326 Y-25.474
G01 F400 X-23.326 Y-24.126
G01 F400 X-23.876 Y-24.126
G01 F400 X-23.876 Y-20.334
G01 F400 X-23.894 Y-20.158
G01 F400 X-23.951 Y-19.984
G01 F400 X-24.042 Y-19.826
G01 F400 X-24.165 Y-19.690
G01 F400 X-24.313 Y-19.582
G01 F400 X-24.480 Y-19.508
G01 F400 X-24.659 Y-19.470
G01 F400 X-24.841 Y-19.470
G00 Z3.000
G00  X-70.827 Y-19.880
G01 F750 Z0
G01 F400 Z-0.060
G01 F400 X-71.016 Y-19.921
G01 F400 X-71.192 Y-19.999
G01 F400 X-71.349 Y-20.113
G01 F400 X-71.478 Y-20.256
G01 F400 X-71.556 Y-20.391
G01 F400 X-72.596 Y-21.431
G01 F400 X-72.763 Y-21.309
G01 F400 X-73.025 Y-21.193
G01 F400 X-73.306 Y-21.133
G01 F400 X-73.594 Y-21.133
G01 F400 X-73.875 Y-21.193
G01 F400 X-74.137 Y-21.309
G01 F400 X-74.370 Y-21.478
G01 F400 X-74.562 Y-21.692
G01 F400 X-74.706 Y-21.941
G01 F400 X-74.795 Y-22.214
G01 F400 X-74.825 Y-22.500
G01 F400 X-74.795 Y-22.786
G01 F400 X-74.706 Y-23.059
G01 F400 X-74.562 Y-23.308
G01 F400 X-74.370 Y-23.522
G01 F400 X-74.137 Y-23.691
G01 F400 X-73.875 Y-23.808
G01 F400 X-73.594 Y-23.867
G01 F400 X-73.306 Y-23.867
G01 F400 X-73.025 Y-23.808
G01 F400 X-72.763 Y-23.691
G01 F400 X-72.530 Y-23.522
G01 F400 X-72.394 Y-23.370
G01 F400 X-72.339 Y-23.370
G01 F400 X-72.160 Y-23.332
G01 F400 X-71.993 Y-23.258
G01 F400 X-71.847 Y-23.152
G01 F400 X-70.319 Y-21.624
G01 F400 X-70.268 Y-21.601
G01 F400 X-70.111 Y-21.487
G01 F400 X-69.982 Y-21.344
G01 F400 X-69.885 Y-21.176
G01 F400 X-69.825 Y-20.992
G01 F400 X-69.805 Y-20.800
G01 F400 X-69.825 Y-20.608
G01 F400 X-69.885 Y-20.424
G01 F400 X-69.982 Y-20.256
G01 F400 X-70.111 Y-20.113
G01 F400 X-70.268 Y-19.999
G01 F400 X-70.444 Y-19.921
G01 F400 X-70.633 Y-19.880
G01 F400 X-70.827 Y-19.880
G00 Z3.000
G00  X-81.101 Y-20.290
G01 F750 Z0
G01 F400 Z-0.060
G01 F400 X-81.280 Y-20.328
G01 F400 X-81.447 Y-20.402
G01 F400 X-81.593 Y-20.508
G01 F400 X-82.915 Y-21.830
G01 F400 X-86.943 Y-21.830
G01 F400 X-86.964 Y-21.821
G01 F400 X-87.153 Y-21.780
G01 F400 X-87.347 Y-21.780
G01 F400 X-87.536 Y-21.821
G01 F400 X-87.712 Y-21.899
G01 F400 X-87.869 Y-22.013
G01 F400 X-87.998 Y-22.156
G01 F400 X-88.095 Y-22.324
G01 F400 X-88.155 Y-22.508
G01 F400 X-88.175 Y-22.700
G01 F400 X-88.155 Y-22.892
G01 F400 X-88.095 Y-23.076
G01 F400 X-87.998 Y-23.244
G01 F400 X-87.869 Y-23.387
G01 F400 X-87.712 Y-23.501
G01 F400 X-87.536 Y-23.579
G01 F400 X-87.347 Y-23.620
G01 F400 X-87.153 Y-23.620
G01 F400 X-86.964 Y-23.579
G01 F400 X-86.943 Y-23.570
G01 F400 X-82.459 Y-23.570
G01 F400 X-82.280 Y-23.532
G01 F400 X-82.113 Y-23.458
G01 F400 X-81.967 Y-23.352
G01 F400 X-80.418 Y-21.803
G01 F400 X-80.302 Y-21.674
G01 F400 X-80.211 Y-21.516
G01 F400 X-80.154 Y-21.342
G01 F400 X-80.135 Y-21.160
G01 F400 X-80.154 Y-20.978
G01 F400 X-80.211 Y-20.804
G01 F400 X-80.302 Y-20.646
G01 F400 X-80.425 Y-20.510
G01 F400 X-80.573 Y-20.402
G01 F400 X-80.740 Y-20.328
G01 F400 X-80.919 Y-20.290
G01 F400 X-81.101 Y-20.290
G00 Z3.000
G00  X-47.394 Y-20.533
G01 F750 Z0
G01 F400 Z-0.060
G01 F400 X-47.675 Y-20.593
G01 F400 X-47.937 Y-20.709
G01 F400 X-48.170 Y-20.878
G01 F400 X-48.362 Y-21.092
G01 F400 X-48.506 Y-21.341
G01 F400 X-48.595 Y-21.614
G01 F400 X-48.625 Y-21.900
G01 F400 X-48.611 Y-22.027
G01 F400 X-50.985 Y-24.400
G01 F400 X-52.471 Y-24.400
G01 F400 X-52.650 Y-24.438
G01 F400 X-52.817 Y-24.512
G01 F400 X-52.965 Y-24.620
G01 F400 X-53.088 Y-24.756
G01 F400 X-53.179 Y-24.914
G01 F400 X-53.236 Y-25.088
G01 F400 X-53.255 Y-25.270
G01 F400 X-53.236 Y-25.452
G01 F400 X-53.179 Y-25.626
G01 F400 X-53.088 Y-25.784
G01 F400 X-52.965 Y-25.920
G01 F400 X-52.817 Y-26.028
G01 F400 X-52.650 Y-26.102
G01 F400 X-52.471 Y-26.140
G01 F400 X-50.529 Y-26.140
G01 F400 X-50.350 Y-26.102
G01 F400 X-50.183 Y-26.028
G01 F400 X-50.037 Y-25.922
G01 F400 X-47.383 Y-23.267
G01 F400 X-47.106 Y-23.267
G01 F400 X-46.825 Y-23.207
G01 F400 X-46.563 Y-23.091
G01 F400 X-46.330 Y-22.922
G01 F400 X-46.138 Y-22.708
G01 F400 X-45.994 Y-22.459
G01 F400 X-45.905 Y-22.186
G01 F400 X-45.875 Y-21.900
G01 F400 X-45.905 Y-21.614
G01 F400 X-45.994 Y-21.341
G01 F400 X-46.138 Y-21.092
G01 F400 X-46.330 Y-20.878
G01 F400 X-46.563 Y-20.709
G01 F400 X-46.825 Y-20.593
G01 F400 X-47.106 Y-20.533
G01 F400 X-47.394 Y-20.533
G00 Z3.000
G00  X-79.831 Y-21.560
G01 F750 Z0
G01 F400 Z-0.060
G01 F400 X-80.010 Y-21.598
G01 F400 X-80.177 Y-21.672
G01 F400 X-80.325 Y-21.780
G01 F400 X-80.448 Y-21.916
G01 F400 X-80.539 Y-22.074
G01 F400 X-80.596 Y-22.248
G01 F400 X-80.614 Y-22.424
G01 F400 X-80.614 Y-22.730
G01 F400 X-82.717 Y-24.833
G01 F400 X-82.994 Y-24.833
G01 F400 X-83.275 Y-24.893
G01 F400 X-83.537 Y-25.009
G01 F400 X-83.770 Y-25.178
G01 F400 X-83.962 Y-25.392
G01 F400 X-84.106 Y-25.641
G01 F400 X-84.195 Y-25.914
G01 F400 X-84.225 Y-26.200
G01 F400 X-84.195 Y-26.486
G01 F400 X-84.106 Y-26.759
G01 F400 X-83.962 Y-27.008
