( PCB drills )
( Generated by Carbide Copper )
( Material Size )
( X= 152.400, Y= 101.600, Z= 1.580 )
()
G17
G21
G54
G90
T1 M06
G00  X-0.860 Y42.090
G00 F750 Z0
G01 F15000 Z-2.100
G00 Z3.000
G00  X-0.860 Y-32.910
G00 F750 Z0
G01 F15000 Z-2.100
G00 Z3.000
G00  X-113.860 Y42.090
G00 F750 Z0
G01 F15000 Z-2.100
G00 Z3.000
G00  X-113.860 Y-32.910
G00 F750 Z0
G01 F15000 Z-2.100
G00 Z3.000
G00 Z3.000
M05
M30
%