( PCB Contour )
( Generated by Carbide Copper )
( Material Size )
( X= 152.400, Y= 101.600, Z= 1.580 )
()
G17
G21
G54
G90
G00  X-1.640 Y75.274
G01 F750 Z0
G01 F400 Z-0.100
G01 F400 X-1.735 Y75.253
G01 F400 X-1.839 Y75.163
G01 F400 X-1.874 Y75.044
G01 F400 X-1.875 Y74.119
G01 F400 X-1.832 Y73.989
G01 F400 X-1.715 Y73.902
G01 F400 X-1.573 Y73.892
G01 F400 X-1.464 Y73.951
G01 F400 X-1.276 Y74.139
G01 F400 X-1.070 Y74.297
G01 F400 X-0.846 Y74.426
G01 F400 X-0.606 Y74.526
G01 F400 X-0.357 Y74.593
G01 F400 X-0.100 Y74.626
G01 F400 X0.160 Y74.626
G01 F400 X0.417 Y74.593
G01 F400 X0.666 Y74.526
G01 F400 X0.906 Y74.426
G01 F400 X1.130 Y74.297
G01 F400 X1.336 Y74.139
G01 F400 X1.519 Y73.956
G01 F400 X1.677 Y73.750
G01 F400 X1.806 Y73.526
G01 F400 X1.906 Y73.286
G01 F400 X1.973 Y73.037
G01 F400 X2.006 Y72.780
G01 F400 X2.006 Y72.520
G01 F400 X1.973 Y72.264
G01 F400 X1.906 Y72.014
G01 F400 X1.853 Y71.888
G01 F400 X1.806 Y71.774
G01 F400 X1.761 Y71.696
G01 F400 X1.677 Y71.550
G01 F400 X1.624 Y71.481
G01 F400 X1.519 Y71.344
G01 F400 X1.336 Y71.161
G01 F400 X1.130 Y71.003
G01 F400 X1.042 Y70.952
G01 F400 X0.906 Y70.874
G01 F400 X0.666 Y70.774
G01 F400 X0.557 Y70.745
G01 F400 X0.417 Y70.707
G01 F400 X0.160 Y70.674
G01 F400 X-0.100 Y70.674
G01 F400 X-0.357 Y70.707
G01 F400 X-0.497 Y70.745
G01 F400 X-0.606 Y70.774
G01 F400 X-0.846 Y70.874
G01 F400 X-0.982 Y70.952
G01 F400 X-1.070 Y71.003
G01 F400 X-1.276 Y71.161
G01 F400 X-1.467 Y71.352
G01 F400 X-1.590 Y71.414
G01 F400 X-1.734 Y71.393
G01 F400 X-1.842 Y71.300
G01 F400 X-1.877 Y71.181
G01 F400 X-1.878 Y68.540
G01 F400 X-1.882 Y63.388
G01 F400 X-1.885 Y57.340
G01 F400 X-1.888 Y52.540
G01 F400 X-1.889 Y51.888
G01 F400 X-1.893 Y44.840
G01 F400 X-1.903 Y29.088
G01 F400 X-1.909 Y19.540
G01 F400 X-1.911 Y16.290
G01 F400 X-1.920 Y1.110
G01 F400 X-1.922 Y-0.922
G01 F400 X-1.916 Y-0.977
G01 F400 X-1.855 Y-1.093
G01 F400 X-1.730 Y-1.163
G01 F400 X-1.588 Y-1.154
G01 F400 X-1.488 Y-1.081
G01 F400 X-1.459 Y-1.044
G01 F400 X-1.276 Y-0.861
G01 F400 X-1.070 Y-0.703
G01 F400 X-0.980 Y-0.651
G01 F400 X-0.846 Y-0.574
G01 F400 X-0.606 Y-0.474
G01 F400 X-0.457 Y-0.434
G01 F400 X-0.357 Y-0.407
G01 F400 X-0.100 Y-0.374
G01 F400 X0.160 Y-0.374
G01 F400 X0.417 Y-0.407
G01 F400 X0.517 Y-0.434
G01 F400 X0.666 Y-0.474
G01 F400 X0.906 Y-0.574
G01 F400 X1.040 Y-0.651
G01 F400 X1.130 Y-0.703
G01 F400 X1.336 Y-0.861
G01 F400 X1.519 Y-1.044
G01 F400 X1.568 Y-1.108
G01 F400 X1.677 Y-1.250
G01 F400 X1.761 Y-1.396
G01 F400 X1.776 Y-1.422
G01 F400 X1.806 Y-1.474
G01 F400 X1.906 Y-1.714
G01 F400 X1.973 Y-1.964
G01 F400 X2.006 Y-2.220
G01 F400 X2.006 Y-2.480
G01 F400 X1.973 Y-2.736
G01 F400 X1.906 Y-2.986
G01 F400 X1.806 Y-3.226
G01 F400 X1.677 Y-3.450
G01 F400 X1.519 Y-3.656
G01 F400 X1.336 Y-3.839
G01 F400 X1.130 Y-3.997
G01 F400 X0.906 Y-4.126
G01 F400 X0.666 Y-4.226
G01 F400 X0.417 Y-4.293
G01 F400 X0.160 Y-4.326
G01 F400 X-0.100 Y-4.326
G01 F400 X-0.357 Y-4.293
G01 F400 X-0.606 Y-4.226
G01 F400 X-0.846 Y-4.126
G01 F400 X-1.070 Y-3.997
G01 F400 X-1.276 Y-3.839
G01 F400 X-1.459 Y-3.656
G01 F400 X-1.493 Y-3.612
G01 F400 X-1.632 Y-3.530
G01 F400 X-1.780 Y-3.551
G01 F400 X-1.888 Y-3.645
G01 F400 X-1.923 Y-3.764
G01 F400 X-1.924 Y-4.744
G01 F400 X-1.903 Y-4.839
G01 F400 X-1.813 Y-4.944
G01 F400 X-1.694 Y-4.979
G01 F400 X34.431 Y-4.979
G01 F400 X112.174 Y-4.645
G01 F400 X112.275 Y-4.621
G01 F400 X112.377 Y-4.526
G01 F400 X112.412 Y-4.388
G01 F400 X112.367 Y-4.252
G01 F400 X112.270 Y-4.175
G01 F400 X112.154 Y-4.126
G01 F400 X112.076 Y-4.081
G01 F400 X111.930 Y-3.997
G01 F400 X111.732 Y-3.845
G01 F400 X111.541 Y-3.656
G01 F400 X111.383 Y-3.450
G01 F400 X111.332 Y-3.362
G01 F400 X111.254 Y-3.226
G01 F400 X111.154 Y-2.986
G01 F400 X111.121 Y-2.861
G01 F400 X111.087 Y-2.736
G01 F400 X111.054 Y-2.480
G01 F400 X111.054 Y-2.220
G01 F400 X111.087 Y-1.964
G01 F400 X111.154 Y-1.714
G01 F400 X111.254 Y-1.474
G01 F400 X111.383 Y-1.250
G01 F400 X111.541 Y-1.044
G01 F400 X111.724 Y-0.861
G01 F400 X111.930 Y-0.703
G01 F400 X112.154 Y-0.574
G01 F400 X112.394 Y-0.474
G01 F400 X112.636 Y-0.410
G01 F400 X112.901 Y-0.374
G01 F400 X113.160 Y-0.374
G01 F400 X113.416 Y-0.407
G01 F400 X113.517 Y-0.434
G01 F400 X113.666 Y-0.474
G01 F400 X113.906 Y-0.574
G01 F400 X114.040 Y-0.651
G01 F400 X114.130 Y-0.703
G01 F400 X114.336 Y-0.861
G01 F400 X114.429 Y-0.954
G01 F400 X114.551 Y-1.015
G01 F400 X114.694 Y-0.995
G01 F400 X114.803 Y-0.902
G01 F400 X114.838 Y-0.783
G01 F400 X115.108 Y71.386
G01 F400 X115.103 Y71.442
G01 F400 X115.041 Y71.558
G01 F400 X114.917 Y71.628
G01 F400 X114.774 Y71.619
G01 F400 X114.674 Y71.546
G01 F400 X114.624 Y71.481
G01 F400 X114.519 Y71.344
G01 F400 X114.336 Y71.161
G01 F400 X114.130 Y71.003
G01 F400 X114.042 Y70.952
G01 F400 X113.906 Y70.874
G01 F400 X113.666 Y70.774
G01 F400 X113.557 Y70.745
G01 F400 X113.416 Y70.707
G01 F400 X113.160 Y70.674
G01 F400 X112.900 Y70.674
G01 F400 X112.644 Y70.707
G01 F400 X112.551 Y70.732
G01 F400 X112.394 Y70.774
G01 F400 X112.154 Y70.874
G01 F400 X111.930 Y71.003
G01 F400 X111.724 Y71.161
G01 F400 X111.541 Y71.344
G01 F400 X111.383 Y71.550
G01 F400 X111.254 Y71.774
G01 F400 X111.154 Y72.014
G01 F400 X111.088 Y72.263
G01 F400 X111.054 Y72.520
G01 F400 X111.054 Y72.780
G01 F400 X111.087 Y73.037
G01 F400 X111.154 Y73.287
G01 F400 X111.165 Y73.313
G01 F400 X111.254 Y73.526
G01 F400 X111.332 Y73.662
G01 F400 X111.383 Y73.750
G01 F400 X111.445 Y73.831
G01 F400 X111.541 Y73.956
G01 F400 X111.724 Y74.139
G01 F400 X111.930 Y74.297
G01 F400 X112.076 Y74.381
G01 F400 X112.154 Y74.427
G01 F400 X112.394 Y74.526
G01 F400 X112.644 Y74.593
G01 F400 X112.900 Y74.626
G01 F400 X113.160 Y74.626
G01 F400 X113.416 Y74.593
G01 F400 X113.666 Y74.526
G01 F400 X113.906 Y74.426
G01 F400 X114.130 Y74.297
G01 F400 X114.336 Y74.139
G01 F400 X114.519 Y73.956
G01 F400 X114.687 Y73.737
G01 F400 X114.826 Y73.655
G01 F400 X114.974 Y73.676
G01 F400 X115.082 Y73.769
G01 F400 X115.118 Y73.888
G01 F400 X115.122 Y75.038
G01 F400 X115.101 Y75.134
G01 F400 X115.011 Y75.239
G01 F400 X114.892 Y75.274
G01 F400 X-1.640 Y75.274
G00 Z3.000
G00  X62.518 Y73.466
G01 F750 Z0
G01 F400 Z-0.100
G01 F400 X62.762 Y73.466
G01 F400 X63.003 Y73.430
G01 F400 X63.236 Y73.358
G01 F400 X63.456 Y73.252
G01 F400 X63.657 Y73.115
G01 F400 X63.836 Y72.949
G01 F400 X63.987 Y72.759
G01 F400 X64.109 Y72.548
G01 F400 X64.198 Y72.321
G01 F400 X64.253 Y72.083
G01 F400 X64.271 Y71.840
G01 F400 X64.253 Y71.597
G01 F400 X64.198 Y71.359
G01 F400 X64.109 Y71.132
G01 F400 X63.987 Y70.921
G01 F400 X63.838 Y70.734
G01 F400 X63.798 Y70.684
G01 F400 X63.766 Y70.576
G01 F400 X63.766 Y70.203
G01 F400 X63.773 Y70.145
G01 F400 X63.827 Y70.047
G01 F400 X67.039 Y66.834
G01 F400 X67.084 Y66.798
G01 F400 X67.192 Y66.766
G01 F400 X67.262 Y66.766
G01 F400 X67.503 Y66.730
G01 F400 X67.736 Y66.658
G01 F400 X67.956 Y66.552
G01 F400 X68.157 Y66.415
G01 F400 X68.246 Y66.333
G01 F400 X68.329 Y66.255
G01 F400 X68.488 Y66.058
G01 F400 X68.609 Y65.848
G01 F400 X68.698 Y65.621
G01 F400 X68.753 Y65.383
G01 F400 X68.771 Y65.140
G01 F400 X68.754 Y64.912
G01 F400 X68.698 Y64.659
G01 F400 X68.609 Y64.432
G01 F400 X68.487 Y64.221
G01 F400 X68.354 Y64.054
G01 F400 X68.336 Y64.031
G01 F400 X68.174 Y63.881
G01 F400 X67.955 Y63.727
G01 F400 X67.736 Y63.622
G01 F400 X67.503 Y63.550
G01 F400 X67.387 Y63.533
G01 F400 X67.262 Y63.514
G01 F400 X67.018 Y63.514
G01 F400 X66.866 Y63.537
G01 F400 X66.777 Y63.550
G01 F400 X66.544 Y63.622
G01 F400 X66.324 Y63.728
G01 F400 X66.296 Y63.747
G01 F400 X66.123 Y63.865
G01 F400 X65.944 Y64.031
G01 F400 X65.793 Y64.221
G01 F400 X65.671 Y64.432
G01 F400 X65.582 Y64.659
G01 F400 X65.527 Y64.897
G01 F400 X65.511 Y65.112
G01 F400 X65.457 Y65.230
G01 F400 X61.781 Y68.906
G01 F400 X61.737 Y68.967
G01 F400 X61.676 Y69.050
G01 F400 X61.596 Y69.208
G01 F400 X61.541 Y69.376
G01 F400 X61.514 Y69.552
G01 F400 X61.514 Y70.566
G01 F400 X61.506 Y70.629
G01 F400 X61.458 Y70.711
G01 F400 X61.293 Y70.921
G01 F400 X61.171 Y71.132
G01 F400 X61.082 Y71.359
G01 F400 X61.027 Y71.597
G01 F400 X61.009 Y71.840
G01 F400 X61.027 Y72.083
G01 F400 X61.082 Y72.321
G01 F400 X61.171 Y72.548
G01 F400 X61.273 Y72.726
G01 F400 X61.293 Y72.759
G01 F400 X61.444 Y72.949
G01 F400 X61.623 Y73.115
G01 F400 X61.825 Y73.252
G01 F400 X62.044 Y73.358
G01 F400 X62.277 Y73.430
G01 F400 X62.518 Y73.466
G00 Z3.000
G00  X62.496 Y73.207
G01 F750 Z0
G01 F400 Z-0.100
G01 F400 X62.215 Y73.148
G01 F400 X61.953 Y73.031
G01 F400 X61.720 Y72.862
G01 F400 X61.528 Y72.648
G01 F400 X61.384 Y72.399
G01 F400 X61.295 Y72.126
G01 F400 X61.265 Y71.840
G01 F400 X61.295 Y71.554
G01 F400 X61.384 Y71.281
G01 F400 X61.528 Y71.032
G01 F400 X61.720 Y70.818
G01 F400 X61.766 Y70.785
G01 F400 X61.766 Y69.633
G01 F400 X61.784 Y69.458
G01 F400 X61.841 Y69.284
G01 F400 X61.932 Y69.126
G01 F400 X62.048 Y68.997
G01 F400 X65.779 Y65.267
G01 F400 X65.765 Y65.140
G01 F400 X65.795 Y64.854
G01 F400 X65.884 Y64.581
G01 F400 X66.028 Y64.332
G01 F400 X66.220 Y64.118
G01 F400 X66.453 Y63.949
G01 F400 X66.715 Y63.833
G01 F400 X66.996 Y63.773
G01 F400 X67.284 Y63.773
G01 F400 X67.565 Y63.833
G01 F400 X67.827 Y63.949
G01 F400 X68.060 Y64.118
G01 F400 X68.252 Y64.332
G01 F400 X68.396 Y64.581
G01 F400 X68.485 Y64.854
G01 F400 X68.515 Y65.140
G01 F400 X68.485 Y65.426
G01 F400 X68.396 Y65.699
G01 F400 X68.252 Y65.948
G01 F400 X68.060 Y66.162
G01 F400 X67.827 Y66.331
G01 F400 X67.565 Y66.448
G01 F400 X67.284 Y66.507
G01 F400 X67.007 Y66.507
G01 F400 X63.514 Y70.001
G01 F400 X63.514 Y70.785
G01 F400 X63.560 Y70.818
G01 F400 X63.752 Y71.032
G01 F400 X63.896 Y71.281
G01 F400 X63.985 Y71.554
G01 F400 X64.015 Y71.840
G01 F400 X63.985 Y72.126
G01 F400 X63.896 Y72.399
G01 F400 X63.752 Y72.648
G01 F400 X63.560 Y72.862
G01 F400 X63.327 Y73.031
G01 F400 X63.065 Y73.148
G01 F400 X62.784 Y73.207
G01 F400 X62.496 Y73.207
G00 Z3.000
G00  X33.618 Y70.166
G01 F750 Z0
G01 F400 Z-0.100
G01 F400 X33.862 Y70.166
G01 F400 X34.103 Y70.130
G01 F400 X34.336 Y70.058
G01 F400 X34.556 Y69.952
G01 F400 X34.757 Y69.815
G01 F400 X34.936 Y69.649
G01 F400 X35.087 Y69.459
G01 F400 X35.209 Y69.248
G01 F400 X35.298 Y69.021
G01 F400 X35.353 Y68.783
G01 F400 X35.369 Y68.569
G01 F400 X35.423 Y68.450
G01 F400 X39.967 Y63.906
G01 F400 X40.037 Y63.858
G01 F400 X40.154 Y63.842
G01 F400 X40.278 Y63.860
G01 F400 X40.318 Y63.866
G01 F400 X40.562 Y63.866
G01 F400 X40.803 Y63.830
G01 F400 X41.036 Y63.758
G01 F400 X41.215 Y63.672
G01 F400 X41.241 Y63.660
G01 F400 X41.457 Y63.515
G01 F400 X41.599 Y63.383
G01 F400 X41.629 Y63.356
G01 F400 X41.788 Y63.158
G01 F400 X41.909 Y62.948
G01 F400 X41.998 Y62.721
G01 F400 X42.053 Y62.483
G01 F400 X42.071 Y62.240
G01 F400 X42.061 Y62.103
G01 F400 X42.053 Y61.997
G01 F400 X41.998 Y61.759
G01 F400 X41.965 Y61.673
G01 F400 X41.949 Y61.573
G01 F400 X41.998 Y61.443
G01 F400 X42.112 Y61.358
G01 F400 X42.255 Y61.348
G01 F400 X42.363 Y61.407
G01 F400 X42.401 Y61.445
G01 F400 X42.524 Y61.531
G01 F400 X42.570 Y61.563
G01 F400 X42.756 Y61.650
G01 F400 X42.955 Y61.703
G01 F400 X43.106 Y61.716
G01 F400 X43.160 Y61.721
G01 F400 X43.206 Y61.717
G01 F400 X43.365 Y61.703
G01 F400 X43.564 Y61.650
G01 F400 X43.751 Y61.563
G01 F400 X43.919 Y61.445
G01 F400 X44.065 Y61.299
G01 F400 X44.183 Y61.131
G01 F400 X44.270 Y60.944
G01 F400 X44.323 Y60.745
G01 F400 X44.335 Y60.613
G01 F400 X44.341 Y60.540
G01 F400 X44.323 Y60.335
G01 F400 X44.270 Y60.136
G01 F400 X44.183 Y59.950
G01 F400 X44.170 Y59.932
G01 F400 X44.065 Y59.781
G01 F400 X43.919 Y59.635
G01 F400 X43.751 Y59.517
G01 F400 X43.564 Y59.430
G01 F400 X43.365 Y59.377
G01 F400 X43.160 Y59.359
G01 F400 X42.955 Y59.377
G01 F400 X42.756 Y59.430
G01 F400 X42.570 Y59.517
G01 F400 X42.401 Y59.635
G01 F400 X42.255 Y59.781
G01 F400 X42.137 Y59.950
G01 F400 X42.050 Y60.136
G01 F400 X41.997 Y60.335
G01 F400 X41.979 Y60.540
G01 F400 X41.997 Y60.745
G01 F400 X42.034 Y60.882
G01 F400 X42.042 Y60.954
G01 F400 X42.000 Y61.081
G01 F400 X41.889 Y61.171
G01 F400 X41.747 Y61.186
G01 F400 X41.636 Y61.131
G01 F400 X41.490 Y60.996
G01 F400 X41.457 Y60.965
G01 F400 X41.256 Y60.828
G01 F400 X41.036 Y60.722
G01 F400 X40.803 Y60.650
G01 F400 X40.687 Y60.633
G01 F400 X40.562 Y60.614
G01 F400 X40.318 Y60.614
G01 F400 X40.166 Y60.637
G01 F400 X40.077 Y60.650
G01 F400 X39.844 Y60.722
G01 F400 X39.625 Y60.828
G01 F400 X39.423 Y60.965
G01 F400 X39.244 Y61.131
G01 F400 X39.093 Y61.321
G01 F400 X38.971 Y61.532
G01 F400 X38.875 Y61.776
G01 F400 X38.830 Y61.858
G01 F400 X33.841 Y66.846
G01 F400 X33.796 Y66.882
G01 F400 X33.689 Y66.914
G01 F400 X33.618 Y66.914
G01 F400 X33.466 Y66.937
G01 F400 X33.377 Y66.950
G01 F400 X33.144 Y67.022
G01 F400 X32.925 Y67.128
G01 F400 X32.723 Y67.265
G01 F400 X32.544 Y67.431
G01 F400 X32.393 Y67.621
G01 F400 X32.271 Y67.832
G01 F400 X32.182 Y68.059
G01 F400 X32.127 Y68.297
G01 F400 X32.109 Y68.540
G01 F400 X32.127 Y68.783
G01 F400 X32.182 Y69.021
G01 F400 X32.271 Y69.248
G01 F400 X32.292 Y69.285
G01 F400 X32.393 Y69.459
G01 F400 X32.544 Y69.649
G01 F400 X32.723 Y69.815
G01 F400 X32.925 Y69.952
G01 F400 X33.144 Y70.058
G01 F400 X33.377 Y70.130
G01 F400 X33.618 Y70.166
G00 Z3.000
G00  X33.596 Y69.907
G01 F750 Z0
G01 F400 Z-0.100
G01 F400 X33.315 Y69.847
G01 F400 X33.053 Y69.731
G01 F400 X32.820 Y69.562
G01 F400 X32.628 Y69.348
G01 F400 X32.484 Y69.099
G01 F400 X32.395 Y68.826
G01 F400 X32.365 Y68.540
G01 F400 X32.395 Y68.254
G01 F400 X32.484 Y67.981
G01 F400 X32.628 Y67.732
G01 F400 X32.820 Y67.518
G01 F400 X33.053 Y67.349
G01 F400 X33.315 Y67.233
G01 F400 X33.596 Y67.173
G01 F400 X33.873 Y67.173
G01 F400 X39.097 Y61.948
G01 F400 X39.184 Y61.681
G01 F400 X39.328 Y61.432
G01 F400 X39.520 Y61.218
G01 F400 X39.753 Y61.049
G01 F400 X40.015 Y60.933
G01 F400 X40.296 Y60.873
G01 F400 X40.584 Y60.873
G01 F400 X40.865 Y60.933
G01 F400 X41.127 Y61.049
G01 F400 X41.360 Y61.218
G01 F400 X41.552 Y61.432
G01 F400 X41.696 Y61.681
G01 F400 X41.785 Y61.954
G01 F400 X41.815 Y62.240
G01 F400 X41.785 Y62.526
G01 F400 X41.696 Y62.799
G01 F400 X41.552 Y63.048
G01 F400 X41.360 Y63.262
G01 F400 X41.127 Y63.431
G01 F400 X40.865 Y63.548
G01 F400 X40.584 Y63.607
G01 F400 X40.296 Y63.607
G01 F400 X40.015 Y63.548
G01 F400 X39.987 Y63.535
G01 F400 X35.102 Y68.414
G01 F400 X35.115 Y68.540
G01 F400 X35.085 Y68.826
G01 F400 X34.996 Y69.099
G01 F400 X34.852 Y69.348
G01 F400 X34.660 Y69.562
G01 F400 X34.427 Y69.731
G01 F400 X34.165 Y69.847
G01 F400 X33.884 Y69.907
G01 F400 X33.596 Y69.907
G00 Z3.000
G00  X71.540 Y68.921
G01 F750 Z0
G01 F400 Z-0.100
G01 F400 X71.586 Y68.917
G01 F400 X71.745 Y68.903
G01 F400 X71.944 Y68.850
G01 F400 X72.130 Y68.763
G01 F400 X72.299 Y68.645
G01 F400 X72.445 Y68.499
G01 F400 X72.563 Y68.331
G01 F400 X72.650 Y68.144
G01 F400 X72.703 Y67.945
G01 F400 X72.721 Y67.740
G01 F400 X72.703 Y67.535
G01 F400 X72.650 Y67.336
G01 F400 X72.563 Y67.150
G01 F400 X72.522 Y67.091
G01 F400 X72.445 Y66.981
G01 F400 X72.299 Y66.835
G01 F400 X72.130 Y66.717
G01 F400 X71.944 Y66.630
G01 F400 X71.745 Y66.577
G01 F400 X71.540 Y66.559
G01 F400 X71.335 Y66.577
G01 F400 X71.136 Y66.630
G01 F400 X70.950 Y66.717
G01 F400 X70.781 Y66.835
G01 F400 X70.635 Y66.981
G01 F400 X70.517 Y67.150
G01 F400 X70.430 Y67.336
G01 F400 X70.377 Y67.535
G01 F400 X70.359 Y67.740
G01 F400 X70.377 Y67.945
G01 F400 X70.430 Y68.144
G01 F400 X70.517 Y68.331
G01 F400 X70.635 Y68.499
G01 F400 X70.781 Y68.645
G01 F400 X70.860 Y68.700
G01 F400 X70.950 Y68.763
G01 F400 X71.136 Y68.850
G01 F400 X71.335 Y68.903
G01 F400 X71.486 Y68.916
G01 F400 X71.540 Y68.921
G00 Z3.000
G00  X81.700 Y68.921
G01 F750 Z0
G01 F400 Z-0.100
G01 F400 X81.746 Y68.917
G01 F400 X81.905 Y68.903
G01 F400 X82.104 Y68.850
G01 F400 X82.291 Y68.763
G01 F400 X82.459 Y68.645
G01 F400 X82.605 Y68.499
G01 F400 X82.723 Y68.331
G01 F400 X82.810 Y68.144
G01 F400 X82.863 Y67.945
G01 F400 X82.881 Y67.740
G01 F400 X82.863 Y67.535
G01 F400 X82.810 Y67.336
G01 F400 X82.723 Y67.150
G01 F400 X82.682 Y67.091
G01 F400 X82.605 Y66.981
G01 F400 X82.459 Y66.835
G01 F400 X82.291 Y66.717
G01 F400 X82.104 Y66.630
G01 F400 X81.905 Y66.577
G01 F400 X81.700 Y66.559
G01 F400 X81.495 Y66.577
G01 F400 X81.296 Y66.630
G01 F400 X81.109 Y66.717
G01 F400 X80.941 Y66.835
G01 F400 X80.795 Y66.981
G01 F400 X80.677 Y67.150
G01 F400 X80.590 Y67.336
G01 F400 X80.537 Y67.535
G01 F400 X80.519 Y67.740
G01 F400 X80.537 Y67.945
G01 F400 X80.590 Y68.144
G01 F400 X80.677 Y68.331
G01 F400 X80.795 Y68.499
G01 F400 X80.941 Y68.645
G01 F400 X81.020 Y68.700
G01 F400 X81.109 Y68.763
G01 F400 X81.296 Y68.850
G01 F400 X81.495 Y68.903
G01 F400 X81.646 Y68.916
G01 F400 X81.700 Y68.921
G00 Z3.000
G00  X81.603 Y68.660
G01 F750 Z0
G01 F400 Z-0.100
G01 F400 X81.414 Y68.620
G01 F400 X81.238 Y68.541
G01 F400 X81.081 Y68.427
G01 F400 X80.952 Y68.284
G01 F400 X80.855 Y68.116
G01 F400 X80.795 Y67.932
G01 F400 X80.775 Y67.740
G01 F400 X80.795 Y67.548
G01 F400 X80.855 Y67.364
G01 F400 X80.952 Y67.196
G01 F400 X81.081 Y67.053
G01 F400 X81.238 Y66.939
G01 F400 X81.414 Y66.861
G01 F400 X81.603 Y66.820
G01 F400 X81.797 Y66.820
G01 F400 X81.986 Y66.861
G01 F400 X82.162 Y66.939
G01 F400 X82.319 Y67.053
G01 F400 X82.448 Y67.196
G01 F400 X82.545 Y67.364
G01 F400 X82.605 Y67.548
G01 F400 X82.625 Y67.740
G01 F400 X82.605 Y67.932
G01 F400 X82.545 Y68.116
G01 F400 X82.448 Y68.284
G01 F400 X82.319 Y68.427
G01 F400 X82.162 Y68.541
G01 F400 X81.986 Y68.620
G01 F400 X81.797 Y68.660
G01 F400 X81.603 Y68.660
G00 Z3.000
G00  X71.443 Y68.660
G01 F750 Z0
G01 F400 Z-0.100
G01 F400 X71.254 Y68.620
G01 F400 X71.078 Y68.541
G01 F400 X70.921 Y68.427
G01 F400 X70.792 Y68.284
G01 F400 X70.695 Y68.116
G01 F400 X70.635 Y67.932
G01 F400 X70.615 Y67.740
G01 F400 X70.635 Y67.548
G01 F400 X70.695 Y67.364
G01 F400 X70.792 Y67.196
G01 F400 X70.921 Y67.053
G01 F400 X71.078 Y66.939
G01 F400 X71.254 Y66.861
G01 F400 X71.443 Y66.820
G01 F400 X71.637 Y66.820
G01 F400 X71.826 Y66.861
G01 F400 X72.002 Y66.939
G01 F400 X72.159 Y67.053
G01 F400 X72.288 Y67.196
G01 F400 X72.385 Y67.364
G01 F400 X72.445 Y67.548
G01 F400 X72.465 Y67.740
G01 F400 X72.445 Y67.932
G01 F400 X72.385 Y68.116
G01 F400 X72.288 Y68.284
G01 F400 X72.159 Y68.427
G01 F400 X72.002 Y68.541
G01 F400 X71.826 Y68.620
G01 F400 X71.637 Y68.660
G01 F400 X71.443 Y68.660
G00 Z3.000
G00  X86.808 Y66.736
G01 F750 Z0
G01 F400 Z-0.100
G01 F400 X88.132 Y66.736
G01 F400 X88.241 Y66.724
G01 F400 X88.379 Y66.676
G01 F400 X88.504 Y66.598
G01 F400 X88.608 Y66.493
G01 F400 X88.686 Y66.369
G01 F400 X88.734 Y66.231
G01 F400 X88.746 Y66.121
G01 F400 X88.746 Y65.701
G01 F400 X88.767 Y65.606
G01 F400 X88.858 Y65.501
G01 F400 X88.977 Y65.466
G01 F400 X90.481 Y65.466
G01 F400 X90.519 Y65.462
G01 F400 X90.623 Y65.424
G01 F400 X90.709 Y65.359
G01 F400 X90.774 Y65.273
G01 F400 X90.812 Y65.169
G01 F400 X90.816 Y65.131
G01 F400 X90.816 Y63.949
G01 F400 X90.812 Y63.911
G01 F400 X90.774 Y63.808
G01 F400 X90.709 Y63.721
G01 F400 X90.623 Y63.656
G01 F400 X90.519 Y63.618
G01 F400 X90.481 Y63.614
G01 F400 X88.599 Y63.614
G01 F400 X88.561 Y63.618
G01 F400 X88.458 Y63.656
G01 F400 X88.371 Y63.721
G01 F400 X88.306 Y63.808
G01 F400 X88.268 Y63.911
G01 F400 X88.264 Y63.949
G01 F400 X88.264 Y64.649
G01 F400 X88.243 Y64.744
G01 F400 X88.153 Y64.849
G01 F400 X88.033 Y64.884
G01 F400 X86.808 Y64.884
G01 F400 X86.699 Y64.896
G01 F400 X86.561 Y64.944
G01 F400 X86.437 Y65.022
G01 F400 X86.332 Y65.127
G01 F400 X86.254 Y65.251
G01 F400 X86.206 Y65.389
G01 F400 X86.194 Y65.498
G01 F400 X86.194 Y66.122
G01 F400 X86.206 Y66.231
G01 F400 X86.254 Y66.369
G01 F400 X86.266 Y66.388
G01 F400 X86.332 Y66.493
G01 F400 X86.437 Y66.598
G01 F400 X86.561 Y66.676
G01 F400 X86.699 Y66.724
G01 F400 X86.727 Y66.727
G01 F400 X86.808 Y66.736
G00 Z3.000
G00  X43.140 Y66.521
G01 F750 Z0
G01 F400 Z-0.100
G01 F400 X43.186 Y66.517
G01 F400 X43.345 Y66.503
G01 F400 X43.544 Y66.450
G01 F400 X43.730 Y66.363
G01 F400 X43.899 Y66.245
G01 F400 X44.045 Y66.099
G01 F400 X44.163 Y65.931
G01 F400 X44.250 Y65.744
G01 F400 X44.303 Y65.545
G01 F400 X44.317 Y65.391
G01 F400 X44.321 Y65.340
G01 F400 X44.303 Y65.135
G01 F400 X44.250 Y64.936
G01 F400 X44.163 Y64.750
G01 F400 X44.124 Y64.694
G01 F400 X44.045 Y64.581
G01 F400 X43.899 Y64.435
G01 F400 X43.730 Y64.317
G01 F400 X43.544 Y64.230
G01 F400 X43.345 Y64.177
G01 F400 X43.140 Y64.159
G01 F400 X42.935 Y64.177
G01 F400 X42.736 Y64.230
G01 F400 X42.550 Y64.317
G01 F400 X42.381 Y64.435
G01 F400 X42.235 Y64.581
G01 F400 X42.117 Y64.749
G01 F400 X42.030 Y64.936
G01 F400 X41.977 Y65.135
G01 F400 X41.959 Y65.340
G01 F400 X41.977 Y65.545
G01 F400 X42.030 Y65.744
G01 F400 X42.117 Y65.931
G01 F400 X42.235 Y66.099
G01 F400 X42.381 Y66.245
G01 F400 X42.550 Y66.363
G01 F400 X42.736 Y66.450
G01 F400 X42.935 Y66.503
G01 F400 X43.086 Y66.516
G01 F400 X43.140 Y66.521
G00 Z3.000
G00  X53.300 Y66.521
G01 F750 Z0
G01 F400 Z-0.100
G01 F400 X53.346 Y66.517
G01 F400 X53.505 Y66.503
G01 F400 X53.704 Y66.450
G01 F400 X53.891 Y66.363
G01 F400 X54.059 Y66.245
G01 F400 X54.205 Y66.099
G01 F400 X54.323 Y65.931
G01 F400 X54.410 Y65.744
G01 F400 X54.463 Y65.545
G01 F400 X54.477 Y65.391
G01 F400 X54.481 Y65.340
G01 F400 X54.463 Y65.135
G01 F400 X54.410 Y64.936
G01 F400 X54.323 Y64.750
G01 F400 X54.284 Y64.694
G01 F400 X54.205 Y64.581
G01 F400 X54.059 Y64.435
G01 F400 X53.891 Y64.317
G01 F400 X53.704 Y64.230
G01 F400 X53.520 Y64.181
G01 F400 X53.300 Y64.159
G01 F400 X53.095 Y64.177
G01 F400 X52.896 Y64.230
G01 F400 X52.710 Y64.317
G01 F400 X52.541 Y64.435
G01 F400 X52.395 Y64.581
G01 F400 X52.277 Y64.749
G01 F400 X52.190 Y64.936
G01 F400 X52.137 Y65.135
G01 F400 X52.119 Y65.340
G01 F400 X52.137 Y65.545
G01 F400 X52.190 Y65.744
G01 F400 X52.277 Y65.931
G01 F400 X52.395 Y66.099
G01 F400 X52.541 Y66.245
G01 F400 X52.710 Y66.363
G01 F400 X52.896 Y66.450
G01 F400 X53.095 Y66.503
G01 F400 X53.246 Y66.516
G01 F400 X53.300 Y66.521
G00 Z3.000
G00  X53.203 Y66.260
G01 F750 Z0
G01 F400 Z-0.100
G01 F400 X53.014 Y66.219
G01 F400 X52.838 Y66.141
G01 F400 X52.681 Y66.027
G01 F400 X52.552 Y65.884
G01 F400 X52.455 Y65.716
G01 F400 X52.395 Y65.532
G01 F400 X52.375 Y65.340
G01 F400 X52.395 Y65.148
G01 F400 X52.455 Y64.964
G01 F400 X52.552 Y64.796
G01 F400 X52.681 Y64.653
G01 F400 X52.838 Y64.539
G01 F400 X53.014 Y64.460
G01 F400 X53.203 Y64.420
G01 F400 X53.397 Y64.420
G01 F400 X53.586 Y64.460
G01 F400 X53.762 Y64.539
G01 F400 X53.919 Y64.653
G01 F400 X54.048 Y64.796
G01 F400 X54.145 Y64.964
G01 F400 X54.205 Y65.148
G01 F400 X54.225 Y65.340
G01 F400 X54.205 Y65.532
G01 F400 X54.145 Y65.716
G01 F400 X54.048 Y65.884
G01 F400 X53.919 Y66.027
G01 F400 X53.762 Y66.141
G01 F400 X53.586 Y66.219
G01 F400 X53.397 Y66.260
G01 F400 X53.203 Y66.260
G00 Z3.000
G00  X43.043 Y66.260
G01 F750 Z0
G01 F400 Z-0.100
G01 F400 X42.854 Y66.219
G01 F400 X42.678 Y66.141
G01 F400 X42.521 Y66.027
G01 F400 X42.392 Y65.884
G01 F400 X42.295 Y65.716
G01 F400 X42.235 Y65.532
G01 F400 X42.215 Y65.340
G01 F400 X42.235 Y65.148
G01 F400 X42.295 Y64.964
G01 F400 X42.392 Y64.796
G01 F400 X42.521 Y64.653
G01 F400 X42.678 Y64.539
G01 F400 X42.854 Y64.460
G01 F400 X43.043 Y64.420
G01 F400 X43.237 Y64.420
G01 F400 X43.426 Y64.460
G01 F400 X43.602 Y64.539
G01 F400 X43.759 Y64.653
G01 F400 X43.888 Y64.796
G01 F400 X43.985 Y64.964
G01 F400 X44.045 Y65.148
G01 F400 X44.065 Y65.340
G01 F400 X44.045 Y65.532
G01 F400 X43.985 Y65.716
G01 F400 X43.888 Y65.884
G01 F400 X43.759 Y66.027
G01 F400 X43.602 Y66.141
G01 F400 X43.426 Y66.219
G01 F400 X43.237 Y66.260
G01 F400 X43.043 Y66.260
G00 Z3.000
G00  X87.470 Y66.037
G01 F750 Z0
G01 F400 Z-0.100
G01 F400 X87.383 Y66.019
G01 F400 X87.310 Y65.970
G01 F400 X87.261 Y65.897
G01 F400 X87.243 Y65.810
G01 F400 X87.261 Y65.723
G01 F400 X87.310 Y65.650
G01 F400 X87.383 Y65.601
G01 F400 X87.470 Y65.584
G01 F400 X87.557 Y65.601
G01 F400 X87.630 Y65.650
G01 F400 X87.679 Y65.723
G01 F400 X87.697 Y65.810
G01 F400 X87.679 Y65.897
G01 F400 X87.630 Y65.970
G01 F400 X87.557 Y66.019
G01 F400 X87.470 Y66.037
G00 Z3.000
G00  X88.516 Y65.214
G01 F750 Z0
G01 F400 Z-0.100
G01 F400 X88.516 Y63.866
G01 F400 X90.564 Y63.866
G01 F400 X90.564 Y65.214
G01 F400 X88.516 Y65.214
G00 Z3.000
G00  X59.178 Y64.666
G01 F750 Z0
G01 F400 Z-0.100
G01 F400 X60.502 Y64.666
G01 F400 X60.611 Y64.654
G01 F400 X60.749 Y64.606
G01 F400 X60.873 Y64.528
G01 F400 X60.978 Y64.424
G01 F400 X61.056 Y64.299
G01 F400 X61.104 Y64.161
G01 F400 X61.116 Y64.052
G01 F400 X61.116 Y63.631
G01 F400 X61.137 Y63.536
G01 F400 X61.228 Y63.431
G01 F400 X61.347 Y63.396
G01 F400 X62.851 Y63.396
G01 F400 X62.889 Y63.392
G01 F400 X62.992 Y63.354
G01 F400 X63.079 Y63.289
G01 F400 X63.144 Y63.203
G01 F400 X63.182 Y63.099
G01 F400 X63.186 Y63.061
G01 F400 X63.186 Y61.879
G01 F400 X63.184 Y61.853
G01 F400 X63.143 Y61.736
G01 F400 X63.079 Y61.651
G01 F400 X62.992 Y61.586
G01 F400 X62.889 Y61.548
G01 F400 X62.851 Y61.544
G01 F400 X60.969 Y61.544
G01 F400 X60.931 Y61.548
G01 F400 X60.828 Y61.586
G01 F400 X60.741 Y61.651
G01 F400 X60.676 Y61.738
G01 F400 X60.638 Y61.841
G01 F400 X60.634 Y61.879
G01 F400 X60.634 Y62.579
G01 F400 X60.613 Y62.674
G01 F400 X60.523 Y62.779
G01 F400 X60.403 Y62.814
G01 F400 X59.178 Y62.814
G01 F400 X59.069 Y62.826
G01 F400 X58.931 Y62.874
G01 F400 X58.806 Y62.952
G01 F400 X58.702 Y63.056
G01 F400 X58.624 Y63.181
G01 F400 X58.576 Y63.319
G01 F400 X58.564 Y63.428
G01 F400 X58.564 Y64.052
G01 F400 X58.576 Y64.161
G01 F400 X58.624 Y64.299
G01 F400 X58.633 Y64.312
G01 F400 X58.702 Y64.424
G01 F400 X58.806 Y64.528
G01 F400 X58.931 Y64.606
G01 F400 X59.069 Y64.654
G01 F400 X59.097 Y64.657
G01 F400 X59.178 Y64.666
G00 Z3.000
G00  X59.840 Y63.967
G01 F750 Z0
G01 F400 Z-0.100
G01 F400 X59.753 Y63.949
G01 F400 X59.680 Y63.900
G01 F400 X59.631 Y63.827
G01 F400 X59.614 Y63.740
G01 F400 X59.631 Y63.653
G01 F400 X59.680 Y63.580
G01 F400 X59.753 Y63.531
G01 F400 X59.840 Y63.514
G01 F400 X59.927 Y63.531
G01 F400 X60.000 Y63.580
G01 F400 X60.049 Y63.653
G01 F400 X60.067 Y63.740
G01 F400 X60.049 Y63.827
G01 F400 X60.000 Y63.900
G01 F400 X59.927 Y63.949
G01 F400 X59.840 Y63.967
G00 Z3.000
G00  X9.700 Y63.721
G01 F750 Z0
G01 F400 Z-0.100
G01 F400 X9.746 Y63.717
G01 F400 X9.905 Y63.703
G01 F400 X10.104 Y63.650
G01 F400 X10.290 Y63.563
G01 F400 X10.459 Y63.445
G01 F400 X10.605 Y63.299
G01 F400 X10.723 Y63.131
G01 F400 X10.810 Y62.944
G01 F400 X10.863 Y62.745
G01 F400 X10.881 Y62.540
G01 F400 X10.873 Y62.451
G01 F400 X10.863 Y62.335
G01 F400 X10.810 Y62.136
G01 F400 X10.723 Y61.950
G01 F400 X10.659 Y61.858
G01 F400 X10.605 Y61.781
G01 F400 X10.459 Y61.635
G01 F400 X10.290 Y61.517
G01 F400 X10.104 Y61.430
G01 F400 X9.905 Y61.377
G01 F400 X9.700 Y61.359
G01 F400 X9.495 Y61.377
G01 F400 X9.296 Y61.430
G01 F400 X9.110 Y61.517
G01 F400 X8.941 Y61.635
G01 F400 X8.795 Y61.781
G01 F400 X8.677 Y61.950
G01 F400 X8.590 Y62.136
G01 F400 X8.537 Y62.335
G01 F400 X8.519 Y62.540
G01 F400 X8.537 Y62.745
G01 F400 X8.590 Y62.944
G01 F400 X8.677 Y63.131
G01 F400 X8.795 Y63.299
G01 F400 X8.941 Y63.445
G01 F400 X9.008 Y63.491
G01 F400 X9.110 Y63.563
G01 F400 X9.296 Y63.650
G01 F400 X9.495 Y63.703
G01 F400 X9.646 Y63.716
G01 F400 X9.700 Y63.721
G00 Z3.000
G00  X71.640 Y63.721
G01 F750 Z0
G01 F400 Z-0.100
G01 F400 X71.686 Y63.717
G01 F400 X71.845 Y63.703
G01 F400 X72.044 Y63.650
G01 F400 X72.231 Y63.563
G01 F400 X72.399 Y63.445
G01 F400 X72.545 Y63.299
G01 F400 X72.663 Y63.131
G01 F400 X72.750 Y62.944
G01 F400 X72.803 Y62.745
G01 F400 X72.821 Y62.540
G01 F400 X72.803 Y62.335
G01 F400 X72.750 Y62.136
G01 F400 X72.663 Y61.950
G01 F400 X72.599 Y61.858
G01 F400 X72.545 Y61.781
G01 F400 X72.399 Y61.635
G01 F400 X72.231 Y61.517
G01 F400 X72.044 Y61.430
G01 F400 X71.845 Y61.377
G01 F400 X71.640 Y61.359
G01 F400 X71.435 Y61.377
G01 F400 X71.236 Y61.430
G01 F400 X71.050 Y61.517
G01 F400 X70.881 Y61.635
G01 F400 X70.735 Y61.781
G01 F400 X70.617 Y61.950
G01 F400 X70.530 Y62.136
G01 F400 X70.477 Y62.335
G01 F400 X70.459 Y62.540
G01 F400 X70.477 Y62.745
G01 F400 X70.530 Y62.944
G01 F400 X70.617 Y63.131
G01 F400 X70.735 Y63.299
G01 F400 X70.881 Y63.445
G01 F400 X70.948 Y63.491
G01 F400 X71.050 Y63.563
G01 F400 X71.236 Y63.650
G01 F400 X71.435 Y63.703
G01 F400 X71.586 Y63.716
G01 F400 X71.640 Y63.721
G00 Z3.000
G00  X81.800 Y63.721
G01 F750 Z0
G01 F400 Z-0.100
G01 F400 X81.846 Y63.717
G01 F400 X82.005 Y63.703
G01 F400 X82.204 Y63.650
G01 F400 X82.391 Y63.563
G01 F400 X82.559 Y63.445
G01 F400 X82.705 Y63.299
G01 F400 X82.823 Y63.131
G01 F400 X82.910 Y62.944
G01 F400 X82.963 Y62.745
G01 F400 X82.981 Y62.540
G01 F400 X82.963 Y62.335
G01 F400 X82.910 Y62.136
G01 F400 X82.823 Y61.950
G01 F400 X82.759 Y61.858
G01 F400 X82.705 Y61.781
G01 F400 X82.559 Y61.635
G01 F400 X82.391 Y61.517
G01 F400 X82.204 Y61.430
G01 F400 X82.005 Y61.377
G01 F400 X81.800 Y61.359
G01 F400 X81.595 Y61.377
G01 F400 X81.396 Y61.430
G01 F400 X81.210 Y61.517
G01 F400 X81.041 Y61.635
G01 F400 X80.895 Y61.781
G01 F400 X80.777 Y61.950
G01 F400 X80.690 Y62.136
G01 F400 X80.637 Y62.335
G01 F400 X80.619 Y62.540
G01 F400 X80.637 Y62.745
G01 F400 X80.690 Y62.944
G01 F400 X80.777 Y63.131
G01 F400 X80.895 Y63.299
G01 F400 X81.041 Y63.445
G01 F400 X81.108 Y63.491
G01 F400 X81.210 Y63.563
G01 F400 X81.396 Y63.650
G01 F400 X81.595 Y63.703
G01 F400 X81.746 Y63.716
G01 F400 X81.800 Y63.721
G00 Z3.000
G00  X1.239 Y63.716
G01 F750 Z0
G01 F400 Z-0.100
G01 F400 X2.921 Y63.716
G01 F400 X2.959 Y63.712
G01 F400 X3.063 Y63.674
G01 F400 X3.149 Y63.609
G01 F400 X3.214 Y63.523
G01 F400 X3.252 Y63.419
G01 F400 X3.256 Y63.381
G01 F400 X3.256 Y61.699
G01 F400 X3.254 Y61.675
G01 F400 X3.252 Y61.661
G01 F400 X3.214 Y61.558
G01 F400 X3.149 Y61.471
G01 F400 X3.063 Y61.406
G01 F400 X2.959 Y61.368
G01 F400 X2.921 Y61.364
G01 F400 X1.239 Y61.364
G01 F400 X1.201 Y61.368
G01 F400 X1.098 Y61.406
G01 F400 X1.011 Y61.471
G01 F400 X0.946 Y61.558
G01 F400 X0.908 Y61.661
G01 F400 X0.904 Y61.699
G01 F400 X0.904 Y63.381
G01 F400 X0.907 Y63.408
G01 F400 X0.908 Y63.419
G01 F400 X0.946 Y63.523
G01 F400 X1.011 Y63.609
G01 F400 X1.098 Y63.674
G01 F400 X1.201 Y63.712
G01 F400 X1.239 Y63.716
G00 Z3.000
G00  X16.480 Y63.621
G01 F750 Z0
G01 F400 Z-0.100
G01 F400 X16.526 Y63.617
G01 F400 X16.685 Y63.603
G01 F400 X16.884 Y63.550
G01 F400 X17.070 Y63.463
G01 F400 X17.239 Y63.345
G01 F400 X17.385 Y63.199
G01 F400 X17.503 Y63.031
G01 F400 X17.590 Y62.844
G01 F400 X17.643 Y62.645
G01 F400 X17.661 Y62.440
G01 F400 X17.643 Y62.235
G01 F400 X17.590 Y62.036
G01 F400 X17.503 Y61.850
G01 F400 X17.427 Y61.742
G01 F400 X17.385 Y61.681
G01 F400 X17.239 Y61.535
G01 F400 X17.070 Y61.417
G01 F400 X16.884 Y61.330
G01 F400 X16.685 Y61.277
G01 F400 X16.480 Y61.259
G01 F400 X16.275 Y61.277
G01 F400 X16.076 Y61.330
G01 F400 X15.889 Y61.417
G01 F400 X15.721 Y61.535
G01 F400 X15.575 Y61.681
G01 F400 X15.457 Y61.850
G01 F400 X15.370 Y62.036
G01 F400 X15.317 Y62.235
G01 F400 X15.299 Y62.440
G01 F400 X15.317 Y62.645
G01 F400 X15.370 Y62.844
G01 F400 X15.457 Y63.031
G01 F400 X15.575 Y63.199
G01 F400 X15.721 Y63.345
G01 F400 X15.818 Y63.412
G01 F400 X15.889 Y63.463
G01 F400 X16.076 Y63.550
G01 F400 X16.275 Y63.603
G01 F400 X16.426 Y63.616
G01 F400 X16.480 Y63.621
G00 Z3.000
G00  X26.640 Y63.621
G01 F750 Z0
G01 F400 Z-0.100
G01 F400 X26.686 Y63.617
G01 F400 X26.845 Y63.603
G01 F400 X27.044 Y63.550
G01 F400 X27.231 Y63.463
G01 F400 X27.399 Y63.345
G01 F400 X27.545 Y63.199
G01 F400 X27.663 Y63.031
G01 F400 X27.750 Y62.844
G01 F400 X27.803 Y62.645
G01 F400 X27.821 Y62.440
G01 F400 X27.803 Y62.235
G01 F400 X27.750 Y62.036
G01 F400 X27.663 Y61.850
G01 F400 X27.587 Y61.742
G01 F400 X27.545 Y61.681
G01 F400 X27.399 Y61.535
G01 F400 X27.231 Y61.417
G01 F400 X27.055 Y61.335
G01 F400 X26.845 Y61.277
G01 F400 X26.640 Y61.259
G01 F400 X26.435 Y61.277
G01 F400 X26.236 Y61.330
G01 F400 X26.050 Y61.417
G01 F400 X25.881 Y61.535
G01 F400 X25.735 Y61.681
G01 F400 X25.617 Y61.850
G01 F400 X25.530 Y62.036
G01 F400 X25.477 Y62.235
G01 F400 X25.459 Y62.440
G01 F400 X25.477 Y62.645
G01 F400 X25.530 Y62.844
G01 F400 X25.617 Y63.031
G01 F400 X25.735 Y63.199
G01 F400 X25.881 Y63.345
G01 F400 X25.978 Y63.412
G01 F400 X26.050 Y63.463
G01 F400 X26.236 Y63.550
G01 F400 X26.435 Y63.603
G01 F400 X26.586 Y63.616
G01 F400 X26.640 Y63.621
G00 Z3.000
G00  X1.156 Y63.464
G01 F750 Z0
G01 F400 Z-0.100
G01 F400 X1.156 Y61.616
G01 F400 X3.004 Y61.616
G01 F400 X3.004 Y63.464
G01 F400 X1.156 Y63.464
G00 Z3.000
G00  X81.703 Y63.460
G01 F750 Z0
G01 F400 Z-0.100
G01 F400 X81.514 Y63.420
G01 F400 X81.338 Y63.341
G01 F400 X81.181 Y63.227
G01 F400 X81.052 Y63.084
G01 F400 X80.955 Y62.916
G01 F400 X80.895 Y62.732
G01 F400 X80.875 Y62.540
G01 F400 X80.895 Y62.348
G01 F400 X80.955 Y62.164
G01 F400 X81.052 Y61.996
G01 F400 X81.181 Y61.853
G01 F400 X81.338 Y61.739
G01 F400 X81.514 Y61.661
G01 F400 X81.703 Y61.620
G01 F400 X81.897 Y61.620
G01 F400 X82.086 Y61.661
G01 F400 X82.262 Y61.739
G01 F400 X82.419 Y61.853
G01 F400 X82.548 Y61.996
G01 F400 X82.645 Y62.164
G01 F400 X82.705 Y62.348
G01 F400 X82.725 Y62.540
G01 F400 X82.705 Y62.732
G01 F400 X82.645 Y62.916
G01 F400 X82.548 Y63.084
G01 F400 X82.419 Y63.227
G01 F400 X82.262 Y63.341
G01 F400 X82.086 Y63.420
G01 F400 X81.897 Y63.460
G01 F400 X81.703 Y63.460
G00 Z3.000
G00  X71.543 Y63.460
G01 F750 Z0
G01 F400 Z-0.100
G01 F400 X71.354 Y63.420
G01 F400 X71.178 Y63.341
G01 F400 X71.021 Y63.227
G01 F400 X70.892 Y63.084
G01 F400 X70.795 Y62.916
G01 F400 X70.735 Y62.732
G01 F400 X70.715 Y62.540
G01 F400 X70.735 Y62.348
G01 F400 X70.795 Y62.164
G01 F400 X70.892 Y61.996
G01 F400 X71.021 Y61.853
G01 F400 X71.178 Y61.739
G01 F400 X71.354 Y61.661
G01 F400 X71.543 Y61.620
G01 F400 X71.737 Y61.620
G01 F400 X71.926 Y61.661
G01 F400 X72.102 Y61.739
G01 F400 X72.259 Y61.853
G01 F400 X72.388 Y61.996
G01 F400 X72.485 Y62.164
G01 F400 X72.545 Y62.348
G01 F400 X72.565 Y62.540
G01 F400 X72.545 Y62.732
G01 F400 X72.485 Y62.916
G01 F400 X72.388 Y63.084
G01 F400 X72.259 Y63.227
G01 F400 X72.102 Y63.341
G01 F400 X71.926 Y63.420
G01 F400 X71.737 Y63.460
G01 F400 X71.543 Y63.460
G00 Z3.000
G00  X9.603 Y63.460
G01 F750 Z0
G01 F400 Z-0.100
G01 F400 X9.414 Y63.420
G01 F400 X9.238 Y63.341
G01 F400 X9.081 Y63.227
G01 F400 X8.952 Y63.084
G01 F400 X8.855 Y62.916
G01 F400 X8.795 Y62.732
G01 F400 X8.775 Y62.540
G01 F400 X8.795 Y62.348
G01 F400 X8.855 Y62.164
G01 F400 X8.952 Y61.996
G01 F400 X9.081 Y61.853
G01 F400 X9.238 Y61.739
G01 F400 X9.414 Y61.661
G01 F400 X9.603 Y61.620
G01 F400 X9.797 Y61.620
G01 F400 X9.986 Y61.661
G01 F400 X10.162 Y61.739
G01 F400 X10.319 Y61.853
G01 F400 X10.448 Y61.996
G01 F400 X10.545 Y62.164
G01 F400 X10.605 Y62.348
G01 F400 X10.625 Y62.540
G01 F400 X10.605 Y62.732
G01 F400 X10.545 Y62.916
G01 F400 X10.448 Y63.084
G01 F400 X10.319 Y63.227
G01 F400 X10.162 Y63.341
G01 F400 X9.986 Y63.420
G01 F400 X9.797 Y63.460
G01 F400 X9.603 Y63.460
G00 Z3.000
G00  X26.543 Y63.360
G01 F750 Z0
G01 F400 Z-0.100
G01 F400 X26.354 Y63.320
G01 F400 X26.178 Y63.241
G01 F400 X26.021 Y63.127
G01 F400 X25.892 Y62.984
G01 F400 X25.795 Y62.816
G01 F400 X25.735 Y62.632
G01 F400 X25.715 Y62.440
G01 F400 X25.735 Y62.248
G01 F400 X25.795 Y62.064
G01 F400 X25.892 Y61.896
G01 F400 X26.021 Y61.753
G01 F400 X26.178 Y61.639
G01 F400 X26.354 Y61.561
G01 F400 X26.543 Y61.520
G01 F400 X26.737 Y61.520
G01 F400 X26.926 Y61.561
G01 F400 X27.102 Y61.639
G01 F400 X27.259 Y61.753
G01 F400 X27.388 Y61.896
G01 F400 X27.485 Y62.064
G01 F400 X27.545 Y62.248
G01 F400 X27.565 Y62.440
G01 F400 X27.545 Y62.632
G01 F400 X27.485 Y62.816
G01 F400 X27.388 Y62.984
G01 F400 X27.259 Y63.127
G01 F400 X27.102 Y63.241
G01 F400 X26.926 Y63.320
G01 F400 X26.737 Y63.360
G01 F400 X26.543 Y63.360
G00 Z3.000
G00  X16.383 Y63.360
G01 F750 Z0
G01 F400 Z-0.100
G01 F400 X16.194 Y63.320
G01 F400 X16.018 Y63.241
G01 F400 X15.861 Y63.127
G01 F400 X15.732 Y62.984
G01 F400 X15.635 Y62.816
G01 F400 X15.575 Y62.632
G01 F400 X15.555 Y62.440
G01 F400 X15.575 Y62.248
G01 F400 X15.635 Y62.064
G01 F400 X15.732 Y61.896
G01 F400 X15.861 Y61.753
G01 F400 X16.018 Y61.639
G01 F400 X16.194 Y61.561
G01 F400 X16.383 Y61.520
G01 F400 X16.577 Y61.520
G01 F400 X16.766 Y61.561
G01 F400 X16.942 Y61.639
G01 F400 X17.099 Y61.753
G01 F400 X17.228 Y61.896
G01 F400 X17.325 Y62.064
G01 F400 X17.385 Y62.248
G01 F400 X17.405 Y62.440
G01 F400 X17.385 Y62.632
G01 F400 X17.325 Y62.816
G01 F400 X17.228 Y62.984
G01 F400 X17.099 Y63.127
G01 F400 X16.942 Y63.241
G01 F400 X16.766 Y63.320
G01 F400 X16.577 Y63.360
G01 F400 X16.383 Y63.360
G00 Z3.000
G00  X60.886 Y63.144
G01 F750 Z0
G01 F400 Z-0.100
G01 F400 X60.886 Y61.796
G01 F400 X62.934 Y61.796
G01 F400 X62.934 Y63.144
G01 F400 X60.886 Y63.144
G00 Z3.000
G00  X31.818 Y61.826
G01 F750 Z0
G01 F400 Z-0.100
G01 F400 X33.142 Y61.826
G01 F400 X33.251 Y61.814
G01 F400 X33.389 Y61.766
G01 F400 X33.514 Y61.688
G01 F400 X33.618 Y61.584
G01 F400 X33.696 Y61.459
G01 F400 X33.744 Y61.321
G01 F400 X33.755 Y61.227
G01 F400 X33.757 Y60.791
G01 F400 X33.777 Y60.696
G01 F400 X33.867 Y60.591
G01 F400 X33.987 Y60.556
G01 F400 X35.491 Y60.556
G01 F400 X35.529 Y60.552
G01 F400 X35.633 Y60.514
G01 F400 X35.719 Y60.449
G01 F400 X35.784 Y60.363
G01 F400 X35.822 Y60.259
G01 F400 X35.826 Y60.221
G01 F400 X35.826 Y59.039
G01 F400 X35.822 Y59.001
G01 F400 X35.784 Y58.898
G01 F400 X35.719 Y58.811
G01 F400 X35.633 Y58.746
G01 F400 X35.529 Y58.708
G01 F400 X35.491 Y58.704
G01 F400 X33.609 Y58.704
G01 F400 X33.571 Y58.708
G01 F400 X33.468 Y58.746
G01 F400 X33.381 Y58.811
G01 F400 X33.316 Y58.898
G01 F400 X33.278 Y59.001
G01 F400 X33.274 Y59.039
G01 F400 X33.274 Y59.739
G01 F400 X33.253 Y59.834
G01 F400 X33.163 Y59.939
G01 F400 X33.043 Y59.974
G01 F400 X31.818 Y59.974
G01 F400 X31.709 Y59.986
G01 F400 X31.571 Y60.034
G01 F400 X31.447 Y60.112
G01 F400 X31.342 Y60.217
G01 F400 X31.264 Y60.341
G01 F400 X31.216 Y60.479
G01 F400 X31.204 Y60.588
G01 F400 X31.204 Y61.212
G01 F400 X31.216 Y61.321
G01 F400 X31.264 Y61.459
G01 F400 X31.274 Y61.474
G01 F400 X31.342 Y61.584
G01 F400 X31.447 Y61.688
G01 F400 X31.571 Y61.766
G01 F400 X31.709 Y61.814
G01 F400 X31.737 Y61.817
G01 F400 X31.818 Y61.826
G00 Z3.000
G00  X53.320 Y61.721
G01 F750 Z0
G01 F400 Z-0.100
G01 F400 X53.366 Y61.717
G01 F400 X53.525 Y61.703
G01 F400 X53.724 Y61.650
G01 F400 X53.911 Y61.563
G01 F400 X54.079 Y61.445
G01 F400 X54.225 Y61.299
G01 F400 X54.343 Y61.131
G01 F400 X54.430 Y60.944
G01 F400 X54.483 Y60.745
G01 F400 X54.495 Y60.613
G01 F400 X54.501 Y60.540
G01 F400 X54.483 Y60.335
G01 F400 X54.430 Y60.136
G01 F400 X54.343 Y59.950
G01 F400 X54.330 Y59.932
G01 F400 X54.225 Y59.781
G01 F400 X54.079 Y59.635
G01 F400 X53.911 Y59.517
G01 F400 X53.724 Y59.430
G01 F400 X53.525 Y59.377
G01 F400 X53.320 Y59.359
G01 F400 X53.115 Y59.377
G01 F400 X52.916 Y59.430
G01 F400 X52.730 Y59.517
G01 F400 X52.561 Y59.635
G01 F400 X52.415 Y59.781
G01 F400 X52.297 Y59.950
G01 F400 X52.210 Y60.136
G01 F400 X52.157 Y60.335
G01 F400 X52.139 Y60.540
G01 F400 X52.157 Y60.745
G01 F400 X52.210 Y60.944
G01 F400 X52.297 Y61.131
G01 F400 X52.415 Y61.299
G01 F400 X52.561 Y61.445
G01 F400 X52.684 Y61.531
G01 F400 X52.730 Y61.563
G01 F400 X52.916 Y61.650
G01 F400 X53.115 Y61.703
G01 F400 X53.266 Y61.716
G01 F400 X53.320 Y61.721
G00 Z3.000
G00  X53.223 Y61.460
G01 F750 Z0
G01 F400 Z-0.100
G01 F400 X53.034 Y61.420
G01 F400 X52.858 Y61.341
G01 F400 X52.701 Y61.227
G01 F400 X52.572 Y61.084
G01 F400 X52.475 Y60.916
G01 F400 X52.415 Y60.732
G01 F400 X52.395 Y60.540
G01 F400 X52.415 Y60.348
G01 F400 X52.475 Y60.164
G01 F400 X52.572 Y59.996
G01 F400 X52.701 Y59.853
G01 F400 X52.858 Y59.739
G01 F400 X53.034 Y59.661
G01 F400 X53.223 Y59.620
G01 F400 X53.417 Y59.620
G01 F400 X53.606 Y59.661
G01 F400 X53.782 Y59.739
G01 F400 X53.939 Y59.853
G01 F400 X54.068 Y59.996
G01 F400 X54.165 Y60.164
G01 F400 X54.225 Y60.348
G01 F400 X54.245 Y60.540
G01 F400 X54.225 Y60.732
G01 F400 X54.165 Y60.916
G01 F400 X54.068 Y61.084
G01 F400 X53.939 Y61.227
G01 F400 X53.782 Y61.341
G01 F400 X53.606 Y61.420
G01 F400 X53.417 Y61.460
G01 F400 X53.223 Y61.460
G00 Z3.000
G00  X43.063 Y61.460
G01 F750 Z0
G01 F400 Z-0.100
G01 F400 X42.874 Y61.420
G01 F400 X42.698 Y61.341
G01 F400 X42.541 Y61.227
G01 F400 X42.412 Y61.084
G01 F400 X42.315 Y60.916
G01 F400 X42.255 Y60.732
G01 F400 X42.235 Y60.540
G01 F400 X42.255 Y60.348
G01 F400 X42.315 Y60.164
G01 F400 X42.412 Y59.996
G01 F400 X42.541 Y59.853
G01 F400 X42.698 Y59.739
G01 F400 X42.874 Y59.661
G01 F400 X43.063 Y59.620
G01 F400 X43.257 Y59.620
G01 F400 X43.446 Y59.661
G01 F400 X43.622 Y59.739
G01 F400 X43.779 Y59.853
G01 F400 X43.908 Y59.996
G01 F400 X44.005 Y60.164
G01 F400 X44.065 Y60.348
G01 F400 X44.085 Y60.540
G01 F400 X44.065 Y60.732
G01 F400 X44.005 Y60.916
G01 F400 X43.908 Y61.084
G01 F400 X43.779 Y61.227
G01 F400 X43.622 Y61.341
G01 F400 X43.446 Y61.420
G01 F400 X43.257 Y61.460
G01 F400 X43.063 Y61.460
G00 Z3.000
G00  X32.480 Y61.127
G01 F750 Z0
G01 F400 Z-0.100
G01 F400 X32.393 Y61.109
G01 F400 X32.320 Y61.060
G01 F400 X32.271 Y60.987
G01 F400 X32.254 Y60.900
G01 F400 X32.271 Y60.813
G01 F400 X32.320 Y60.740
G01 F400 X32.393 Y60.691
G01 F400 X32.480 Y60.674
G01 F400 X32.567 Y60.691
G01 F400 X32.640 Y60.740
G01 F400 X32.689 Y60.813
G01 F400 X32.706 Y60.900
G01 F400 X32.689 Y60.987
G01 F400 X32.640 Y61.060
G01 F400 X32.567 Y61.109
G01 F400 X32.480 Y61.127
G00 Z3.000
G00  X88.878 Y61.006
G01 F750 Z0
G01 F400 Z-0.100
G01 F400 X90.202 Y61.006
G01 F400 X90.311 Y60.994
G01 F400 X90.449 Y60.946
G01 F400 X90.574 Y60.868
G01 F400 X90.678 Y60.764
G01 F400 X90.756 Y60.639
G01 F400 X90.804 Y60.501
G01 F400 X90.816 Y60.392
G01 F400 X90.816 Y59.768
G01 F400 X90.804 Y59.659
G01 F400 X90.756 Y59.521
G01 F400 X90.678 Y59.397
G01 F400 X90.574 Y59.292
G01 F400 X90.480 Y59.234
G01 F400 X90.449 Y59.214
G01 F400 X90.311 Y59.166
G01 F400 X90.202 Y59.154
G01 F400 X88.981 Y59.154
G01 F400 X88.886 Y59.133
G01 F400 X88.781 Y59.043
G01 F400 X88.746 Y58.923
G01 F400 X88.746 Y58.701
G01 F400 X88.767 Y58.606
G01 F400 X88.858 Y58.501
G01 F400 X88.977 Y58.466
G01 F400 X90.481 Y58.466
G01 F400 X90.519 Y58.462
G01 F400 X90.623 Y58.424
G01 F400 X90.709 Y58.359
G01 F400 X90.774 Y58.273
G01 F400 X90.812 Y58.169
G01 F400 X90.816 Y58.131
G01 F400 X90.816 Y56.949
G01 F400 X90.814 Y56.922
G01 F400 X90.773 Y56.807
G01 F400 X90.709 Y56.721
G01 F400 X90.623 Y56.656
G01 F400 X90.519 Y56.618
G01 F400 X90.481 Y56.614
G01 F400 X88.599 Y56.614
G01 F400 X88.561 Y56.618
G01 F400 X88.458 Y56.656
G01 F400 X88.371 Y56.721
G01 F400 X88.306 Y56.808
G01 F400 X88.268 Y56.911
G01 F400 X88.264 Y56.949
G01 F400 X88.264 Y57.649
G01 F400 X88.243 Y57.744
G01 F400 X88.153 Y57.849
G01 F400 X88.033 Y57.884
G01 F400 X86.808 Y57.884
G01 F400 X86.699 Y57.896
G01 F400 X86.561 Y57.944
G01 F400 X86.437 Y58.022
G01 F400 X86.332 Y58.127
G01 F400 X86.254 Y58.251
G01 F400 X86.206 Y58.389
G01 F400 X86.194 Y58.498
G01 F400 X86.194 Y59.122
G01 F400 X86.206 Y59.231
G01 F400 X86.254 Y59.369
G01 F400 X86.332 Y59.494
G01 F400 X86.437 Y59.598
G01 F400 X86.561 Y59.676
G01 F400 X86.699 Y59.724
G01 F400 X86.727 Y59.727
G01 F400 X86.808 Y59.736
G01 F400 X88.029 Y59.736
G01 F400 X88.124 Y59.757
G01 F400 X88.229 Y59.848
G01 F400 X88.264 Y59.967
G01 F400 X88.264 Y60.392
G01 F400 X88.276 Y60.501
G01 F400 X88.324 Y60.639
G01 F400 X88.402 Y60.764
G01 F400 X88.507 Y60.868
G01 F400 X88.631 Y60.946
G01 F400 X88.769 Y60.994
G01 F400 X88.797 Y60.997
G01 F400 X88.878 Y61.006
G00 Z3.000
G00  X108.607 Y60.916
G01 F750 Z0
G01 F400 Z-0.100
G01 F400 X110.993 Y60.916
G01 F400 X111.077 Y60.908
G01 F400 X111.217 Y60.861
G01 F400 X111.341 Y60.785
G01 F400 X111.445 Y60.681
G01 F400 X111.522 Y60.557
G01 F400 X111.568 Y60.417
G01 F400 X111.576 Y60.333
G01 F400 X111.576 Y57.947
G01 F400 X111.568 Y57.863
G01 F400 X111.527 Y57.739
G01 F400 X111.444 Y57.598
G01 F400 X111.341 Y57.495
G01 F400 X111.217 Y57.419
G01 F400 X111.147 Y57.395
G01 F400 X111.077 Y57.372
G01 F400 X110.993 Y57.364
G01 F400 X108.607 Y57.364
G01 F400 X108.523 Y57.372
G01 F400 X108.383 Y57.419
G01 F400 X108.259 Y57.495
G01 F400 X108.155 Y57.599
G01 F400 X108.079 Y57.723
G01 F400 X108.032 Y57.863
G01 F400 X108.024 Y57.947
G01 F400 X108.024 Y60.333
G01 F400 X108.032 Y60.417
G01 F400 X108.078 Y60.553
G01 F400 X108.156 Y60.681
G01 F400 X108.259 Y60.785
G01 F400 X108.383 Y60.861
G01 F400 X108.523 Y60.908
G01 F400 X108.607 Y60.916
G00 Z3.000
G00  X89.540 Y60.306
G01 F750 Z0
G01 F400 Z-0.100
G01 F400 X89.453 Y60.289
G01 F400 X89.380 Y60.240
G01 F400 X89.331 Y60.167
G01 F400 X89.314 Y60.080
G01 F400 X89.331 Y59.993
G01 F400 X89.380 Y59.920
G01 F400 X89.453 Y59.871
G01 F400 X89.540 Y59.854
G01 F400 X89.627 Y59.871
G01 F400 X89.700 Y59.920
G01 F400 X89.749 Y59.993
G01 F400 X89.767 Y60.080
G01 F400 X89.749 Y60.167
G01 F400 X89.700 Y60.240
G01 F400 X89.627 Y60.289
G01 F400 X89.540 Y60.306
G00 Z3.000
G00  X33.526 Y60.304
G01 F750 Z0
G01 F400 Z-0.100
G01 F400 X33.526 Y58.956
G01 F400 X35.574 Y58.956
G01 F400 X35.574 Y60.304
G01 F400 X33.526 Y60.304
G00 Z3.000
G00  X109.800 Y59.367
G01 F750 Z0
G01 F400 Z-0.100
G01 F400 X109.713 Y59.349
G01 F400 X109.640 Y59.300
G01 F400 X109.591 Y59.227
G01 F400 X109.574 Y59.140
G01 F400 X109.591 Y59.053
G01 F400 X109.640 Y58.980
G01 F400 X109.713 Y58.931
G01 F400 X109.800 Y58.914
G01 F400 X109.887 Y58.931
G01 F400 X109.960 Y58.980
G01 F400 X110.009 Y59.053
G01 F400 X110.026 Y59.140
G01 F400 X110.009 Y59.227
G01 F400 X109.960 Y59.300
G01 F400 X109.887 Y59.349
G01 F400 X109.800 Y59.367
G00 Z3.000
G00  X87.470 Y59.037
G01 F750 Z0
G01 F400 Z-0.100
G01 F400 X87.383 Y59.019
G01 F400 X87.310 Y58.970
G01 F400 X87.261 Y58.897
G01 F400 X87.243 Y58.810
G01 F400 X87.261 Y58.723
G01 F400 X87.310 Y58.650
G01 F400 X87.383 Y58.601
G01 F400 X87.470 Y58.584
G01 F400 X87.557 Y58.601
G01 F400 X87.630 Y58.650
G01 F400 X87.679 Y58.723
G01 F400 X87.697 Y58.810
G01 F400 X87.679 Y58.897
G01 F400 X87.630 Y58.970
G01 F400 X87.557 Y59.019
G01 F400 X87.470 Y59.037
G00 Z3.000
G00  X71.660 Y58.821
G01 F750 Z0
G01 F400 Z-0.100
G01 F400 X71.706 Y58.817
G01 F400 X71.865 Y58.803
G01 F400 X72.064 Y58.750
G01 F400 X72.251 Y58.663
G01 F400 X72.419 Y58.545
G01 F400 X72.565 Y58.399
G01 F400 X72.683 Y58.230
G01 F400 X72.770 Y58.044
G01 F400 X72.823 Y57.845
G01 F400 X72.841 Y57.640
G01 F400 X72.823 Y57.435
G01 F400 X72.770 Y57.236
G01 F400 X72.683 Y57.050
G01 F400 X72.657 Y57.013
G01 F400 X72.565 Y56.881
G01 F400 X72.419 Y56.735
G01 F400 X72.251 Y56.617
G01 F400 X72.064 Y56.530
G01 F400 X71.865 Y56.477
G01 F400 X71.660 Y56.459
G01 F400 X71.455 Y56.477
G01 F400 X71.256 Y56.530
G01 F400 X71.070 Y56.617
G01 F400 X70.901 Y56.735
G01 F400 X70.755 Y56.881
G01 F400 X70.637 Y57.050
G01 F400 X70.550 Y57.236
G01 F400 X70.497 Y57.435
G01 F400 X70.479 Y57.640
G01 F400 X70.497 Y57.845
G01 F400 X70.550 Y58.044
G01 F400 X70.637 Y58.230
G01 F400 X70.755 Y58.399
G01 F400 X70.901 Y58.545
G01 F400 X70.939 Y58.571
G01 F400 X71.070 Y58.663
G01 F400 X71.256 Y58.750
G01 F400 X71.455 Y58.803
G01 F400 X71.606 Y58.816
G01 F400 X71.660 Y58.821
G00 Z3.000
G00  X81.820 Y58.821
G01 F750 Z0
G01 F400 Z-0.100
G01 F400 X81.866 Y58.817
G01 F400 X82.025 Y58.803
G01 F400 X82.224 Y58.750
G01 F400 X82.410 Y58.663
G01 F400 X82.579 Y58.545
G01 F400 X82.725 Y58.399
G01 F400 X82.843 Y58.230
G01 F400 X82.930 Y58.044
G01 F400 X82.983 Y57.845
G01 F400 X83.001 Y57.640
G01 F400 X82.983 Y57.435
G01 F400 X82.930 Y57.236
G01 F400 X82.843 Y57.050
G01 F400 X82.817 Y57.013
G01 F400 X82.725 Y56.881
G01 F400 X82.579 Y56.735
G01 F400 X82.410 Y56.617
G01 F400 X82.224 Y56.530
G01 F400 X82.025 Y56.477
G01 F400 X81.820 Y56.459
G01 F400 X81.615 Y56.477
G01 F400 X81.416 Y56.530
G01 F400 X81.230 Y56.617
G01 F400 X81.061 Y56.735
G01 F400 X80.915 Y56.881
G01 F400 X80.797 Y57.050
G01 F400 X80.710 Y57.236
G01 F400 X80.657 Y57.435
G01 F400 X80.639 Y57.640
G01 F400 X80.657 Y57.845
G01 F400 X80.710 Y58.044
G01 F400 X80.797 Y58.230
G01 F400 X80.915 Y58.399
G01 F400 X81.061 Y58.545
G01 F400 X81.099 Y58.571
G01 F400 X81.230 Y58.663
G01 F400 X81.416 Y58.750
G01 F400 X81.615 Y58.803
G01 F400 X81.766 Y58.816
G01 F400 X81.820 Y58.821
G00 Z3.000
G00  X61.178 Y58.706
G01 F750 Z0
G01 F400 Z-0.100
G01 F400 X62.502 Y58.706
G01 F400 X62.611 Y58.694
G01 F400 X62.749 Y58.646
G01 F400 X62.873 Y58.568
G01 F400 X62.978 Y58.464
G01 F400 X63.056 Y58.339
G01 F400 X63.104 Y58.201
G01 F400 X63.116 Y58.091
G01 F400 X63.116 Y57.468
G01 F400 X63.104 Y57.359
G01 F400 X63.056 Y57.221
G01 F400 X62.978 Y57.096
G01 F400 X62.873 Y56.992
G01 F400 X62.780 Y56.934
G01 F400 X62.749 Y56.914
G01 F400 X62.611 Y56.866
G01 F400 X62.502 Y56.854
G01 F400 X61.281 Y56.854
G01 F400 X61.186 Y56.833
G01 F400 X61.081 Y56.742
G01 F400 X61.046 Y56.623
G01 F400 X61.046 Y56.401
G01 F400 X61.067 Y56.306
G01 F400 X61.158 Y56.201
G01 F400 X61.277 Y56.166
G01 F400 X62.781 Y56.166
G01 F400 X62.819 Y56.162
G01 F400 X62.923 Y56.124
G01 F400 X63.009 Y56.059
G01 F400 X63.074 Y55.973
G01 F400 X63.112 Y55.869
G01 F400 X63.116 Y55.831
G01 F400 X63.116 Y54.649
G01 F400 X63.113 Y54.617
G01 F400 X63.073 Y54.507
G01 F400 X63.009 Y54.421
G01 F400 X62.923 Y54.356
G01 F400 X62.819 Y54.318
G01 F400 X62.781 Y54.314
G01 F400 X60.899 Y54.314
G01 F400 X60.861 Y54.318
G01 F400 X60.758 Y54.356
G01 F400 X60.671 Y54.421
G01 F400 X60.606 Y54.508
G01 F400 X60.568 Y54.611
G01 F400 X60.564 Y54.649
G01 F400 X60.564 Y55.349
G01 F400 X60.543 Y55.444
G01 F400 X60.453 Y55.549
G01 F400 X60.333 Y55.584
G01 F400 X59.108 Y55.584
G01 F400 X58.999 Y55.596
G01 F400 X58.861 Y55.644
G01 F400 X58.736 Y55.722
G01 F400 X58.632 Y55.827
G01 F400 X58.554 Y55.951
G01 F400 X58.506 Y56.089
G01 F400 X58.494 Y56.198
G01 F400 X58.494 Y56.822
G01 F400 X58.506 Y56.931
G01 F400 X58.554 Y57.069
G01 F400 X58.632 Y57.194
G01 F400 X58.736 Y57.298
G01 F400 X58.861 Y57.376
G01 F400 X58.999 Y57.424
G01 F400 X59.027 Y57.427
G01 F400 X59.108 Y57.436
G01 F400 X60.329 Y57.436
G01 F400 X60.424 Y57.457
G01 F400 X60.529 Y57.547
G01 F400 X60.564 Y57.667
G01 F400 X60.564 Y58.091
G01 F400 X60.576 Y58.201
G01 F400 X60.624 Y58.339
G01 F400 X60.651 Y58.382
G01 F400 X60.702 Y58.464
G01 F400 X60.806 Y58.568
G01 F400 X60.931 Y58.646
G01 F400 X61.069 Y58.694
G01 F400 X61.097 Y58.697
G01 F400 X61.178 Y58.706
G00 Z3.000
G00  X71.563 Y58.560
G01 F750 Z0
G01 F400 Z-0.100
G01 F400 X71.374 Y58.520
G01 F400 X71.198 Y58.441
G01 F400 X71.041 Y58.327
G01 F400 X70.912 Y58.184
G01 F400 X70.815 Y58.016
G01 F400 X70.755 Y57.832
G01 F400 X70.735 Y57.640
G01 F400 X70.755 Y57.448
G01 F400 X70.815 Y57.264
G01 F400 X70.912 Y57.096
G01 F400 X71.041 Y56.953
G01 F400 X71.198 Y56.839
G01 F400 X71.374 Y56.761
G01 F400 X71.563 Y56.720
G01 F400 X71.757 Y56.720
G01 F400 X71.946 Y56.761
G01 F400 X72.122 Y56.839
G01 F400 X72.279 Y56.953
G01 F400 X72.408 Y57.096
G01 F400 X72.505 Y57.264
G01 F400 X72.565 Y57.448
G01 F400 X72.585 Y57.640
G01 F400 X72.565 Y57.832
G01 F400 X72.505 Y58.016
G01 F400 X72.408 Y58.184
G01 F400 X72.279 Y58.327
G01 F400 X72.122 Y58.441
G01 F400 X71.946 Y58.520
G01 F400 X71.757 Y58.560
G01 F400 X71.563 Y58.560
G00 Z3.000
G00  X81.723 Y58.560
G01 F750 Z0
G01 F400 Z-0.100
G01 F400 X81.534 Y58.520
G01 F400 X81.358 Y58.441
G01 F400 X81.201 Y58.327
G01 F400 X81.072 Y58.184
G01 F400 X80.975 Y58.016
G01 F400 X80.915 Y57.832
G01 F400 X80.895 Y57.640
G01 F400 X80.915 Y57.448
G01 F400 X80.975 Y57.264
G01 F400 X81.072 Y57.096
G01 F400 X81.201 Y56.953
G01 F400 X81.358 Y56.839
G01 F400 X81.534 Y56.761
G01 F400 X81.723 Y56.720
G01 F400 X81.917 Y56.720
G01 F400 X82.106 Y56.761
G01 F400 X82.282 Y56.839
G01 F400 X82.439 Y56.953
G01 F400 X82.568 Y57.096
G01 F400 X82.665 Y57.264
G01 F400 X82.725 Y57.448
G01 F400 X82.745 Y57.640
G01 F400 X82.725 Y57.832
G01 F400 X82.665 Y58.016
G01 F400 X82.568 Y58.184
G01 F400 X82.439 Y58.327
G01 F400 X82.282 Y58.441
G01 F400 X82.106 Y58.520
G01 F400 X81.917 Y58.560
G01 F400 X81.723 Y58.560
G00 Z3.000
G00  X16.400 Y58.521
G01 F750 Z0
G01 F400 Z-0.100
G01 F400 X16.446 Y58.517
G01 F400 X16.605 Y58.503
G01 F400 X16.804 Y58.450
G01 F400 X16.991 Y58.363
G01 F400 X17.159 Y58.245
G01 F400 X17.305 Y58.099
G01 F400 X17.423 Y57.931
G01 F400 X17.510 Y57.744
G01 F400 X17.563 Y57.545
G01 F400 X17.571 Y57.451
G01 F400 X17.581 Y57.340
G01 F400 X17.579 Y57.316
G01 F400 X17.563 Y57.135
G01 F400 X17.532 Y57.019
G01 F400 X17.510 Y56.937
G01 F400 X17.422 Y56.749
G01 F400 X17.390 Y56.704
G01 F400 X17.305 Y56.581
G01 F400 X17.159 Y56.435
G01 F400 X16.991 Y56.317
G01 F400 X16.804 Y56.230
G01 F400 X16.605 Y56.177
G01 F400 X16.400 Y56.159
G01 F400 X16.195 Y56.177
G01 F400 X15.996 Y56.230
G01 F400 X15.809 Y56.317
G01 F400 X15.641 Y56.435
G01 F400 X15.495 Y56.581
G01 F400 X15.377 Y56.750
G01 F400 X15.290 Y56.936
G01 F400 X15.237 Y57.135
G01 F400 X15.219 Y57.340
G01 F400 X15.237 Y57.545
G01 F400 X15.290 Y57.744
G01 F400 X15.377 Y57.931
G01 F400 X15.495 Y58.099
G01 F400 X15.641 Y58.245
G01 F400 X15.786 Y58.346
G01 F400 X15.810 Y58.363
G01 F400 X15.996 Y58.450
G01 F400 X16.195 Y58.503
G01 F400 X16.349 Y58.516
G01 F400 X16.400 Y58.521
G00 Z3.000
G00  X26.560 Y58.521
G01 F750 Z0
G01 F400 Z-0.100
G01 F400 X26.606 Y58.517
G01 F400 X26.765 Y58.503
G01 F400 X26.964 Y58.450
G01 F400 X27.151 Y58.363
G01 F400 X27.319 Y58.245
G01 F400 X27.465 Y58.099
G01 F400 X27.583 Y57.931
G01 F400 X27.670 Y57.744
G01 F400 X27.723 Y57.545
G01 F400 X27.731 Y57.451
G01 F400 X27.741 Y57.340
G01 F400 X27.739 Y57.316
G01 F400 X27.723 Y57.135
G01 F400 X27.692 Y57.019
G01 F400 X27.670 Y56.937
G01 F400 X27.582 Y56.749
G01 F400 X27.550 Y56.704
G01 F400 X27.465 Y56.581
G01 F400 X27.319 Y56.435
G01 F400 X27.151 Y56.317
G01 F400 X27.011 Y56.253
G01 F400 X26.964 Y56.230
G01 F400 X26.765 Y56.177
G01 F400 X26.560 Y56.159
G01 F400 X26.355 Y56.177
G01 F400 X26.156 Y56.230
G01 F400 X25.970 Y56.317
G01 F400 X25.801 Y56.435
G01 F400 X25.655 Y56.581
G01 F400 X25.537 Y56.750
G01 F400 X25.450 Y56.936
G01 F400 X25.397 Y57.135
G01 F400 X25.379 Y57.340
G01 F400 X25.397 Y57.545
G01 F400 X25.450 Y57.744
G01 F400 X25.537 Y57.931
G01 F400 X25.655 Y58.099
G01 F400 X25.801 Y58.245
G01 F400 X25.946 Y58.346
G01 F400 X25.970 Y58.363
G01 F400 X26.156 Y58.450
G01 F400 X26.355 Y58.503
G01 F400 X26.509 Y58.516
G01 F400 X26.560 Y58.521
G00 Z3.000
G00  X26.463 Y58.260
G01 F750 Z0
G01 F400 Z-0.100
G01 F400 X26.274 Y58.220
G01 F400 X26.098 Y58.141
G01 F400 X25.941 Y58.027
G01 F400 X25.812 Y57.884
G01 F400 X25.715 Y57.716
G01 F400 X25.655 Y57.532
G01 F400 X25.635 Y57.340
G01 F400 X25.655 Y57.148
G01 F400 X25.715 Y56.964
G01 F400 X25.812 Y56.796
G01 F400 X25.941 Y56.653
G01 F400 X26.098 Y56.539
G01 F400 X26.274 Y56.461
G01 F400 X26.463 Y56.420
G01 F400 X26.657 Y56.420
G01 F400 X26.846 Y56.461
G01 F400 X27.022 Y56.539
G01 F400 X27.179 Y56.653
G01 F400 X27.308 Y56.796
G01 F400 X27.405 Y56.964
G01 F400 X27.465 Y57.148
G01 F400 X27.485 Y57.340
G01 F400 X27.465 Y57.532
G01 F400 X27.405 Y57.716
G01 F400 X27.308 Y57.884
G01 F400 X27.179 Y58.027
G01 F400 X27.022 Y58.141
G01 F400 X26.846 Y58.220
G01 F400 X26.657 Y58.260
G01 F400 X26.463 Y58.260
G00 Z3.000
G00  X16.303 Y58.260
G01 F750 Z0
G01 F400 Z-0.100
G01 F400 X16.114 Y58.220
G01 F400 X15.938 Y58.141
G01 F400 X15.781 Y58.027
G01 F400 X15.652 Y57.884
G01 F400 X15.555 Y57.716
G01 F400 X15.495 Y57.532
G01 F400 X15.475 Y57.340
G01 F400 X15.495 Y57.148
G01 F400 X15.555 Y56.964
G01 F400 X15.652 Y56.796
G01 F400 X15.781 Y56.653
G01 F400 X15.938 Y56.539
G01 F400 X16.114 Y56.461
G01 F400 X16.303 Y56.420
G01 F400 X16.497 Y56.420
G01 F400 X16.686 Y56.461
G01 F400 X16.862 Y56.539
G01 F400 X17.019 Y56.653
G01 F400 X17.148 Y56.796
G01 F400 X17.245 Y56.964
G01 F400 X17.305 Y57.148
G01 F400 X17.325 Y57.340
G01 F400 X17.305 Y57.532
G01 F400 X17.245 Y57.716
G01 F400 X17.148 Y57.884
G01 F400 X17.019 Y58.027
G01 F400 X16.862 Y58.141
G01 F400 X16.686 Y58.220
G01 F400 X16.497 Y58.260
G01 F400 X16.303 Y58.260
G00 Z3.000
G00  X88.516 Y58.214
G01 F750 Z0
G01 F400 Z-0.100
G01 F400 X88.516 Y56.866
G01 F400 X90.564 Y56.866
G01 F400 X90.564 Y58.214
G01 F400 X88.516 Y58.214
G00 Z3.000
G00  X61.840 Y58.007
G01 F750 Z0
G01 F400 Z-0.100
G01 F400 X61.753 Y57.989
G01 F400 X61.680 Y57.940
G01 F400 X61.631 Y57.867
G01 F400 X61.614 Y57.780
G01 F400 X61.631 Y57.693
G01 F400 X61.680 Y57.620
G01 F400 X61.753 Y57.571
G01 F400 X61.840 Y57.553
G01 F400 X61.927 Y57.571
G01 F400 X62.000 Y57.620
G01 F400 X62.049 Y57.693
G01 F400 X62.067 Y57.780
G01 F400 X62.049 Y57.867
G01 F400 X62.000 Y57.940
G01 F400 X61.927 Y57.989
G01 F400 X61.840 Y58.007
G00 Z3.000
G00  X43.160 Y57.321
G01 F750 Z0
G01 F400 Z-0.100
G01 F400 X43.206 Y57.317
G01 F400 X43.365 Y57.303
G01 F400 X43.564 Y57.250
G01 F400 X43.751 Y57.163
G01 F400 X43.919 Y57.045
G01 F400 X44.065 Y56.899
G01 F400 X44.183 Y56.730
G01 F400 X44.270 Y56.544
G01 F400 X44.323 Y56.345
G01 F400 X44.341 Y56.140
G01 F400 X44.323 Y55.935
G01 F400 X44.270 Y55.736
G01 F400 X44.183 Y55.550
G01 F400 X44.065 Y55.381
G01 F400 X43.919 Y55.235
G01 F400 X43.751 Y55.117
G01 F400 X43.564 Y55.030
G01 F400 X43.365 Y54.977
G01 F400 X43.160 Y54.959
G01 F400 X42.955 Y54.977
G01 F400 X42.756 Y55.030
G01 F400 X42.570 Y55.117
G01 F400 X42.401 Y55.235
G01 F400 X42.255 Y55.381
G01 F400 X42.137 Y55.550
G01 F400 X42.050 Y55.736
G01 F400 X41.997 Y55.935
G01 F400 X41.979 Y56.140
G01 F400 X41.997 Y56.345
G01 F400 X42.050 Y56.544
G01 F400 X42.137 Y56.730
G01 F400 X42.255 Y56.899
G01 F400 X42.401 Y57.045
G01 F400 X42.570 Y57.163
G01 F400 X42.756 Y57.250
G01 F400 X42.955 Y57.303
G01 F400 X43.106 Y57.316
G01 F400 X43.160 Y57.321
G00 Z3.000
G00  X53.320 Y57.321
G01 F750 Z0
G01 F400 Z-0.100
G01 F400 X53.366 Y57.317
G01 F400 X53.525 Y57.303
G01 F400 X53.724 Y57.250
G01 F400 X53.911 Y57.163
G01 F400 X54.079 Y57.045
G01 F400 X54.225 Y56.899
G01 F400 X54.324 Y56.757
G01 F400 X54.343 Y56.730
G01 F400 X54.430 Y56.544
G01 F400 X54.483 Y56.345
G01 F400 X54.501 Y56.140
G01 F400 X54.483 Y55.935
G01 F400 X54.430 Y55.736
G01 F400 X54.343 Y55.550
G01 F400 X54.225 Y55.381
G01 F400 X54.079 Y55.235
G01 F400 X53.911 Y55.117
G01 F400 X53.724 Y55.030
G01 F400 X53.525 Y54.977
G01 F400 X53.320 Y54.959
G01 F400 X53.115 Y54.977
G01 F400 X52.916 Y55.030
G01 F400 X52.730 Y55.117
G01 F400 X52.561 Y55.235
G01 F400 X52.415 Y55.381
G01 F400 X52.297 Y55.550
G01 F400 X52.210 Y55.736
G01 F400 X52.157 Y55.935
G01 F400 X52.139 Y56.140
G01 F400 X52.157 Y56.345
G01 F400 X52.210 Y56.544
G01 F400 X52.297 Y56.730
G01 F400 X52.415 Y56.899
G01 F400 X52.561 Y57.045
G01 F400 X52.730 Y57.163
G01 F400 X52.916 Y57.250
G01 F400 X53.115 Y57.303
G01 F400 X53.266 Y57.316
G01 F400 X53.320 Y57.321
G00 Z3.000
G00  X53.223 Y57.060
G01 F750 Z0
G01 F400 Z-0.100
G01 F400 X53.034 Y57.020
G01 F400 X52.858 Y56.941
G01 F400 X52.701 Y56.827
G01 F400 X52.572 Y56.684
G01 F400 X52.475 Y56.516
G01 F400 X52.415 Y56.332
G01 F400 X52.395 Y56.140
G01 F400 X52.415 Y55.948
G01 F400 X52.475 Y55.764
G01 F400 X52.572 Y55.596
G01 F400 X52.701 Y55.453
G01 F400 X52.858 Y55.339
G01 F400 X53.034 Y55.261
G01 F400 X53.223 Y55.220
G01 F400 X53.417 Y55.220
G01 F400 X53.606 Y55.261
G01 F400 X53.782 Y55.339
G01 F400 X53.939 Y55.453
G01 F400 X54.068 Y55.596
G01 F400 X54.165 Y55.764
G01 F400 X54.225 Y55.948
G01 F400 X54.245 Y56.140
G01 F400 X54.225 Y56.332
G01 F400 X54.165 Y56.516
G01 F400 X54.068 Y56.684
G01 F400 X53.939 Y56.827
G01 F400 X53.782 Y56.941
G01 F400 X53.606 Y57.020
G01 F400 X53.417 Y57.060
G01 F400 X53.223 Y57.060
G00 Z3.000
G00  X43.063 Y57.060
G01 F750 Z0
G01 F400 Z-0.100
G01 F400 X42.874 Y57.020
G01 F400 X42.698 Y56.941
G01 F400 X42.541 Y56.827
G01 F400 X42.412 Y56.684
G01 F400 X42.315 Y56.516
G01 F400 X42.255 Y56.332
G01 F400 X42.235 Y56.140
G01 F400 X42.255 Y55.948
G01 F400 X42.315 Y55.764
G01 F400 X42.412 Y55.596
G01 F400 X42.541 Y55.453
G01 F400 X42.698 Y55.339
G01 F400 X42.874 Y55.261
G01 F400 X43.063 Y55.220
G01 F400 X43.257 Y55.220
G01 F400 X43.446 Y55.261
G01 F400 X43.622 Y55.339
G01 F400 X43.779 Y55.453
G01 F400 X43.908 Y55.596
G01 F400 X44.005 Y55.764
G01 F400 X44.065 Y55.948
G01 F400 X44.085 Y56.140
G01 F400 X44.065 Y56.332
G01 F400 X44.005 Y56.516
G01 F400 X43.908 Y56.684
G01 F400 X43.779 Y56.827
G01 F400 X43.622 Y56.941
G01 F400 X43.446 Y57.020
G01 F400 X43.257 Y57.060
G01 F400 X43.063 Y57.060
G00 Z3.000
G00  X59.770 Y56.736
G01 F750 Z0
G01 F400 Z-0.100
G01 F400 X59.683 Y56.719
G01 F400 X59.610 Y56.670
G01 F400 X59.561 Y56.597
G01 F400 X59.544 Y56.510
G01 F400 X59.561 Y56.423
G01 F400 X59.610 Y56.350
G01 F400 X59.683 Y56.301
G01 F400 X59.770 Y56.284
G01 F400 X59.857 Y56.301
G01 F400 X59.930 Y56.350
G01 F400 X59.979 Y56.423
G01 F400 X59.997 Y56.510
G01 F400 X59.979 Y56.597
G01 F400 X59.930 Y56.670
G01 F400 X59.857 Y56.719
G01 F400 X59.770 Y56.736
G00 Z3.000
G00  X60.816 Y55.914
G01 F750 Z0
G01 F400 Z-0.100
G01 F400 X60.816 Y54.566
G01 F400 X62.864 Y54.566
G01 F400 X62.864 Y55.914
G01 F400 X60.816 Y55.914
G00 Z3.000
G00  X33.718 Y55.066
G01 F750 Z0
G01 F400 Z-0.100
G01 F400 X35.042 Y55.066
G01 F400 X35.151 Y55.054
G01 F400 X35.289 Y55.006
G01 F400 X35.413 Y54.928
G01 F400 X35.518 Y54.824
G01 F400 X35.596 Y54.699
G01 F400 X35.644 Y54.561
G01 F400 X35.656 Y54.452
G01 F400 X35.656 Y53.828
G01 F400 X35.644 Y53.719
G01 F400 X35.596 Y53.581
G01 F400 X35.518 Y53.457
G01 F400 X35.413 Y53.352
G01 F400 X35.317 Y53.292
G01 F400 X35.289 Y53.274
G01 F400 X35.151 Y53.226
G01 F400 X35.042 Y53.214
G01 F400 X33.821 Y53.214
G01 F400 X33.726 Y53.193
G01 F400 X33.621 Y53.102
G01 F400 X33.586 Y52.983
G01 F400 X33.586 Y52.761
G01 F400 X33.602 Y52.689
G01 F400 X33.691 Y52.563
G01 F400 X33.817 Y52.526
G01 F400 X35.321 Y52.526
G01 F400 X35.359 Y52.522
G01 F400 X35.462 Y52.484
G01 F400 X35.549 Y52.419
G01 F400 X35.614 Y52.333
G01 F400 X35.652 Y52.229
G01 F400 X35.656 Y52.191
G01 F400 X35.656 Y51.009
G01 F400 X35.652 Y50.971
G01 F400 X35.614 Y50.867
G01 F400 X35.549 Y50.781
G01 F400 X35.462 Y50.716
G01 F400 X35.359 Y50.678
G01 F400 X35.321 Y50.674
G01 F400 X33.439 Y50.674
G01 F400 X33.401 Y50.678
G01 F400 X33.297 Y50.716
G01 F400 X33.211 Y50.781
G01 F400 X33.146 Y50.867
G01 F400 X33.108 Y50.971
G01 F400 X33.104 Y51.009
G01 F400 X33.104 Y51.709
G01 F400 X33.083 Y51.804
G01 F400 X32.992 Y51.909
G01 F400 X32.873 Y51.944
G01 F400 X31.648 Y51.944
G01 F400 X31.539 Y51.956
G01 F400 X31.401 Y52.004
G01 F400 X31.277 Y52.082
G01 F400 X31.172 Y52.187
G01 F400 X31.094 Y52.311
G01 F400 X31.046 Y52.449
G01 F400 X31.034 Y52.558
G01 F400 X31.034 Y53.182
G01 F400 X31.046 Y53.291
G01 F400 X31.094 Y53.429
G01 F400 X31.172 Y53.553
G01 F400 X31.277 Y53.658
G01 F400 X31.401 Y53.736
G01 F400 X31.539 Y53.784
G01 F400 X31.567 Y53.787
G01 F400 X31.648 Y53.796
G01 F400 X32.869 Y53.796
G01 F400 X32.964 Y53.817
G01 F400 X33.069 Y53.908
G01 F400 X33.104 Y54.027
G01 F400 X33.104 Y54.452
G01 F400 X33.116 Y54.561
G01 F400 X33.164 Y54.699
G01 F400 X33.242 Y54.824
G01 F400 X33.346 Y54.928
G01 F400 X33.471 Y55.006
G01 F400 X33.609 Y55.054
G01 F400 X33.637 Y55.057
G01 F400 X33.718 Y55.066
G00 Z3.000
G00  X34.380 Y54.367
G01 F750 Z0
G01 F400 Z-0.100
G01 F400 X34.293 Y54.349
G01 F400 X34.220 Y54.300
G01 F400 X34.171 Y54.227
G01 F400 X34.154 Y54.140
G01 F400 X34.171 Y54.053
G01 F400 X34.220 Y53.980
G01 F400 X34.293 Y53.931
G01 F400 X34.380 Y53.913
G01 F400 X34.467 Y53.931
G01 F400 X34.540 Y53.980
G01 F400 X34.589 Y54.053
G01 F400 X34.607 Y54.140
G01 F400 X34.589 Y54.227
G01 F400 X34.540 Y54.300
G01 F400 X34.467 Y54.349
G01 F400 X34.380 Y54.367
G00 Z3.000
G00  X71.560 Y53.921
G01 F750 Z0
G01 F400 Z-0.100
G01 F400 X71.606 Y53.917
G01 F400 X71.765 Y53.903
G01 F400 X71.964 Y53.850
G01 F400 X72.151 Y53.763
G01 F400 X72.319 Y53.645
G01 F400 X72.465 Y53.499
G01 F400 X72.583 Y53.331
G01 F400 X72.670 Y53.144
G01 F400 X72.723 Y52.945
G01 F400 X72.741 Y52.740
G01 F400 X72.723 Y52.535
G01 F400 X72.683 Y52.386
G01 F400 X72.675 Y52.355
G01 F400 X72.582 Y52.149
G01 F400 X72.523 Y52.064
G01 F400 X72.465 Y51.981
G01 F400 X72.319 Y51.835
G01 F400 X72.151 Y51.717
G01 F400 X71.964 Y51.630
G01 F400 X71.765 Y51.577
G01 F400 X71.560 Y51.559
G01 F400 X71.355 Y51.577
G01 F400 X71.156 Y51.630
G01 F400 X70.969 Y51.717
G01 F400 X70.801 Y51.835
G01 F400 X70.655 Y51.981
G01 F400 X70.537 Y52.150
G01 F400 X70.450 Y52.336
G01 F400 X70.397 Y52.535
G01 F400 X70.379 Y52.740
G01 F400 X70.397 Y52.945
G01 F400 X70.450 Y53.144
G01 F400 X70.537 Y53.331
G01 F400 X70.655 Y53.499
G01 F400 X70.801 Y53.645
G01 F400 X70.908 Y53.720
G01 F400 X70.969 Y53.763
G01 F400 X71.156 Y53.850
G01 F400 X71.355 Y53.903
G01 F400 X71.506 Y53.916
G01 F400 X71.560 Y53.921
G00 Z3.000
G00  X81.720 Y53.921
G01 F750 Z0
G01 F400 Z-0.100
G01 F400 X81.766 Y53.917
G01 F400 X81.925 Y53.903
G01 F400 X82.124 Y53.850
G01 F400 X82.311 Y53.763
G01 F400 X82.479 Y53.645
G01 F400 X82.625 Y53.499
G01 F400 X82.743 Y53.331
G01 F400 X82.830 Y53.144
G01 F400 X82.883 Y52.945
G01 F400 X82.901 Y52.740
G01 F400 X82.883 Y52.535
G01 F400 X82.843 Y52.386
G01 F400 X82.835 Y52.355
G01 F400 X82.742 Y52.149
G01 F400 X82.729 Y52.130
G01 F400 X82.683 Y52.064
G01 F400 X82.625 Y51.981
G01 F400 X82.479 Y51.835
G01 F400 X82.311 Y51.717
G01 F400 X82.124 Y51.630
G01 F400 X81.925 Y51.577
G01 F400 X81.720 Y51.559
G01 F400 X81.515 Y51.577
G01 F400 X81.316 Y51.630
G01 F400 X81.130 Y51.717
G01 F400 X80.961 Y51.835
G01 F400 X80.815 Y51.981
G01 F400 X80.697 Y52.150
G01 F400 X80.610 Y52.336
G01 F400 X80.557 Y52.535
G01 F400 X80.539 Y52.740
G01 F400 X80.557 Y52.945
G01 F400 X80.610 Y53.144
G01 F400 X80.697 Y53.331
G01 F400 X80.815 Y53.499
G01 F400 X80.961 Y53.645
G01 F400 X81.068 Y53.720
G01 F400 X81.130 Y53.763
G01 F400 X81.316 Y53.850
G01 F400 X81.515 Y53.903
G01 F400 X81.666 Y53.916
G01 F400 X81.720 Y53.921
G00 Z3.000
G00  X16.400 Y53.721
G01 F750 Z0
G01 F400 Z-0.100
G01 F400 X16.446 Y53.717
G01 F400 X16.605 Y53.703
G01 F400 X16.804 Y53.650
G01 F400 X16.991 Y53.563
G01 F400 X17.159 Y53.445
G01 F400 X17.305 Y53.299
G01 F400 X17.423 Y53.131
G01 F400 X17.510 Y52.944
G01 F400 X17.563 Y52.745
G01 F400 X17.574 Y52.614
G01 F400 X17.581 Y52.540
G01 F400 X17.579 Y52.512
G01 F400 X17.563 Y52.335
G01 F400 X17.510 Y52.136
G01 F400 X17.423 Y51.950
G01 F400 X17.392 Y51.905
G01 F400 X17.305 Y51.781
G01 F400 X17.159 Y51.635
G01 F400 X16.991 Y51.517
G01 F400 X16.804 Y51.430
G01 F400 X16.605 Y51.377
G01 F400 X16.400 Y51.359
G01 F400 X16.195 Y51.377
G01 F400 X15.996 Y51.430
G01 F400 X15.809 Y51.517
G01 F400 X15.641 Y51.635
G01 F400 X15.495 Y51.781
G01 F400 X15.377 Y51.950
G01 F400 X15.290 Y52.136
G01 F400 X15.237 Y52.335
G01 F400 X15.219 Y52.540
G01 F400 X15.237 Y52.745
G01 F400 X15.290 Y52.944
G01 F400 X15.377 Y53.131
G01 F400 X15.495 Y53.299
G01 F400 X15.641 Y53.445
G01 F400 X15.809 Y53.563
G01 F400 X15.996 Y53.650
G01 F400 X16.195 Y53.703
G01 F400 X16.346 Y53.716
G01 F400 X16.400 Y53.721
G00 Z3.000
G00  X26.560 Y53.721
G01 F750 Z0
G01 F400 Z-0.100
G01 F400 X26.606 Y53.717
G01 F400 X26.765 Y53.703
G01 F400 X26.964 Y53.650
G01 F400 X27.151 Y53.563
G01 F400 X27.319 Y53.445
G01 F400 X27.465 Y53.299
G01 F400 X27.583 Y53.131
G01 F400 X27.670 Y52.944
G01 F400 X27.723 Y52.745
G01 F400 X27.734 Y52.614
G01 F400 X27.741 Y52.540
G01 F400 X27.739 Y52.512
G01 F400 X27.723 Y52.335
G01 F400 X27.670 Y52.136
G01 F400 X27.583 Y51.950
G01 F400 X27.552 Y51.905
G01 F400 X27.465 Y51.781
G01 F400 X27.319 Y51.635
G01 F400 X27.151 Y51.517
G01 F400 X26.964 Y51.430
G01 F400 X26.765 Y51.377
G01 F400 X26.560 Y51.359
G01 F400 X26.355 Y51.377
G01 F400 X26.156 Y51.430
G01 F400 X25.970 Y51.517
G01 F400 X25.801 Y51.635
G01 F400 X25.655 Y51.781
G01 F400 X25.537 Y51.950
G01 F400 X25.450 Y52.136
G01 F400 X25.397 Y52.335
G01 F400 X25.379 Y52.540
G01 F400 X25.397 Y52.745
G01 F400 X25.450 Y52.944
G01 F400 X25.537 Y53.131
G01 F400 X25.655 Y53.299
G01 F400 X25.801 Y53.445
G01 F400 X25.970 Y53.563
G01 F400 X26.156 Y53.650
G01 F400 X26.355 Y53.703
G01 F400 X26.506 Y53.716
G01 F400 X26.560 Y53.721
G00 Z3.000
G00  X71.463 Y53.660
G01 F750 Z0
G01 F400 Z-0.100
G01 F400 X71.274 Y53.620
G01 F400 X71.098 Y53.541
G01 F400 X70.941 Y53.427
G01 F400 X70.812 Y53.284
G01 F400 X70.715 Y53.116
G01 F400 X70.655 Y52.932
G01 F400 X70.635 Y52.740
G01 F400 X70.655 Y52.548
G01 F400 X70.715 Y52.364
G01 F400 X70.812 Y52.196
G01 F400 X70.941 Y52.053
G01 F400 X71.098 Y51.939
G01 F400 X71.274 Y51.861
G01 F400 X71.463 Y51.820
G01 F400 X71.657 Y51.820
G01 F400 X71.846 Y51.861
G01 F400 X72.022 Y51.939
G01 F400 X72.179 Y52.053
G01 F400 X72.308 Y52.196
G01 F400 X72.405 Y52.364
G01 F400 X72.465 Y52.548
G01 F400 X72.485 Y52.740
G01 F400 X72.465 Y52.932
G01 F400 X72.405 Y53.116
G01 F400 X72.308 Y53.284
G01 F400 X72.179 Y53.427
G01 F400 X72.022 Y53.541
G01 F400 X71.846 Y53.620
G01 F400 X71.657 Y53.660
G01 F400 X71.463 Y53.660
G00 Z3.000
G00  X81.623 Y53.660
G01 F750 Z0
G01 F400 Z-0.100
G01 F400 X81.434 Y53.620
G01 F400 X81.258 Y53.541
G01 F400 X81.101 Y53.427
G01 F400 X80.972 Y53.284
G01 F400 X80.875 Y53.116
G01 F400 X80.815 Y52.932
G01 F400 X80.795 Y52.740
G01 F400 X80.815 Y52.548
G01 F400 X80.875 Y52.364
G01 F400 X80.972 Y52.196
G01 F400 X81.101 Y52.053
G01 F400 X81.258 Y51.939
G01 F400 X81.434 Y51.861
G01 F400 X81.623 Y51.820
G01 F400 X81.817 Y51.820
G01 F400 X82.006 Y51.861
G01 F400 X82.182 Y51.939
G01 F400 X82.339 Y52.053
G01 F400 X82.468 Y52.196
G01 F400 X82.565 Y52.364
G01 F400 X82.625 Y52.548
G01 F400 X82.645 Y52.740
G01 F400 X82.625 Y52.932
G01 F400 X82.565 Y53.116
G01 F400 X82.468 Y53.284
G01 F400 X82.339 Y53.427
G01 F400 X82.182 Y53.541
G01 F400 X82.006 Y53.620
G01 F400 X81.817 Y53.660
G01 F400 X81.623 Y53.660
G00 Z3.000
G00  X26.463 Y53.460
G01 F750 Z0
G01 F400 Z-0.100
G01 F400 X26.274 Y53.419
G01 F400 X26.098 Y53.341
G01 F400 X25.941 Y53.227
G01 F400 X25.812 Y53.084
G01 F400 X25.715 Y52.916
G01 F400 X25.655 Y52.732
G01 F400 X25.635 Y52.540
G01 F400 X25.655 Y52.348
G01 F400 X25.715 Y52.164
G01 F400 X25.812 Y51.996
G01 F400 X25.941 Y51.853
G01 F400 X26.098 Y51.739
G01 F400 X26.274 Y51.660
G01 F400 X26.463 Y51.620
G01 F400 X26.657 Y51.620
G01 F400 X26.846 Y51.660
G01 F400 X27.022 Y51.739
G01 F400 X27.179 Y51.853
G01 F400 X27.308 Y51.996
G01 F400 X27.405 Y52.164
G01 F400 X27.465 Y52.348
G01 F400 X27.485 Y52.540
G01 F400 X27.465 Y52.732
G01 F400 X27.405 Y52.916
G01 F400 X27.308 Y53.084
G01 F400 X27.179 Y53.227
G01 F400 X27.022 Y53.341
G01 F400 X26.846 Y53.419
G01 F400 X26.657 Y53.460
G01 F400 X26.463 Y53.460
G00 Z3.000
G00  X16.303 Y53.460
G01 F750 Z0
G01 F400 Z-0.100
G01 F400 X16.114 Y53.419
G01 F400 X15.938 Y53.341
G01 F400 X15.781 Y53.227
G01 F400 X15.652 Y53.084
G01 F400 X15.555 Y52.916
G01 F400 X15.495 Y52.732
G01 F400 X15.475 Y52.540
G01 F400 X15.495 Y52.348
G01 F400 X15.555 Y52.164
G01 F400 X15.652 Y51.996
G01 F400 X15.781 Y51.853
G01 F400 X15.938 Y51.739
G01 F400 X16.114 Y51.660
G01 F400 X16.303 Y51.620
G01 F400 X16.497 Y51.620
G01 F400 X16.686 Y51.660
G01 F400 X16.862 Y51.739
G01 F400 X17.019 Y51.853
G01 F400 X17.148 Y51.996
G01 F400 X17.245 Y52.164
G01 F400 X17.305 Y52.348
G01 F400 X17.325 Y52.540
G01 F400 X17.305 Y52.732
G01 F400 X17.245 Y52.916
G01 F400 X17.148 Y53.084
G01 F400 X17.019 Y53.227
G01 F400 X16.862 Y53.341
G01 F400 X16.686 Y53.419
G01 F400 X16.497 Y53.460
G01 F400 X16.303 Y53.460
G00 Z3.000
G00  X32.310 Y53.097
G01 F750 Z0
G01 F400 Z-0.100
G01 F400 X32.223 Y53.079
G01 F400 X32.150 Y53.030
G01 F400 X32.101 Y52.957
G01 F400 X32.084 Y52.870
G01 F400 X32.101 Y52.783
G01 F400 X32.150 Y52.710
G01 F400 X32.223 Y52.661
G01 F400 X32.310 Y52.644
G01 F400 X32.397 Y52.661
G01 F400 X32.470 Y52.710
G01 F400 X32.519 Y52.783
G01 F400 X32.537 Y52.870
G01 F400 X32.519 Y52.957
G01 F400 X32.470 Y53.030
G01 F400 X32.397 Y53.079
G01 F400 X32.310 Y53.097
G00 Z3.000
G00  X86.778 Y52.666
G01 F750 Z0
G01 F400 Z-0.100
G01 F400 X88.102 Y52.666
G01 F400 X88.211 Y52.654
G01 F400 X88.349 Y52.606
G01 F400 X88.474 Y52.528
G01 F400 X88.578 Y52.424
G01 F400 X88.656 Y52.299
G01 F400 X88.704 Y52.161
G01 F400 X88.714 Y52.073
G01 F400 X88.716 Y52.052
G01 F400 X88.716 Y51.631
G01 F400 X88.737 Y51.536
G01 F400 X88.828 Y51.431
G01 F400 X88.947 Y51.396
G01 F400 X90.451 Y51.396
G01 F400 X90.489 Y51.392
G01 F400 X90.593 Y51.354
G01 F400 X90.679 Y51.289
G01 F400 X90.744 Y51.203
G01 F400 X90.782 Y51.099
G01 F400 X90.786 Y51.061
G01 F400 X90.786 Y49.879
G01 F400 X90.782 Y49.842
G01 F400 X90.744 Y49.738
G01 F400 X90.679 Y49.651
G01 F400 X90.593 Y49.586
G01 F400 X90.489 Y49.548
G01 F400 X90.451 Y49.544
G01 F400 X88.569 Y49.544
G01 F400 X88.531 Y49.548
G01 F400 X88.428 Y49.586
G01 F400 X88.341 Y49.651
G01 F400 X88.276 Y49.738
G01 F400 X88.238 Y49.841
G01 F400 X88.234 Y49.879
G01 F400 X88.234 Y50.579
G01 F400 X88.213 Y50.674
G01 F400 X88.123 Y50.779
G01 F400 X88.003 Y50.814
G01 F400 X86.778 Y50.814
G01 F400 X86.669 Y50.826
G01 F400 X86.531 Y50.874
G01 F400 X86.407 Y50.952
G01 F400 X86.302 Y51.056
G01 F400 X86.224 Y51.181
G01 F400 X86.176 Y51.319
G01 F400 X86.164 Y51.428
G01 F400 X86.164 Y52.052
G01 F400 X86.176 Y52.161
G01 F400 X86.224 Y52.299
G01 F400 X86.241 Y52.326
G01 F400 X86.302 Y52.424
G01 F400 X86.407 Y52.528
G01 F400 X86.531 Y52.606
G01 F400 X86.669 Y52.654
G01 F400 X86.697 Y52.657
G01 F400 X86.778 Y52.666
G00 Z3.000
G00  X43.060 Y52.521
G01 F750 Z0
G01 F400 Z-0.100
G01 F400 X43.106 Y52.517
G01 F400 X43.265 Y52.503
G01 F400 X43.464 Y52.450
G01 F400 X43.651 Y52.363
G01 F400 X43.819 Y52.245
G01 F400 X43.965 Y52.099
G01 F400 X44.083 Y51.931
G01 F400 X44.170 Y51.744
G01 F400 X44.223 Y51.545
G01 F400 X44.241 Y51.340
G01 F400 X44.223 Y51.135
G01 F400 X44.170 Y50.936
G01 F400 X44.083 Y50.750
G01 F400 X44.060 Y50.717
G01 F400 X43.965 Y50.581
G01 F400 X43.819 Y50.435
G01 F400 X43.651 Y50.317
G01 F400 X43.464 Y50.230
G01 F400 X43.265 Y50.177
G01 F400 X43.060 Y50.159
G01 F400 X42.855 Y50.177
G01 F400 X42.656 Y50.230
G01 F400 X42.470 Y50.317
G01 F400 X42.301 Y50.435
G01 F400 X42.155 Y50.581
G01 F400 X42.037 Y50.750
G01 F400 X41.950 Y50.936
G01 F400 X41.897 Y51.135
G01 F400 X41.879 Y51.340
G01 F400 X41.897 Y51.545
G01 F400 X41.950 Y51.744
G01 F400 X42.037 Y51.931
G01 F400 X42.155 Y52.099
G01 F400 X42.301 Y52.245
G01 F400 X42.470 Y52.363
G01 F400 X42.656 Y52.450
G01 F400 X42.855 Y52.503
G01 F400 X43.006 Y52.516
G01 F400 X43.060 Y52.521
G00 Z3.000
G00  X53.220 Y52.521
G01 F750 Z0
G01 F400 Z-0.100
G01 F400 X53.266 Y52.517
G01 F400 X53.425 Y52.503
G01 F400 X53.624 Y52.450
G01 F400 X53.811 Y52.363
G01 F400 X53.979 Y52.245
G01 F400 X54.125 Y52.099
G01 F400 X54.243 Y51.931
G01 F400 X54.330 Y51.744
G01 F400 X54.383 Y51.545
G01 F400 X54.401 Y51.340
G01 F400 X54.383 Y51.135
G01 F400 X54.330 Y50.936
G01 F400 X54.243 Y50.750
G01 F400 X54.220 Y50.717
G01 F400 X54.125 Y50.581
G01 F400 X53.979 Y50.435
G01 F400 X53.811 Y50.317
G01 F400 X53.624 Y50.230
G01 F400 X53.425 Y50.177
G01 F400 X53.220 Y50.159
G01 F400 X53.015 Y50.177
G01 F400 X52.816 Y50.230
G01 F400 X52.630 Y50.317
G01 F400 X52.461 Y50.435
G01 F400 X52.315 Y50.581
G01 F400 X52.197 Y50.750
G01 F400 X52.110 Y50.936
G01 F400 X52.057 Y51.135
G01 F400 X52.039 Y51.340
G01 F400 X52.057 Y51.545
G01 F400 X52.110 Y51.744
G01 F400 X52.197 Y51.931
G01 F400 X52.315 Y52.099
G01 F400 X52.461 Y52.245
G01 F400 X52.630 Y52.363
G01 F400 X52.816 Y52.450
G01 F400 X53.015 Y52.503
G01 F400 X53.166 Y52.516
G01 F400 X53.220 Y52.521
G00 Z3.000
G00  X33.356 Y52.274
G01 F750 Z0
G01 F400 Z-0.100
G01 F400 X33.356 Y50.926
G01 F400 X35.404 Y50.926
G01 F400 X35.404 Y52.274
G01 F400 X33.356 Y52.274
G00 Z3.000
G00  X66.918 Y52.266
G01 F750 Z0
G01 F400 Z-0.100
G01 F400 X67.162 Y52.266
G01 F400 X67.403 Y52.230
G01 F400 X67.636 Y52.158
G01 F400 X67.856 Y52.052
G01 F400 X68.057 Y51.915
G01 F400 X68.180 Y51.801
G01 F400 X68.236 Y51.749
G01 F400 X68.387 Y51.559
G01 F400 X68.510 Y51.348
G01 F400 X68.598 Y51.121
G01 F400 X68.653 Y50.883
G01 F400 X68.671 Y50.640
G01 F400 X68.660 Y50.495
G01 F400 X68.653 Y50.397
G01 F400 X68.598 Y50.159
G01 F400 X68.509 Y49.932
G01 F400 X68.387 Y49.721
G01 F400 X68.236 Y49.531
G01 F400 X68.121 Y49.425
G01 F400 X68.057 Y49.365
G01 F400 X67.856 Y49.228
G01 F400 X67.691 Y49.149
G01 F400 X67.601 Y49.069
G01 F400 X67.566 Y48.950
G01 F400 X67.566 Y43.046
G01 F400 X67.597 Y42.932
G01 F400 X67.701 Y42.836
G01 F400 X67.817 Y42.815
G01 F400 X70.731 Y42.816
G01 F400 X70.769 Y42.812
G01 F400 X70.873 Y42.774
G01 F400 X70.959 Y42.709
G01 F400 X71.024 Y42.623
G01 F400 X71.062 Y42.519
G01 F400 X71.066 Y42.481
G01 F400 X71.066 Y39.599
G01 F400 X71.062 Y39.561
G01 F400 X71.024 Y39.458
G01 F400 X70.959 Y39.371
G01 F400 X70.873 Y39.306
G01 F400 X70.769 Y39.268
G01 F400 X70.731 Y39.264
G01 F400 X67.835 Y39.264
G01 F400 X67.711 Y39.250
G01 F400 X67.601 Y39.155
G01 F400 X67.566 Y39.036
G01 F400 X67.566 Y36.752
G01 F400 X67.539 Y36.576
G01 F400 X67.484 Y36.408
G01 F400 X67.453 Y36.347
G01 F400 X67.404 Y36.250
G01 F400 X67.299 Y36.106
G01 F400 X65.521 Y34.328
G01 F400 X64.874 Y33.681
G01 F400 X64.730 Y33.576
G01 F400 X64.572 Y33.496
G01 F400 X64.404 Y33.441
G01 F400 X64.228 Y33.414
G01 F400 X45.991 Y33.414
G01 F400 X45.863 Y33.363
G01 F400 X45.757 Y33.265
G01 F400 X45.556 Y33.128
G01 F400 X45.336 Y33.022
G01 F400 X45.103 Y32.950
G01 F400 X44.987 Y32.933
G01 F400 X44.862 Y32.914
G01 F400 X44.618 Y32.914
G01 F400 X44.466 Y32.937
G01 F400 X44.377 Y32.950
G01 F400 X44.144 Y33.022
G01 F400 X43.925 Y33.128
G01 F400 X43.723 Y33.265
G01 F400 X43.544 Y33.431
G01 F400 X43.393 Y33.621
G01 F400 X43.271 Y33.832
G01 F400 X43.240 Y33.910
G01 F400 X43.178 Y33.998
G01 F400 X43.051 Y34.056
G01 F400 X42.909 Y34.036
G01 F400 X42.801 Y33.943
G01 F400 X42.766 Y33.824
G01 F400 X42.766 Y28.514
G01 F400 X42.775 Y28.448
G01 F400 X42.823 Y28.368
G01 F400 X42.987 Y28.159
G01 F400 X43.109 Y27.948
G01 F400 X43.198 Y27.721
G01 F400 X43.228 Y27.592
G01 F400 X43.253 Y27.483
G01 F400 X43.271 Y27.240
G01 F400 X43.253 Y26.997
G01 F400 X43.217 Y26.842
G01 F400 X43.200 Y26.765
G01 F400 X43.109 Y26.532
G01 F400 X42.987 Y26.321
G01 F400 X42.917 Y26.232
G01 F400 X42.836 Y26.131
G01 F400 X42.728 Y26.031
G01 F400 X42.703 Y26.008
G01 F400 X42.657 Y25.965
G01 F400 X42.456 Y25.828
G01 F400 X42.236 Y25.722
G01 F400 X42.003 Y25.650
G01 F400 X41.887 Y25.633
G01 F400 X41.762 Y25.614
G01 F400 X41.518 Y25.614
G01 F400 X41.366 Y25.637
G01 F400 X41.277 Y25.650
G01 F400 X41.044 Y25.722
G01 F400 X40.825 Y25.828
G01 F400 X40.623 Y25.965
G01 F400 X40.444 Y26.131
G01 F400 X40.293 Y26.321
G01 F400 X40.171 Y26.532
G01 F400 X40.082 Y26.759
G01 F400 X40.027 Y26.997
G01 F400 X40.009 Y27.240
G01 F400 X40.027 Y27.483
G01 F400 X40.082 Y27.721
G01 F400 X40.092 Y27.748
G01 F400 X40.171 Y27.948
G01 F400 X40.293 Y28.159
G01 F400 X40.450 Y28.356
G01 F400 X40.482 Y28.396
G01 F400 X40.514 Y28.504
G01 F400 X40.514 Y33.277
G01 F400 X40.507 Y33.335
G01 F400 X40.454 Y33.434
G01 F400 X36.041 Y37.846
G01 F400 X35.996 Y37.882
G01 F400 X35.889 Y37.914
G01 F400 X26.452 Y37.914
G01 F400 X26.276 Y37.941
G01 F400 X26.225 Y37.958
G01 F400 X26.169 Y37.976
G01 F400 X26.108 Y37.996
G01 F400 X25.950 Y38.076
G01 F400 X25.806 Y38.181
G01 F400 X19.841 Y44.146
G01 F400 X19.796 Y44.182
G01 F400 X19.689 Y44.214
G01 F400 X17.446 Y44.214
G01 F400 X17.344 Y44.189
G01 F400 X17.243 Y44.094
G01 F400 X17.208 Y43.956
G01 F400 X17.248 Y43.838
G01 F400 X17.323 Y43.730
G01 F400 X17.410 Y43.544
G01 F400 X17.463 Y43.345
G01 F400 X17.481 Y43.140
G01 F400 X17.463 Y42.935
G01 F400 X17.410 Y42.736
G01 F400 X17.323 Y42.550
G01 F400 X17.205 Y42.381
G01 F400 X17.059 Y42.235
G01 F400 X16.890 Y42.117
G01 F400 X16.704 Y42.030
G01 F400 X16.505 Y41.977
G01 F400 X16.300 Y41.959
G01 F400 X16.095 Y41.977
G01 F400 X15.896 Y42.030
G01 F400 X15.710 Y42.117
G01 F400 X15.541 Y42.235
G01 F400 X15.395 Y42.381
G01 F400 X15.277 Y42.550
G01 F400 X15.190 Y42.736
G01 F400 X15.137 Y42.935
G01 F400 X15.119 Y43.140
G01 F400 X15.137 Y43.345
G01 F400 X15.190 Y43.544
G01 F400 X15.277 Y43.730
G01 F400 X15.351 Y43.835
G01 F400 X15.389 Y43.933
G01 F400 X15.370 Y44.071
G01 F400 X15.276 Y44.179
G01 F400 X15.157 Y44.214
G01 F400 X9.385 Y44.214
G01 F400 X9.281 Y44.189
G01 F400 X9.194 Y44.105
G01 F400 X9.087 Y43.921
G01 F400 X8.936 Y43.731
G01 F400 X8.757 Y43.565
G01 F400 X8.556 Y43.428
G01 F400 X8.336 Y43.322
G01 F400 X8.310 Y43.314
G01 F400 X8.103 Y43.250
G01 F400 X7.987 Y43.233
G01 F400 X7.862 Y43.214
G01 F400 X7.618 Y43.214
G01 F400 X7.466 Y43.237
G01 F400 X7.377 Y43.250
G01 F400 X7.144 Y43.322
G01 F400 X6.925 Y43.428
G01 F400 X6.723 Y43.565
G01 F400 X6.544 Y43.731
G01 F400 X6.393 Y43.921
G01 F400 X6.271 Y44.132
G01 F400 X6.182 Y44.359
G01 F400 X6.127 Y44.597
G01 F400 X6.109 Y44.840
G01 F400 X6.127 Y45.083
G01 F400 X6.182 Y45.321
G01 F400 X6.271 Y45.548
G01 F400 X6.313 Y45.622
G01 F400 X6.393 Y45.759
G01 F400 X6.544 Y45.949
G01 F400 X6.723 Y46.115
G01 F400 X6.925 Y46.252
G01 F400 X7.144 Y46.358
G01 F400 X7.377 Y46.430
G01 F400 X7.618 Y46.466
G01 F400 X7.862 Y46.466
G01 F400 X8.033 Y46.441
G01 F400 X8.090 Y46.441
G01 F400 X8.252 Y46.466
G01 F400 X15.331 Y46.466
G01 F400 X15.461 Y46.510
G01 F400 X15.548 Y46.626
G01 F400 X15.559 Y46.768
G01 F400 X15.508 Y46.861
G01 F400 X15.378 Y47.049
G01 F400 X15.290 Y47.236
G01 F400 X15.237 Y47.435
G01 F400 X15.219 Y47.640
G01 F400 X15.237 Y47.845
G01 F400 X15.290 Y48.044
G01 F400 X15.377 Y48.230
G01 F400 X15.495 Y48.399
G01 F400 X15.641 Y48.545
G01 F400 X15.809 Y48.663
G01 F400 X15.996 Y48.750
G01 F400 X16.195 Y48.803
G01 F400 X16.346 Y48.816
G01 F400 X16.400 Y48.821
G01 F400 X16.446 Y48.817
G01 F400 X16.605 Y48.803
G01 F400 X16.804 Y48.750
G01 F400 X16.991 Y48.663
G01 F400 X17.159 Y48.545
G01 F400 X17.305 Y48.399
G01 F400 X17.423 Y48.230
G01 F400 X17.510 Y48.044
G01 F400 X17.563 Y47.845
G01 F400 X17.581 Y47.640
G01 F400 X17.563 Y47.435
G01 F400 X17.510 Y47.236
G01 F400 X17.423 Y47.050
G01 F400 X17.293 Y46.864
G01 F400 X17.238 Y46.752
G01 F400 X17.259 Y46.609
G01 F400 X17.352 Y46.501
G01 F400 X17.471 Y46.466
G01 F400 X20.329 Y46.466
G01 F400 X20.491 Y46.441
G01 F400 X20.673 Y46.384
G01 F400 X20.830 Y46.304
G01 F400 X20.974 Y46.199
G01 F400 X26.939 Y40.234
G01 F400 X26.984 Y40.198
G01 F400 X27.091 Y40.166
G01 F400 X36.529 Y40.166
G01 F400 X36.704 Y40.139
G01 F400 X36.872 Y40.084
G01 F400 X37.030 Y40.004
G01 F400 X37.174 Y39.899
G01 F400 X42.499 Y34.574
G01 F400 X42.577 Y34.467
G01 F400 X42.604 Y34.430
G01 F400 X42.652 Y34.336
G01 F400 X42.718 Y34.257
G01 F400 X42.849 Y34.208
G01 F400 X42.988 Y34.239
G01 F400 X43.089 Y34.340
G01 F400 X43.115 Y34.462
G01 F400 X43.109 Y34.540
G01 F400 X43.127 Y34.783
G01 F400 X43.182 Y35.021
G01 F400 X43.271 Y35.248
G01 F400 X43.315 Y35.325
G01 F400 X43.393 Y35.459
G01 F400 X43.544 Y35.649
G01 F400 X43.723 Y35.815
G01 F400 X43.925 Y35.952
G01 F400 X44.144 Y36.058
G01 F400 X44.377 Y36.130
G01 F400 X44.618 Y36.166
G01 F400 X44.862 Y36.166
G01 F400 X45.103 Y36.130
G01 F400 X45.336 Y36.058
G01 F400 X45.556 Y35.952
G01 F400 X45.757 Y35.815
G01 F400 X45.846 Y35.733
G01 F400 X45.889 Y35.698
G01 F400 X45.997 Y35.666
G01 F400 X63.577 Y35.666
G01 F400 X63.635 Y35.673
G01 F400 X63.734 Y35.727
G01 F400 X65.246 Y37.239
G01 F400 X65.282 Y37.284
G01 F400 X65.314 Y37.392
G01 F400 X65.314 Y38.957
G01 F400 X65.286 Y39.064
G01 F400 X65.187 Y39.163
G01 F400 X65.047 Y39.194
G01 F400 X64.931 Y39.150
G01 F400 X64.872 Y39.106
G01 F400 X64.769 Y39.068
G01 F400 X64.731 Y39.064
G01 F400 X61.849 Y39.064
G01 F400 X61.811 Y39.068
G01 F400 X61.708 Y39.106
G01 F400 X61.621 Y39.171
G01 F400 X61.556 Y39.258
G01 F400 X61.518 Y39.361
G01 F400 X61.514 Y39.399
G01 F400 X61.514 Y42.281
G01 F400 X61.518 Y42.319
G01 F400 X61.556 Y42.422
G01 F400 X61.621 Y42.509
G01 F400 X61.708 Y42.574
G01 F400 X61.811 Y42.612
G01 F400 X61.849 Y42.616
G01 F400 X64.731 Y42.616
G01 F400 X64.769 Y42.612
G01 F400 X64.872 Y42.574
G01 F400 X64.929 Y42.531
G01 F400 X65.032 Y42.489
G01 F400 X65.171 Y42.509
G01 F400 X65.279 Y42.602
G01 F400 X65.314 Y42.721
G01 F400 X65.314 Y50.129
G01 F400 X65.341 Y50.304
G01 F400 X65.388 Y50.447
G01 F400 X65.404 Y50.497
G01 F400 X65.414 Y50.571
G01 F400 X65.409 Y50.640
G01 F400 X65.427 Y50.883
G01 F400 X65.482 Y51.121
G01 F400 X65.571 Y51.348
G01 F400 X65.693 Y51.559
G01 F400 X65.819 Y51.717
G01 F400 X65.844 Y51.749
G01 F400 X66.023 Y51.915
G01 F400 X66.225 Y52.052
G01 F400 X66.428 Y52.150
G01 F400 X66.444 Y52.158
G01 F400 X66.677 Y52.230
G01 F400 X66.918 Y52.266
G00 Z3.000
G00  X53.123 Y52.260
G01 F750 Z0
G01 F400 Z-0.100
G01 F400 X52.934 Y52.220
G01 F400 X52.758 Y52.141
G01 F400 X52.601 Y52.027
G01 F400 X52.472 Y51.884
G01 F400 X52.375 Y51.716
G01 F400 X52.315 Y51.532
G01 F400 X52.295 Y51.340
G01 F400 X52.315 Y51.148
G01 F400 X52.375 Y50.964
G01 F400 X52.472 Y50.796
G01 F400 X52.601 Y50.653
G01 F400 X52.758 Y50.539
G01 F400 X52.934 Y50.461
G01 F400 X53.123 Y50.420
G01 F400 X53.317 Y50.420
G01 F400 X53.506 Y50.461
G01 F400 X53.682 Y50.539
G01 F400 X53.839 Y50.653
G01 F400 X53.968 Y50.796
G01 F400 X54.065 Y50.964
G01 F400 X54.125 Y51.148
G01 F400 X54.145 Y51.340
G01 F400 X54.125 Y51.532
G01 F400 X54.065 Y51.716
G01 F400 X53.968 Y51.884
G01 F400 X53.839 Y52.027
G01 F400 X53.682 Y52.141
G01 F400 X53.506 Y52.220
G01 F400 X53.317 Y52.260
G01 F400 X53.123 Y52.260
G00 Z3.000
G00  X42.963 Y52.260
G01 F750 Z0
G01 F400 Z-0.100
G01 F400 X42.774 Y52.220
G01 F400 X42.598 Y52.141
G01 F400 X42.441 Y52.027
G01 F400 X42.312 Y51.884
G01 F400 X42.215 Y51.716
G01 F400 X42.155 Y51.532
G01 F400 X42.135 Y51.340
G01 F400 X42.155 Y51.148
G01 F400 X42.215 Y50.964
G01 F400 X42.312 Y50.796
G01 F400 X42.441 Y50.653
G01 F400 X42.598 Y50.539
G01 F400 X42.774 Y50.461
G01 F400 X42.963 Y50.420
G01 F400 X43.157 Y50.420
G01 F400 X43.346 Y50.461
G01 F400 X43.522 Y50.539
G01 F400 X43.679 Y50.653
G01 F400 X43.808 Y50.796
G01 F400 X43.905 Y50.964
G01 F400 X43.965 Y51.148
G01 F400 X43.985 Y51.340
G01 F400 X43.965 Y51.532
G01 F400 X43.905 Y51.716
G01 F400 X43.808 Y51.884
G01 F400 X43.679 Y52.027
G01 F400 X43.522 Y52.141
G01 F400 X43.346 Y52.220
G01 F400 X43.157 Y52.260
G01 F400 X42.963 Y52.260
G00 Z3.000
G00  X9.595 Y52.221
G01 F750 Z0
G01 F400 Z-0.100
G01 F400 X9.641 Y52.217
G01 F400 X9.800 Y52.203
G01 F400 X9.999 Y52.150
G01 F400 X10.186 Y52.063
G01 F400 X10.354 Y51.945
G01 F400 X10.500 Y51.799
G01 F400 X10.618 Y51.631
G01 F400 X10.705 Y51.444
G01 F400 X10.758 Y51.245
G01 F400 X10.776 Y51.040
G01 F400 X10.758 Y50.835
G01 F400 X10.727 Y50.719
G01 F400 X10.708 Y50.648
G01 F400 X10.617 Y50.449
G01 F400 X10.500 Y50.281
G01 F400 X10.354 Y50.135
G01 F400 X10.204 Y50.030
G01 F400 X10.186 Y50.017
G01 F400 X9.999 Y49.930
G01 F400 X9.800 Y49.877
G01 F400 X9.595 Y49.859
G01 F400 X9.390 Y49.877
G01 F400 X9.191 Y49.930
G01 F400 X9.005 Y50.017
G01 F400 X8.836 Y50.135
G01 F400 X8.690 Y50.281
G01 F400 X8.572 Y50.450
G01 F400 X8.485 Y50.636
G01 F400 X8.432 Y50.835
G01 F400 X8.414 Y51.040
G01 F400 X8.432 Y51.245
G01 F400 X8.485 Y51.444
G01 F400 X8.572 Y51.631
G01 F400 X8.690 Y51.799
G01 F400 X8.836 Y51.945
G01 F400 X8.925 Y52.007
G01 F400 X9.005 Y52.063
G01 F400 X9.191 Y52.150
G01 F400 X9.208 Y52.154
G01 F400 X9.244 Y52.164
G01 F400 X9.390 Y52.203
G01 F400 X9.544 Y52.216
G01 F400 X9.595 Y52.221
G00 Z3.000
G00  X1.134 Y52.216
G01 F750 Z0
G01 F400 Z-0.100
G01 F400 X2.816 Y52.216
G01 F400 X2.854 Y52.212
G01 F400 X2.958 Y52.174
G01 F400 X3.044 Y52.109
G01 F400 X3.109 Y52.023
G01 F400 X3.147 Y51.919
G01 F400 X3.151 Y51.881
G01 F400 X3.151 Y50.199
G01 F400 X3.148 Y50.166
G01 F400 X3.108 Y50.057
G01 F400 X3.044 Y49.971
G01 F400 X2.958 Y49.906
G01 F400 X2.854 Y49.868
G01 F400 X2.816 Y49.864
G01 F400 X1.134 Y49.864
G01 F400 X1.096 Y49.868
G01 F400 X0.993 Y49.906
G01 F400 X0.906 Y49.971
G01 F400 X0.841 Y50.058
G01 F400 X0.803 Y50.161
G01 F400 X0.799 Y50.199
G01 F400 X0.799 Y51.881
G01 F400 X0.803 Y51.919
G01 F400 X0.841 Y52.023
G01 F400 X0.906 Y52.109
G01 F400 X0.993 Y52.174
G01 F400 X1.096 Y52.212
G01 F400 X1.134 Y52.216
G00 Z3.000
G00  X66.896 Y52.007
G01 F750 Z0
G01 F400 Z-0.100
G01 F400 X66.615 Y51.948
G01 F400 X66.353 Y51.831
G01 F400 X66.120 Y51.662
G01 F400 X65.928 Y51.448
G01 F400 X65.784 Y51.199
G01 F400 X65.695 Y50.926
G01 F400 X65.665 Y50.640
G01 F400 X65.683 Y50.469
G01 F400 X65.641 Y50.396
G01 F400 X65.584 Y50.222
G01 F400 X65.566 Y50.047
G01 F400 X65.566 Y37.201
G01 F400 X63.775 Y35.410
G01 F400 X45.796 Y35.410
G01 F400 X45.660 Y35.562
G01 F400 X45.427 Y35.731
G01 F400 X45.165 Y35.848
G01 F400 X44.884 Y35.907
G01 F400 X44.596 Y35.907
G01 F400 X44.315 Y35.848
G01 F400 X44.053 Y35.731
G01 F400 X43.820 Y35.562
G01 F400 X43.628 Y35.348
G01 F400 X43.484 Y35.099
G01 F400 X43.395 Y34.826
G01 F400 X43.365 Y34.540
G01 F400 X43.395 Y34.254
G01 F400 X43.484 Y33.981
G01 F400 X43.628 Y33.732
G01 F400 X43.820 Y33.518
G01 F400 X44.053 Y33.349
G01 F400 X44.315 Y33.233
G01 F400 X44.596 Y33.173
G01 F400 X44.884 Y33.173
G01 F400 X45.165 Y33.233
G01 F400 X45.427 Y33.349
G01 F400 X45.660 Y33.518
G01 F400 X45.797 Y33.670
G01 F400 X64.231 Y33.670
G01 F400 X64.410 Y33.708
G01 F400 X64.577 Y33.782
G01 F400 X64.723 Y33.888
G01 F400 X67.032 Y36.197
G01 F400 X67.148 Y36.326
G01 F400 X67.239 Y36.484
G01 F400 X67.296 Y36.658
G01 F400 X67.314 Y36.834
G01 F400 X67.314 Y49.300
G01 F400 X67.465 Y49.333
G01 F400 X67.727 Y49.449
G01 F400 X67.960 Y49.618
G01 F400 X68.152 Y49.832
G01 F400 X68.296 Y50.081
G01 F400 X68.385 Y50.354
G01 F400 X68.415 Y50.640
G01 F400 X68.385 Y50.926
G01 F400 X68.296 Y51.199
G01 F400 X68.152 Y51.448
G01 F400 X67.960 Y51.662
G01 F400 X67.727 Y51.831
G01 F400 X67.465 Y51.948
G01 F400 X67.184 Y52.007
G01 F400 X66.896 Y52.007
G00 Z3.000
G00  X87.440 Y51.967
G01 F750 Z0
G01 F400 Z-0.100
G01 F400 X87.353 Y51.949
G01 F400 X87.280 Y51.900
G01 F400 X87.231 Y51.827
G01 F400 X87.214 Y51.740
G01 F400 X87.231 Y51.653
G01 F400 X87.280 Y51.580
G01 F400 X87.353 Y51.531
G01 F400 X87.440 Y51.514
G01 F400 X87.527 Y51.531
G01 F400 X87.600 Y51.580
G01 F400 X87.649 Y51.653
G01 F400 X87.666 Y51.740
G01 F400 X87.649 Y51.827
G01 F400 X87.600 Y51.900
G01 F400 X87.527 Y51.949
G01 F400 X87.440 Y51.967
G00 Z3.000
G00  X1.051 Y51.964
G01 F750 Z0
G01 F400 Z-0.100
G01 F400 X1.051 Y50.116
G01 F400 X2.899 Y50.116
G01 F400 X2.899 Y51.964
G01 F400 X1.051 Y51.964
G00 Z3.000
G00  X9.498 Y51.960
G01 F750 Z0
G01 F400 Z-0.100
G01 F400 X9.309 Y51.919
G01 F400 X9.133 Y51.841
G01 F400 X8.976 Y51.727
G01 F400 X8.847 Y51.584
G01 F400 X8.750 Y51.416
G01 F400 X8.690 Y51.232
G01 F400 X8.670 Y51.040
G01 F400 X8.690 Y50.848
G01 F400 X8.750 Y50.664
G01 F400 X8.847 Y50.496
G01 F400 X8.976 Y50.353
G01 F400 X9.133 Y50.239
G01 F400 X9.309 Y50.160
G01 F400 X9.498 Y50.120
G01 F400 X9.692 Y50.120
G01 F400 X9.881 Y50.160
G01 F400 X10.057 Y50.239
G01 F400 X10.214 Y50.353
G01 F400 X10.343 Y50.496
G01 F400 X10.440 Y50.664
G01 F400 X10.500 Y50.848
G01 F400 X10.520 Y51.040
G01 F400 X10.500 Y51.232
G01 F400 X10.440 Y51.416
G01 F400 X10.343 Y51.584
G01 F400 X10.214 Y51.727
G01 F400 X10.057 Y51.841
G01 F400 X9.881 Y51.919
G01 F400 X9.692 Y51.960
G01 F400 X9.498 Y51.960
G00 Z3.000
G00  X88.486 Y51.144
G01 F750 Z0
G01 F400 Z-0.100
G01 F400 X88.486 Y49.796
G01 F400 X90.534 Y49.796
G01 F400 X90.534 Y51.144
G01 F400 X88.486 Y51.144
G00 Z3.000
G00  X59.108 Y50.536
G01 F750 Z0
G01 F400 Z-0.100
G01 F400 X60.432 Y50.536
G01 F400 X60.541 Y50.524
G01 F400 X60.679 Y50.476
G01 F400 X60.803 Y50.398
G01 F400 X60.908 Y50.294
G01 F400 X60.986 Y50.169
G01 F400 X61.034 Y50.031
G01 F400 X61.039 Y49.984
G01 F400 X61.046 Y49.922
G01 F400 X61.046 Y49.501
G01 F400 X61.067 Y49.406
G01 F400 X61.158 Y49.301
G01 F400 X61.277 Y49.266
G01 F400 X62.781 Y49.266
G01 F400 X62.819 Y49.262
G01 F400 X62.923 Y49.224
G01 F400 X63.009 Y49.159
G01 F400 X63.074 Y49.073
G01 F400 X63.112 Y48.969
G01 F400 X63.116 Y48.931
G01 F400 X63.116 Y47.749
G01 F400 X63.113 Y47.715
G01 F400 X63.073 Y47.607
G01 F400 X63.009 Y47.521
G01 F400 X62.923 Y47.456
G01 F400 X62.819 Y47.418
G01 F400 X62.781 Y47.414
G01 F400 X60.899 Y47.414
G01 F400 X60.861 Y47.418
G01 F400 X60.758 Y47.456
G01 F400 X60.671 Y47.521
G01 F400 X60.606 Y47.608
G01 F400 X60.568 Y47.711
G01 F400 X60.564 Y47.749
G01 F400 X60.564 Y48.449
G01 F400 X60.543 Y48.544
G01 F400 X60.453 Y48.649
G01 F400 X60.333 Y48.684
G01 F400 X59.108 Y48.684
G01 F400 X58.999 Y48.696
G01 F400 X58.861 Y48.744
G01 F400 X58.736 Y48.822
G01 F400 X58.632 Y48.927
G01 F400 X58.554 Y49.051
G01 F400 X58.506 Y49.189
G01 F400 X58.494 Y49.298
G01 F400 X58.494 Y49.922
G01 F400 X58.506 Y50.031
G01 F400 X58.554 Y50.169
G01 F400 X58.632 Y50.294
G01 F400 X58.736 Y50.398
G01 F400 X58.861 Y50.476
G01 F400 X58.999 Y50.524
G01 F400 X59.027 Y50.527
G01 F400 X59.108 Y50.536
G00 Z3.000
G00  X59.770 Y49.837
G01 F750 Z0
G01 F400 Z-0.100
G01 F400 X59.683 Y49.819
G01 F400 X59.610 Y49.770
G01 F400 X59.561 Y49.697
G01 F400 X59.544 Y49.610
G01 F400 X59.561 Y49.523
G01 F400 X59.610 Y49.450
G01 F400 X59.683 Y49.401
G01 F400 X59.770 Y49.384
G01 F400 X59.857 Y49.401
G01 F400 X59.930 Y49.450
G01 F400 X59.979 Y49.523
G01 F400 X59.997 Y49.610
G01 F400 X59.979 Y49.697
G01 F400 X59.930 Y49.770
G01 F400 X59.857 Y49.819
G01 F400 X59.770 Y49.837
G00 Z3.000
G00  X71.560 Y49.521
G01 F750 Z0
G01 F400 Z-0.100
G01 F400 X71.606 Y49.517
G01 F400 X71.765 Y49.503
G01 F400 X71.964 Y49.450
G01 F400 X72.151 Y49.363
G01 F400 X72.319 Y49.245
G01 F400 X72.465 Y49.099
G01 F400 X72.583 Y48.931
G01 F400 X72.670 Y48.744
G01 F400 X72.723 Y48.545
G01 F400 X72.741 Y48.340
G01 F400 X72.723 Y48.135
G01 F400 X72.670 Y47.936
G01 F400 X72.583 Y47.750
G01 F400 X72.465 Y47.581
G01 F400 X72.319 Y47.435
G01 F400 X72.151 Y47.317
G01 F400 X71.964 Y47.230
G01 F400 X71.765 Y47.177
G01 F400 X71.560 Y47.159
G01 F400 X71.355 Y47.177
G01 F400 X71.156 Y47.230
G01 F400 X70.969 Y47.317
G01 F400 X70.801 Y47.435
G01 F400 X70.655 Y47.581
G01 F400 X70.537 Y47.750
G01 F400 X70.450 Y47.936
G01 F400 X70.397 Y48.135
G01 F400 X70.379 Y48.340
G01 F400 X70.397 Y48.545
G01 F400 X70.450 Y48.744
G01 F400 X70.537 Y48.931
G01 F400 X70.655 Y49.099
G01 F400 X70.801 Y49.245
G01 F400 X70.906 Y49.318
G01 F400 X70.969 Y49.363
G01 F400 X71.156 Y49.450
G01 F400 X71.355 Y49.503
G01 F400 X71.506 Y49.516
G01 F400 X71.560 Y49.521
G00 Z3.000
G00  X81.720 Y49.521
G01 F750 Z0
G01 F400 Z-0.100
G01 F400 X81.766 Y49.517
G01 F400 X81.925 Y49.503
G01 F400 X82.124 Y49.450
G01 F400 X82.311 Y49.363
G01 F400 X82.479 Y49.245
G01 F400 X82.625 Y49.099
G01 F400 X82.743 Y48.931
G01 F400 X82.830 Y48.744
G01 F400 X82.883 Y48.545
G01 F400 X82.901 Y48.340
G01 F400 X82.883 Y48.135
G01 F400 X82.830 Y47.936
G01 F400 X82.743 Y47.750
G01 F400 X82.625 Y47.581
G01 F400 X82.479 Y47.435
G01 F400 X82.311 Y47.317
G01 F400 X82.124 Y47.230
G01 F400 X81.925 Y47.177
G01 F400 X81.720 Y47.159
G01 F400 X81.515 Y47.177
G01 F400 X81.316 Y47.230
G01 F400 X81.130 Y47.317
G01 F400 X80.961 Y47.435
G01 F400 X80.815 Y47.581
G01 F400 X80.697 Y47.750
G01 F400 X80.610 Y47.936
G01 F400 X80.557 Y48.135
G01 F400 X80.539 Y48.340
G01 F400 X80.557 Y48.545
G01 F400 X80.610 Y48.744
G01 F400 X80.697 Y48.931
G01 F400 X80.815 Y49.099
G01 F400 X80.961 Y49.245
G01 F400 X81.066 Y49.318
G01 F400 X81.130 Y49.363
G01 F400 X81.316 Y49.450
G01 F400 X81.515 Y49.503
G01 F400 X81.666 Y49.516
G01 F400 X81.720 Y49.521
G00 Z3.000
G00  X81.623 Y49.260
G01 F750 Z0
G01 F400 Z-0.100
G01 F400 X81.434 Y49.220
G01 F400 X81.258 Y49.141
G01 F400 X81.101 Y49.027
G01 F400 X80.972 Y48.884
G01 F400 X80.875 Y48.716
G01 F400 X80.815 Y48.532
G01 F400 X80.795 Y48.340
G01 F400 X80.815 Y48.148
G01 F400 X80.875 Y47.964
G01 F400 X80.972 Y47.796
G01 F400 X81.101 Y47.653
G01 F400 X81.258 Y47.539
G01 F400 X81.434 Y47.461
G01 F400 X81.623 Y47.420
G01 F400 X81.817 Y47.420
G01 F400 X82.006 Y47.461
G01 F400 X82.182 Y47.539
G01 F400 X82.339 Y47.653
G01 F400 X82.468 Y47.796
G01 F400 X82.565 Y47.964
G01 F400 X82.625 Y48.148
G01 F400 X82.645 Y48.340
G01 F400 X82.625 Y48.532
G01 F400 X82.565 Y48.716
G01 F400 X82.468 Y48.884
G01 F400 X82.339 Y49.027
G01 F400 X82.182 Y49.141
G01 F400 X82.006 Y49.220
G01 F400 X81.817 Y49.260
G01 F400 X81.623 Y49.260
G00 Z3.000
G00  X71.463 Y49.260
G01 F750 Z0
G01 F400 Z-0.100
G01 F400 X71.274 Y49.220
G01 F400 X71.098 Y49.141
G01 F400 X70.941 Y49.027
G01 F400 X70.812 Y48.884
G01 F400 X70.715 Y48.716
G01 F400 X70.655 Y48.532
G01 F400 X70.635 Y48.340
G01 F400 X70.655 Y48.148
G01 F400 X70.715 Y47.964
G01 F400 X70.812 Y47.796
G01 F400 X70.941 Y47.653
G01 F400 X71.098 Y47.539
G01 F400 X71.274 Y47.461
G01 F400 X71.463 Y47.420
G01 F400 X71.657 Y47.420
G01 F400 X71.846 Y47.461
G01 F400 X72.022 Y47.539
G01 F400 X72.179 Y47.653
G01 F400 X72.308 Y47.796
G01 F400 X72.405 Y47.964
G01 F400 X72.465 Y48.148
G01 F400 X72.485 Y48.340
G01 F400 X72.465 Y48.532
G01 F400 X72.405 Y48.716
G01 F400 X72.308 Y48.884
G01 F400 X72.179 Y49.027
G01 F400 X72.022 Y49.141
G01 F400 X71.846 Y49.220
G01 F400 X71.657 Y49.260
G01 F400 X71.463 Y49.260
G00 Z3.000
G00  X60.816 Y49.014
G01 F750 Z0
G01 F400 Z-0.100
G01 F400 X60.816 Y47.666
G01 F400 X62.864 Y47.666
G01 F400 X62.864 Y49.014
G01 F400 X60.816 Y49.014
G00 Z3.000
G00  X26.560 Y48.821
G01 F750 Z0
G01 F400 Z-0.100
G01 F400 X26.606 Y48.817
G01 F400 X26.765 Y48.803
G01 F400 X26.964 Y48.750
G01 F400 X27.151 Y48.663
G01 F400 X27.319 Y48.545
G01 F400 X27.465 Y48.399
G01 F400 X27.583 Y48.230
G01 F400 X27.670 Y48.044
G01 F400 X27.723 Y47.845
G01 F400 X27.741 Y47.640
G01 F400 X27.723 Y47.435
G01 F400 X27.670 Y47.236
G01 F400 X27.583 Y47.050
G01 F400 X27.486 Y46.911
G01 F400 X27.465 Y46.881
G01 F400 X27.319 Y46.735
G01 F400 X27.151 Y46.617
G01 F400 X26.964 Y46.530
G01 F400 X26.765 Y46.477
G01 F400 X26.560 Y46.459
G01 F400 X26.355 Y46.477
G01 F400 X26.156 Y46.530
G01 F400 X25.970 Y46.617
G01 F400 X25.801 Y46.735
G01 F400 X25.655 Y46.881
G01 F400 X25.537 Y47.050
G01 F400 X25.450 Y47.236
G01 F400 X25.397 Y47.435
G01 F400 X25.379 Y47.640
G01 F400 X25.397 Y47.845
G01 F400 X25.450 Y48.044
G01 F400 X25.537 Y48.230
G01 F400 X25.655 Y48.399
G01 F400 X25.801 Y48.545
G01 F400 X25.970 Y48.663
G01 F400 X26.156 Y48.750
G01 F400 X26.355 Y48.803
G01 F400 X26.506 Y48.816
G01 F400 X26.560 Y48.821
G00 Z3.000
G00  X26.463 Y48.560
G01 F750 Z0
G01 F400 Z-0.100
G01 F400 X26.274 Y48.520
G01 F400 X26.098 Y48.441
G01 F400 X25.941 Y48.327
G01 F400 X25.812 Y48.184
G01 F400 X25.715 Y48.016
G01 F400 X25.655 Y47.832
G01 F400 X25.635 Y47.640
G01 F400 X25.655 Y47.448
G01 F400 X25.715 Y47.264
G01 F400 X25.812 Y47.096
G01 F400 X25.941 Y46.953
G01 F400 X26.098 Y46.839
G01 F400 X26.274 Y46.761
G01 F400 X26.463 Y46.720
G01 F400 X26.657 Y46.720
G01 F400 X26.846 Y46.761
G01 F400 X27.022 Y46.839
G01 F400 X27.179 Y46.953
G01 F400 X27.308 Y47.096
G01 F400 X27.405 Y47.264
G01 F400 X27.465 Y47.448
G01 F400 X27.485 Y47.640
G01 F400 X27.465 Y47.832
G01 F400 X27.405 Y48.016
G01 F400 X27.308 Y48.184
G01 F400 X27.179 Y48.327
G01 F400 X27.022 Y48.441
G01 F400 X26.846 Y48.520
G01 F400 X26.657 Y48.560
G01 F400 X26.463 Y48.560
G00 Z3.000
G00  X16.303 Y48.560
G01 F750 Z0
G01 F400 Z-0.100
G01 F400 X16.114 Y48.520
G01 F400 X15.938 Y48.441
G01 F400 X15.781 Y48.327
G01 F400 X15.652 Y48.184
G01 F400 X15.555 Y48.016
G01 F400 X15.495 Y47.832
G01 F400 X15.475 Y47.640
G01 F400 X15.495 Y47.448
G01 F400 X15.555 Y47.264
G01 F400 X15.652 Y47.096
G01 F400 X15.781 Y46.953
G01 F400 X15.938 Y46.839
G01 F400 X16.114 Y46.761
G01 F400 X16.303 Y46.720
G01 F400 X16.497 Y46.720
G01 F400 X16.686 Y46.761
G01 F400 X16.862 Y46.839
G01 F400 X17.019 Y46.953
G01 F400 X17.148 Y47.096
G01 F400 X17.245 Y47.264
G01 F400 X17.305 Y47.448
G01 F400 X17.325 Y47.640
G01 F400 X17.305 Y47.832
G01 F400 X17.245 Y48.016
G01 F400 X17.148 Y48.184
G01 F400 X17.019 Y48.327
G01 F400 X16.862 Y48.441
G01 F400 X16.686 Y48.520
G01 F400 X16.497 Y48.560
G01 F400 X16.303 Y48.560
G00 Z3.000
G00  X43.160 Y48.021
G01 F750 Z0
G01 F400 Z-0.100
G01 F400 X43.206 Y48.017
G01 F400 X43.365 Y48.003
G01 F400 X43.564 Y47.950
G01 F400 X43.751 Y47.863
G01 F400 X43.919 Y47.745
G01 F400 X44.065 Y47.599
G01 F400 X44.183 Y47.431
G01 F400 X44.270 Y47.244
G01 F400 X44.323 Y47.045
G01 F400 X44.341 Y46.840
G01 F400 X44.323 Y46.635
G01 F400 X44.270 Y46.436
G01 F400 X44.183 Y46.250
G01 F400 X44.065 Y46.081
G01 F400 X43.919 Y45.935
G01 F400 X43.751 Y45.817
G01 F400 X43.564 Y45.730
G01 F400 X43.365 Y45.677
G01 F400 X43.160 Y45.659
G01 F400 X42.955 Y45.677
G01 F400 X42.756 Y45.730
G01 F400 X42.570 Y45.817
G01 F400 X42.401 Y45.935
G01 F400 X42.255 Y46.081
G01 F400 X42.137 Y46.250
G01 F400 X42.050 Y46.436
G01 F400 X41.997 Y46.635
G01 F400 X41.979 Y46.840
G01 F400 X41.997 Y47.045
G01 F400 X42.050 Y47.244
G01 F400 X42.137 Y47.431
G01 F400 X42.255 Y47.599
G01 F400 X42.401 Y47.745
G01 F400 X42.570 Y47.863
G01 F400 X42.756 Y47.950
G01 F400 X42.955 Y48.003
G01 F400 X43.106 Y48.016
G01 F400 X43.160 Y48.021
G00 Z3.000
G00  X53.320 Y48.021
G01 F750 Z0
G01 F400 Z-0.100
G01 F400 X53.366 Y48.017
G01 F400 X53.525 Y48.003
G01 F400 X53.724 Y47.950
G01 F400 X53.911 Y47.863
G01 F400 X54.079 Y47.745
G01 F400 X54.225 Y47.599
G01 F400 X54.343 Y47.431
G01 F400 X54.430 Y47.244
G01 F400 X54.483 Y47.045
G01 F400 X54.501 Y46.840
G01 F400 X54.483 Y46.635
G01 F400 X54.430 Y46.436
G01 F400 X54.343 Y46.250
G01 F400 X54.225 Y46.081
G01 F400 X54.079 Y45.935
G01 F400 X53.911 Y45.817
G01 F400 X53.724 Y45.730
G01 F400 X53.525 Y45.677
G01 F400 X53.320 Y45.659
G01 F400 X53.115 Y45.677
G01 F400 X52.916 Y45.730
G01 F400 X52.730 Y45.817
G01 F400 X52.561 Y45.935
G01 F400 X52.415 Y46.081
G01 F400 X52.297 Y46.250
G01 F400 X52.210 Y46.436
G01 F400 X52.157 Y46.635
G01 F400 X52.139 Y46.840
G01 F400 X52.157 Y47.045
G01 F400 X52.210 Y47.244
G01 F400 X52.297 Y47.431
G01 F400 X52.415 Y47.599
G01 F400 X52.561 Y47.745
G01 F400 X52.730 Y47.863
