( PCB drills )
( Generated by Carbide Copper )
( Material Size )
( X= 152.400, Y= 101.600, Z= 1.580 )
()
G17
G21
G54
G90
T1 M06
T2 M06
G00  X1.275 Y28.240
G00 F750 Z0
G01 F15000   Z-3.500
G00 Z3.000
G00  X1.975 Y51.040
G00 F750 Z0
G01 F15000   Z-3.500
G00 Z3.000
G00  X2.080 Y62.540
G00 F750 Z0
G01 F15000   Z-3.500
G00 Z3.000
G00  X8.895 Y28.240
G00 F750 Z0
G01 F15000   Z-3.500
G00 Z3.000
G00  X9.595 Y51.040
G00 F750 Z0
G01 F15000   Z-3.500
G00 Z3.000
G00  X9.700 Y62.540
G00 F750 Z0
G01 F15000   Z-3.500
G00 Z3.000
G00  X16.200 Y36.040
G00 F750 Z0
G01 F15000   Z-3.500
G00 Z3.000
G00  X16.200 Y31.140
G00 F750 Z0
G01 F15000   Z-3.500
G00 Z3.000
G00  X16.220 Y20.840
G00 F750 Z0
G01 F15000   Z-3.500
G00 Z3.000
G00  X16.220 Y16.140
G00 F750 Z0
G01 F15000   Z-3.500
G00 Z3.000
G00  X16.300 Y43.140
G00 F750 Z0
G01 F15000   Z-3.500
G00 Z3.000
G00  X16.400 Y57.340
G00 F750 Z0
G01 F15000   Z-3.500
G00 Z3.000
G00  X16.400 Y52.540
G00 F750 Z0
G01 F15000   Z-3.500
G00 Z3.000
G00  X16.400 Y47.640
G00 F750 Z0
G01 F15000   Z-3.500
G00 Z3.000
G00  X16.400 Y26.040
G00 F750 Z0
G01 F15000   Z-3.500
G00 Z3.000
G00  X16.480 Y62.440
G00 F750 Z0
G01 F15000   Z-3.500
G00 Z3.000
G00  X19.740 Y8.520
G00 F750 Z0
G01 F15000   Z-3.500
G00 Z3.000
G00  X19.740 Y-1.640
G00 F750 Z0
G01 F15000   Z-3.500
G00 Z3.000
G00  X26.360 Y36.040
G00 F750 Z0
G01 F15000   Z-3.500
G00 Z3.000
G00  X26.360 Y31.140
G00 F750 Z0
G01 F15000   Z-3.500
G00 Z3.000
G00  X26.380 Y20.840
G00 F750 Z0
G01 F15000   Z-3.500
G00 Z3.000
G00  X26.380 Y16.140
G00 F750 Z0
G01 F15000   Z-3.500
G00 Z3.000
G00  X26.460 Y43.140
G00 F750 Z0
G01 F15000   Z-3.500
G00 Z3.000
G00  X26.560 Y57.340
G00 F750 Z0
G01 F15000   Z-3.500
G00 Z3.000
G00  X26.560 Y52.540
G00 F750 Z0
G01 F15000   Z-3.500
G00 Z3.000
G00  X26.560 Y47.640
G00 F750 Z0
G01 F15000   Z-3.500
G00 Z3.000
G00  X26.560 Y26.040
G00 F750 Z0
G01 F15000   Z-3.500
G00 Z3.000
G00  X26.640 Y62.440
G00 F750 Z0
G01 F15000   Z-3.500
G00 Z3.000
G00  X29.840 Y8.520
G00 F750 Z0
G01 F15000   Z-3.500
G00 Z3.000
G00  X29.840 Y-1.640
G00 F750 Z0
G01 F15000   Z-3.500
G00 Z3.000
G00  X34.400 Y8.540
G00 F750 Z0
G01 F15000   Z-3.500
G00 Z3.000
G00  X34.400 Y-1.620
G00 F750 Z0
G01 F15000   Z-3.500
G00 Z3.000
G00  X43.060 Y51.340
G00 F750 Z0
G01 F15000   Z-3.500
G00 Z3.000
G00  X43.140 Y65.340
G00 F750 Z0
G01 F15000   Z-3.500
G00 Z3.000
G00  X43.160 Y60.540
G00 F750 Z0
G01 F15000   Z-3.500
G00 Z3.000
G00  X43.160 Y56.140
G00 F750 Z0
G01 F15000   Z-3.500
G00 Z3.000
G00  X43.160 Y46.840
G00 F750 Z0
G01 F15000   Z-3.500
G00 Z3.000
G00  X47.340 Y25.940
G00 F750 Z0
G01 F15000   Z-3.500
G00 Z3.000
G00  X47.340 Y17.340
G00 F750 Z0
G01 F15000   Z-3.500
G00 Z3.000
G00  X47.360 Y21.840
G00 F750 Z0
G01 F15000   Z-3.500
G00 Z3.000
G00  X47.360 Y12.940
G00 F750 Z0
G01 F15000   Z-3.500
G00 Z3.000
G00  X47.360 Y8.840
G00 F750 Z0
G01 F15000   Z-3.500
G00 Z3.000
G00  X53.220 Y51.340
G00 F750 Z0
G01 F15000   Z-3.500
G00 Z3.000
G00  X53.300 Y65.340
G00 F750 Z0
G01 F15000   Z-3.500
G00 Z3.000
G00  X53.320 Y60.540
G00 F750 Z0
G01 F15000   Z-3.500
G00 Z3.000
G00  X53.320 Y56.140
G00 F750 Z0
G01 F15000   Z-3.500
G00 Z3.000
G00  X53.320 Y46.840
G00 F750 Z0
G01 F15000   Z-3.500
G00 Z3.000
G00  X57.500 Y25.940
G00 F750 Z0
G01 F15000   Z-3.500
G00 Z3.000
G00  X57.500 Y17.340
G00 F750 Z0
G01 F15000   Z-3.500
G00 Z3.000
G00  X57.520 Y21.840
G00 F750 Z0
G01 F15000   Z-3.500
G00 Z3.000
G00  X57.520 Y12.940
G00 F750 Z0
G01 F15000   Z-3.500
G00 Z3.000
G00  X57.520 Y8.840
G00 F750 Z0
G01 F15000   Z-3.500
G00 Z3.000
G00  X71.540 Y67.740
G00 F750 Z0
G01 F15000   Z-3.500
G00 Z3.000
G00  X71.560 Y52.740
G00 F750 Z0
G01 F15000   Z-3.500
G00 Z3.000
G00  X71.560 Y48.340
G00 F750 Z0
G01 F15000   Z-3.500
G00 Z3.000
G00  X71.640 Y62.540
G00 F750 Z0
G01 F15000   Z-3.500
G00 Z3.000
G00  X71.660 Y57.640
G00 F750 Z0
G01 F15000   Z-3.500
G00 Z3.000
G00  X81.700 Y67.740
G00 F750 Z0
G01 F15000   Z-3.500
G00 Z3.000
G00  X81.720 Y52.740
G00 F750 Z0
G01 F15000   Z-3.500
G00 Z3.000
G00  X81.720 Y48.340
G00 F750 Z0
G01 F15000   Z-3.500
G00 Z3.000
G00  X81.800 Y62.540
G00 F750 Z0
G01 F15000   Z-3.500
G00 Z3.000
G00  X81.820 Y57.640
G00 F750 Z0
G01 F15000   Z-3.500
G00 Z3.000
G00  X83.460 Y12.880
G00 F750 Z0
G01 F15000   Z-3.500
G00 Z3.000
G00  X86.000 Y12.880
G00 F750 Z0
G01 F15000   Z-3.500
G00 Z3.000
G00  X88.540 Y12.880
G00 F750 Z0
G01 F15000   Z-3.500
G00 Z3.000
G00  X89.880 Y39.440
G00 F750 Z0
G01 F15000   Z-3.500
G00 Z3.000
G00  X89.980 Y34.240
G00 F750 Z0
G01 F15000   Z-3.500
G00 Z3.000
G00  X93.860 Y13.400
G00 F750 Z0
G01 F15000   Z-3.500
G00 Z3.000
G00  X96.400 Y13.400
G00 F750 Z0
G01 F15000   Z-3.500
G00 Z3.000
G00  X96.460 Y27.620
G00 F750 Z0
G01 F15000   Z-3.500
G00 Z3.000
G00  X96.460 Y17.460
G00 F750 Z0
G01 F15000   Z-3.500
G00 Z3.000
G00  X98.940 Y13.400
G00 F750 Z0
G01 F15000   Z-3.500
G00 Z3.000
G00  X100.040 Y39.440
G00 F750 Z0
G01 F15000   Z-3.500
G00 Z3.000
G00  X100.140 Y34.240
G00 F750 Z0
G01 F15000   Z-3.500
G00 Z3.000
G00  X103.760 Y23.520
G00 F750 Z0
G01 F15000   Z-3.500
G00 Z3.000
G00  X103.760 Y13.360
G00 F750 Z0
G01 F15000   Z-3.500
G00 Z3.000
G00  X106.660 Y39.280
G00 F750 Z0
G01 F15000   Z-3.500
G00 Z3.000
G00  X106.660 Y36.740
G00 F750 Z0
G01 F15000   Z-3.500
G00 Z3.000
G00  X106.660 Y34.200
G00 F750 Z0
G01 F15000   Z-3.500
G00 Z3.000
G00  X110.000 Y30.380
G00 F750 Z0
G01 F15000   Z-3.500
G00 Z3.000
G00  X110.000 Y20.220
G00 F750 Z0
G01 F15000   Z-3.500
G00 Z3.000
T3 M06
T4 M06
T5 M06
T6 M06
G00 Z3.000
M05
M30
%