( PCB drills )
( Generated by Carbide Copper )
( Material Size )
( X= 152.400, Y= 101.600, Z= 1.580 )
()
G17
G21
G54
G90
T1 M06
G00  X32.500 Y19.540
G00 F750 Z0
G01 F15000   Z-3.500
G00 Z3.000
G00  X32.510 Y45.070
G00 F750 Z0
G01 F15000   Z-3.500
G00 Z3.000
G00  X32.600 Y33.640
G00 F750 Z0
G01 F15000   Z-3.500
G00 Z3.000
G00  X32.600 Y27.040
G00 F750 Z0
G01 F15000   Z-3.500
G00 Z3.000
G00  X32.710 Y52.870
G00 F750 Z0
G01 F15000   Z-3.500
G00 Z3.000
G00  X32.880 Y60.900
G00 F750 Z0
G01 F15000   Z-3.500
G00 Z3.000
G00  X33.770 Y20.810
G00 F750 Z0
G01 F15000   Z-3.500
G00 Z3.000
G00  X33.770 Y18.270
G00 F750 Z0
G01 F15000   Z-3.500
G00 Z3.000
G00  X33.780 Y46.340
G00 F750 Z0
G01 F15000   Z-3.500
G00 Z3.000
G00  X33.780 Y43.800
G00 F750 Z0
G01 F15000   Z-3.500
G00 Z3.000
G00  X33.870 Y34.910
G00 F750 Z0
G01 F15000   Z-3.500
G00 Z3.000
G00  X33.870 Y32.370
G00 F750 Z0
G01 F15000   Z-3.500
G00 Z3.000
G00  X33.870 Y28.310
G00 F750 Z0
G01 F15000   Z-3.500
G00 Z3.000
G00  X33.870 Y25.770
G00 F750 Z0
G01 F15000   Z-3.500
G00 Z3.000
G00  X33.980 Y54.140
G00 F750 Z0
G01 F15000   Z-3.500
G00 Z3.000
G00  X33.980 Y51.600
G00 F750 Z0
G01 F15000   Z-3.500
G00 Z3.000
G00  X34.150 Y62.170
G00 F750 Z0
G01 F15000   Z-3.500
G00 Z3.000
G00  X34.150 Y59.630
G00 F750 Z0
G01 F15000   Z-3.500
G00 Z3.000
G00  X60.170 Y56.510
G00 F750 Z0
G01 F15000   Z-3.500
G00 Z3.000
G00  X60.170 Y49.610
G00 F750 Z0
G01 F15000   Z-3.500
G00 Z3.000
G00  X60.240 Y63.740
G00 F750 Z0
G01 F15000   Z-3.500
G00 Z3.000
G00  X61.440 Y57.780
G00 F750 Z0
G01 F15000   Z-3.500
G00 Z3.000
G00  X61.440 Y55.240
G00 F750 Z0
G01 F15000   Z-3.500
G00 Z3.000
G00  X61.440 Y50.880
G00 F750 Z0
G01 F15000   Z-3.500
G00 Z3.000
G00  X61.440 Y48.340
G00 F750 Z0
G01 F15000   Z-3.500
G00 Z3.000
G00  X61.510 Y65.010
G00 F750 Z0
G01 F15000   Z-3.500
G00 Z3.000
G00  X61.510 Y62.470
G00 F750 Z0
G01 F15000   Z-3.500
G00 Z3.000
G00  X63.770 Y23.570
G00 F750 Z0
G01 F15000   Z-3.500
G00 Z3.000
G00  X63.770 Y17.510
G00 F750 Z0
G01 F15000   Z-3.500
G00 Z3.000
G00  X63.870 Y11.510
G00 F750 Z0
G01 F15000   Z-3.500
G00 Z3.000
G00  X65.040 Y24.840
G00 F750 Z0
G01 F15000   Z-3.500
G00 Z3.000
G00  X65.040 Y22.300
G00 F750 Z0
G01 F15000   Z-3.500
G00 Z3.000
G00  X65.040 Y18.780
G00 F750 Z0
G01 F15000   Z-3.500
G00 Z3.000
G00  X65.040 Y16.240
G00 F750 Z0
G01 F15000   Z-3.500
G00 Z3.000
G00  X65.140 Y12.780
G00 F750 Z0
G01 F15000   Z-3.500
G00 Z3.000
G00  X65.140 Y10.240
G00 F750 Z0
G01 F15000   Z-3.500
G00 Z3.000
G00  X87.840 Y51.740
G00 F750 Z0
G01 F15000   Z-3.500
G00 Z3.000
G00  X87.870 Y65.810
G00 F750 Z0
G01 F15000   Z-3.500
G00 Z3.000
G00  X87.870 Y58.810
G00 F750 Z0
G01 F15000   Z-3.500
G00 Z3.000
G00  X89.110 Y53.010
G00 F750 Z0
G01 F15000   Z-3.500
G00 Z3.000
G00  X89.110 Y50.470
G00 F750 Z0
G01 F15000   Z-3.500
G00 Z3.000
G00  X89.140 Y67.080
G00 F750 Z0
G01 F15000   Z-3.500
G00 Z3.000
G00  X89.140 Y64.540
G00 F750 Z0
G01 F15000   Z-3.500
G00 Z3.000
G00  X89.140 Y60.080
G00 F750 Z0
G01 F15000   Z-3.500
G00 Z3.000
G00  X89.140 Y57.540
G00 F750 Z0
G01 F15000   Z-3.500
G00 Z3.000
T2 M06
T3 M06
T4 M06
T5 M06
T6 M06
G00 Z3.000
M05
M30
%