( PCB drills )
( Generated by Carbide Copper )
( Material Size )
( X= 152.400, Y= 101.600, Z= 1.580 )
()
G17
G21
G54
G90
T1 M06
T2 M06
T3 M06
T4 M06
G00  X0.540 Y4.540
G00 F750 Z0
G01 F15000   Z-3.500
G00 Z3.000
G00  X3.840 Y1.740
G00 F750 Z0
G01 F15000   Z-3.500
G00 Z3.000
G00  X5.040 Y4.740
G00 F750 Z0
G01 F15000   Z-3.500
G00 Z3.000
G00  X7.740 Y44.840
G00 F750 Z0
G01 F15000   Z-3.500
G00 Z3.000
G00  X8.840 Y19.540
G00 F750 Z0
G01 F15000   Z-3.500
G00 Z3.000
G00  X8.940 Y4.040
G00 F750 Z0
G01 F15000   Z-3.500
G00 Z3.000
G00  X12.040 Y39.140
G00 F750 Z0
G01 F15000   Z-3.500
G00 Z3.000
G00  X12.040 Y11.640
G00 F750 Z0
G01 F15000   Z-3.500
G00 Z3.000
G00  X15.640 Y7.540
G00 F750 Z0
G01 F15000   Z-3.500
G00 Z3.000
G00  X31.040 Y65.940
G00 F750 Z0
G01 F15000   Z-3.500
G00 Z3.000
G00  X33.740 Y68.540
G00 F750 Z0
G01 F15000   Z-3.500
G00 Z3.000
G00  X36.640 Y22.840
G00 F750 Z0
G01 F15000   Z-3.500
G00 Z3.000
G00  X37.640 Y48.740
G00 F750 Z0
G01 F15000   Z-3.500
G00 Z3.000
G00  X37.740 Y33.740
G00 F750 Z0
G01 F15000   Z-3.500
G00 Z3.000
G00  X40.440 Y62.240
G00 F750 Z0
G01 F15000   Z-3.500
G00 Z3.000
G00  X40.740 Y7.240
G00 F750 Z0
G01 F15000   Z-3.500
G00 Z3.000
G00  X41.640 Y27.240
G00 F750 Z0
G01 F15000   Z-3.500
G00 Z3.000
G00  X41.640 Y14.240
G00 F750 Z0
G01 F15000   Z-3.500
G00 Z3.000
G00  X44.740 Y34.540
G00 F750 Z0
G01 F15000   Z-3.500
G00 Z3.000
G00  X62.640 Y71.840
G00 F750 Z0
G01 F15000   Z-3.500
G00 Z3.000
G00  X65.840 Y56.740
G00 F750 Z0
G01 F15000   Z-3.500
G00 Z3.000
G00  X66.640 Y61.640
G00 F750 Z0
G01 F15000   Z-3.500
G00 Z3.000
G00  X67.040 Y50.640
G00 F750 Z0
G01 F15000   Z-3.500
G00 Z3.000
G00  X67.140 Y65.140
G00 F750 Z0
G01 F15000   Z-3.500
G00 Z3.000
G00  X69.940 Y29.740
G00 F750 Z0
G01 F15000   Z-3.500
G00 Z3.000
G00  X70.240 Y14.840
G00 F750 Z0
G01 F15000   Z-3.500
G00 Z3.000
G00  X82.540 Y20.740
G00 F750 Z0
G01 F15000   Z-3.500
G00 Z3.000
G00  X92.940 Y70.040
G00 F750 Z0
G01 F15000   Z-3.500
G00 Z3.000
G00  X93.540 Y55.540
G00 F750 Z0
G01 F15000   Z-3.500
G00 Z3.000
G00  X102.140 Y52.740
G00 F750 Z0
G01 F15000   Z-3.500
G00 Z3.000
G00  X103.640 Y47.840
G00 F750 Z0
G01 F15000   Z-3.500
G00 Z3.000
G00  X104.740 Y28.440
G00 F750 Z0
G01 F15000   Z-3.500
G00 Z3.000
G00  X107.140 Y-0.560
G00 F750 Z0
G01 F15000   Z-3.500
G00 Z3.000
G00  X107.940 Y47.040
G00 F750 Z0
G01 F15000   Z-3.500
G00 Z3.000
G00  X108.540 Y16.640
G00 F750 Z0
G01 F15000   Z-3.500
G00 Z3.000
G00  X109.040 Y5.640
G00 F750 Z0
G01 F15000   Z-3.500
G00 Z3.000
G00  X112.140 Y3.840
G00 F750 Z0
G01 F15000   Z-3.500
G00 Z3.000
T5 M06
T6 M06
G00 Z3.000
M05
M30
%