( PCB drills )
( Generated by Carbide Copper )
( Material Size )
( X= 152.400, Y= 101.600, Z= 1.580 )
()
G17
G21
G54
G90
T1 M06
T2 M06
T3 M06
G00  X13.000 Y-1.360
G00 F750 Z0
G01 F15000   Z-3.500
G00 Z3.000
G00  X15.540 Y-1.360
G00 F750 Z0
G01 F15000   Z-3.500
G00 Z3.000
G00  X24.740 Y1.110
G00 F750 Z0
G01 F15000   Z-3.500
G00 Z3.000
G00  X24.740 Y-1.430
G00 F750 Z0
G01 F15000   Z-3.500
G00 Z3.000
G00  X37.900 Y-1.860
G00 F750 Z0
G01 F15000   Z-3.500
G00 Z3.000
G00  X40.440 Y-1.860
G00 F750 Z0
G01 F15000   Z-3.500
G00 Z3.000
T4 M06
T5 M06
T6 M06
G00 Z3.000
M05
M30
%