( PCB drills )
( Generated by Carbide Copper )
( Material Size )
( X= 152.400, Y= 101.600, Z= 1.580 )
()
G17
G21
G54
G90
T1 M06
T2 M06
T3 M06
T4 M06
T5 M06
G00  X2.732 Y15.090
G00 F750 Z0
G01 F15000   Z-3.500
G00 Z3.000
G00  X2.732 Y10.090
G00 F750 Z0
G01 F15000   Z-3.500
G00 Z3.000
G00  X97.400 Y1.740
G00 F750 Z0
G01 F15000   Z-3.500
G00 Z3.000
G00  X102.400 Y1.740
G00 F750 Z0
G01 F15000   Z-3.500
G00 Z3.000
G00  X109.800 Y59.140
G00 F750 Z0
G01 F15000   Z-3.500
G00 Z3.000
G00  X109.800 Y54.140
G00 F750 Z0
G01 F15000   Z-3.500
G00 Z3.000
T6 M06
G00 Z3.000
M05
M30
%