( PCB Contour )
( Generated by Carbide Copper )
( Material Size )
( X= 152.400, Y= 101.600, Z= 1.580 )
()
G17
G21
G54
G90
G00  X77.575 Y70.856
G01 F750 Z0
G01 F400 Z-0.100
G01 F400 X77.495 Y70.830
G01 F400 X77.441 Y70.781
G01 F400 X77.346 Y70.639
G01 F400 X77.288 Y70.581
G01 F400 X77.197 Y70.535
G01 F400 X77.129 Y70.460
G01 F400 X77.129 Y70.478
G01 F400 X77.116 Y70.537
G01 F400 X77.054 Y70.661
G01 F400 X76.963 Y70.761
G01 F400 X76.917 Y70.788
G01 F400 X76.824 Y70.835
G01 F400 X76.767 Y70.854
G01 F400 X76.474 Y70.854
G01 F400 X76.416 Y70.835
G01 F400 X76.298 Y70.776
G01 F400 X76.260 Y70.742
G01 F400 X76.209 Y70.693
G01 F400 X76.161 Y70.609
G01 F400 X76.161 Y70.533
G01 F400 X76.153 Y70.555
G01 F400 X76.105 Y70.654
G01 F400 X76.077 Y70.692
G01 F400 X76.007 Y70.764
G01 F400 X75.965 Y70.786
G01 F400 X75.873 Y70.835
G01 F400 X75.814 Y70.854
G01 F400 X75.378 Y70.854
G01 F400 X75.305 Y70.830
G01 F400 X75.242 Y70.774
G01 F400 X75.208 Y70.697
G01 F400 X75.207 Y69.636
G01 F400 X75.237 Y69.541
G01 F400 X75.305 Y69.480
G01 F400 X75.385 Y69.454
G01 F400 X75.468 Y69.463
G01 F400 X75.541 Y69.505
G01 F400 X75.590 Y69.573
G01 F400 X75.605 Y69.642
G01 F400 X75.605 Y69.840
G01 F400 X75.823 Y69.528
G01 F400 X75.876 Y69.480
G01 F400 X75.956 Y69.454
G01 F400 X76.040 Y69.463
G01 F400 X76.112 Y69.505
G01 F400 X76.144 Y69.549
G01 F400 X76.175 Y69.505
G01 F400 X76.254 Y69.460
G01 F400 X76.957 Y69.456
G01 F400 X77.031 Y69.480
G01 F400 X77.093 Y69.537
G01 F400 X77.120 Y69.597
G01 F400 X77.147 Y69.537
G01 F400 X77.210 Y69.480
G01 F400 X77.283 Y69.457
G01 F400 X77.881 Y69.457
G01 F400 X77.944 Y69.463
G01 F400 X78.017 Y69.505
G01 F400 X78.066 Y69.573
G01 F400 X78.084 Y69.655
G01 F400 X78.066 Y69.737
G01 F400 X78.017 Y69.805
G01 F400 X77.939 Y69.850
G01 F400 X77.795 Y69.852
G01 F400 X77.795 Y70.668
G01 F400 X77.781 Y70.737
G01 F400 X77.731 Y70.805
G01 F400 X77.659 Y70.847
G01 F400 X77.575 Y70.856
G00 Z3.000
G00  X76.176 Y70.483
G01 F750 Z0
G01 F400 Z-0.100
G01 F400 X76.195 Y70.441
G01 F400 X76.257 Y70.385
G01 F400 X76.337 Y70.359
G01 F400 X76.421 Y70.368
G01 F400 X76.484 Y70.405
G01 F400 X76.524 Y70.444
G01 F400 X76.549 Y70.457
G01 F400 X76.692 Y70.457
G01 F400 X76.717 Y70.444
G01 F400 X76.718 Y70.443
G01 F400 X76.730 Y70.418
G01 F400 X76.730 Y70.401
G01 F400 X76.707 Y70.330
G01 F400 X76.166 Y69.792
G01 F400 X76.144 Y69.762
G01 F400 X75.976 Y70.003
G01 F400 X75.988 Y70.008
G01 F400 X76.079 Y70.094
G01 F400 X76.163 Y70.248
G01 F400 X76.176 Y70.309
G01 F400 X76.176 Y70.483
G00 Z3.000
G00  X75.605 Y70.457
G01 F750 Z0
G01 F400 Z-0.100
G01 F400 X75.739 Y70.457
G01 F400 X75.764 Y70.444
G01 F400 X75.766 Y70.442
G01 F400 X75.778 Y70.418
G01 F400 X75.778 Y70.368
G01 F400 X75.767 Y70.345
G01 F400 X75.764 Y70.343
G01 F400 X75.739 Y70.330
G01 F400 X75.605 Y70.330
G01 F400 X75.605 Y70.457
G00 Z3.000
G00  X77.120 Y70.316
G01 F750 Z0
G01 F400 Z-0.100
G01 F400 X77.126 Y70.287
G01 F400 X77.175 Y70.219
G01 F400 X77.248 Y70.178
G01 F400 X77.332 Y70.169
G01 F400 X77.395 Y70.189
G01 F400 X77.398 Y70.191
G01 F400 X77.397 Y69.854
G01 F400 X77.305 Y69.854
G01 F400 X77.215 Y69.835
G01 F400 X77.147 Y69.774
G01 F400 X77.120 Y69.713
G01 F400 X77.093 Y69.774
G01 F400 X77.031 Y69.830
G01 F400 X76.957 Y69.854
G01 F400 X76.789 Y69.854
G01 F400 X77.027 Y70.090
G01 F400 X77.062 Y70.139
G01 F400 X77.118 Y70.306
G01 F400 X77.120 Y70.316
G00 Z3.000
G00  X73.317 Y69.294
G01 F750 Z0
G01 F400 Z-0.100
G01 F400 X73.222 Y69.252
G01 F400 X73.167 Y69.156
G01 F400 X73.167 Y67.918
G01 F400 X72.548 Y67.924
G01 F400 X72.453 Y67.882
G01 F400 X72.394 Y67.780
G01 F400 X72.406 Y67.663
G01 F400 X72.485 Y67.575
G01 F400 X72.573 Y67.556
G01 F400 X73.166 Y67.556
G01 F400 X73.166 Y66.350
G01 F400 X73.190 Y66.277
G01 F400 X73.265 Y66.194
G01 F400 X79.923 Y66.186
G01 F400 X80.017 Y66.228
G01 F400 X80.073 Y66.324
G01 F400 X80.073 Y67.556
G01 F400 X80.693 Y67.556
G01 F400 X80.788 Y67.598
G01 F400 X80.846 Y67.700
G01 F400 X80.834 Y67.818
G01 F400 X80.755 Y67.905
G01 F400 X80.667 Y67.924
G01 F400 X80.074 Y67.924
G01 F400 X80.074 Y69.130
G01 F400 X80.050 Y69.203
G01 F400 X79.985 Y69.275
G01 F400 X79.897 Y69.294
G01 F400 X73.317 Y69.294
G00 Z3.000
G00  X113.485 Y69.244
G01 F750 Z0
G01 F400 Z-0.100
G01 F400 X113.405 Y69.218
G01 F400 X113.338 Y69.157
G01 F400 X113.080 Y68.392
G01 F400 X113.066 Y68.329
G01 F400 X113.084 Y68.246
G01 F400 X113.133 Y68.178
G01 F400 X113.211 Y68.133
G01 F400 X113.546 Y68.131
G01 F400 X113.545 Y67.976
G01 F400 X113.576 Y67.881
G01 F400 X113.643 Y67.820
G01 F400 X113.723 Y67.794
G01 F400 X113.807 Y67.803
G01 F400 X113.879 Y67.845
G01 F400 X113.929 Y67.913
G01 F400 X113.943 Y67.982
G01 F400 X113.943 Y68.136
G01 F400 X113.950 Y68.136
G01 F400 X114.022 Y68.178
G01 F400 X114.072 Y68.246
G01 F400 X114.089 Y68.329
G01 F400 X114.072 Y68.411
G01 F400 X114.022 Y68.478
G01 F400 X113.944 Y68.524
G01 F400 X113.943 Y68.524
G01 F400 X113.943 Y68.675
G01 F400 X113.929 Y68.744
G01 F400 X113.879 Y68.812
G01 F400 X113.807 Y68.854
G01 F400 X113.723 Y68.863
G01 F400 X113.647 Y68.838
G01 F400 X113.695 Y68.979
G01 F400 X113.708 Y69.043
G01 F400 X113.691 Y69.125
G01 F400 X113.641 Y69.193
G01 F400 X113.569 Y69.235
G01 F400 X113.485 Y69.244
G00 Z3.000
G00  X112.247 Y69.196
G01 F750 Z0
G01 F400 Z-0.100
G01 F400 X112.167 Y69.170
G01 F400 X112.105 Y69.114
G01 F400 X112.071 Y69.037
G01 F400 X112.069 Y67.976
G01 F400 X112.100 Y67.881
G01 F400 X112.167 Y67.820
G01 F400 X112.247 Y67.794
G01 F400 X112.331 Y67.803
G01 F400 X112.403 Y67.845
G01 F400 X112.453 Y67.913
G01 F400 X112.467 Y67.982
G01 F400 X112.467 Y68.320
G01 F400 X112.641 Y68.320
G01 F400 X112.640 Y67.976
G01 F400 X112.671 Y67.881
G01 F400 X112.739 Y67.820
G01 F400 X112.818 Y67.794
G01 F400 X112.902 Y67.803
G01 F400 X112.975 Y67.845
G01 F400 X113.024 Y67.913
G01 F400 X113.039 Y67.982
G01 F400 X113.039 Y69.008
G01 F400 X113.024 Y69.077
G01 F400 X112.975 Y69.145
G01 F400 X112.902 Y69.187
G01 F400 X112.818 Y69.196
G01 F400 X112.739 Y69.170
G01 F400 X112.676 Y69.114
G01 F400 X112.642 Y69.037
G01 F400 X112.642 Y68.716
G01 F400 X112.467 Y68.716
G01 F400 X112.467 Y69.008
G01 F400 X112.453 Y69.077
G01 F400 X112.403 Y69.145
G01 F400 X112.331 Y69.187
G01 F400 X112.247 Y69.196
G00 Z3.000
G00  X-0.753 Y69.196
G01 F750 Z0
G01 F400 Z-0.100
G01 F400 X-0.833 Y69.170
G01 F400 X-0.895 Y69.114
G01 F400 X-0.929 Y69.037
G01 F400 X-0.931 Y67.976
G01 F400 X-0.900 Y67.881
G01 F400 X-0.833 Y67.820
G01 F400 X-0.753 Y67.794
G01 F400 X-0.669 Y67.803
G01 F400 X-0.597 Y67.845
G01 F400 X-0.547 Y67.913
G01 F400 X-0.533 Y67.982
G01 F400 X-0.533 Y68.320
G01 F400 X-0.359 Y68.320
G01 F400 X-0.360 Y67.976
G01 F400 X-0.329 Y67.881
G01 F400 X-0.261 Y67.820
G01 F400 X-0.182 Y67.794
G01 F400 X-0.098 Y67.803
G01 F400 X-0.025 Y67.845
G01 F400 X0.024 Y67.913
G01 F400 X0.039 Y67.982
G01 F400 X0.039 Y68.013
G01 F400 X0.056 Y67.975
G01 F400 X0.143 Y67.886
G01 F400 X0.277 Y67.816
G01 F400 X0.336 Y67.797
G01 F400 X0.648 Y67.797
G01 F400 X0.707 Y67.803
G01 F400 X0.853 Y67.875
G01 F400 X0.942 Y67.958
G01 F400 X1.026 Y68.112
G01 F400 X1.039 Y68.173
G01 F400 X1.039 Y68.443
G01 F400 X1.016 Y68.514
G01 F400 X0.967 Y68.614
G01 F400 X0.940 Y68.651
G01 F400 X0.875 Y68.718
G01 F400 X1.007 Y68.886
G01 F400 X1.037 Y68.953
G01 F400 X1.037 Y69.037
G01 F400 X1.003 Y69.114
G01 F400 X0.941 Y69.170
G01 F400 X0.867 Y69.194
G01 F400 X0.193 Y69.194
G01 F400 X0.120 Y69.170
G01 F400 X0.057 Y69.114
G01 F400 X0.029 Y69.052
G01 F400 X0.024 Y69.077
G01 F400 X-0.025 Y69.145
G01 F400 X-0.098 Y69.187
G01 F400 X-0.182 Y69.196
G01 F400 X-0.261 Y69.170
G01 F400 X-0.324 Y69.114
G01 F400 X-0.358 Y69.037
G01 F400 X-0.358 Y68.718
G01 F400 X-0.533 Y68.718
G01 F400 X-0.533 Y69.008
G01 F400 X-0.547 Y69.077
G01 F400 X-0.597 Y69.145
G01 F400 X-0.669 Y69.187
G01 F400 X-0.753 Y69.196
G00 Z3.000
G00  X73.534 Y68.926
G01 F750 Z0
G01 F400 Z-0.100
G01 F400 X79.707 Y68.926
G01 F400 X79.706 Y66.546
G01 F400 X73.533 Y66.554
G01 F400 X73.534 Y68.926
G00 Z3.000
G00  X0.039 Y68.918
G01 F750 Z0
G01 F400 Z-0.100
G01 F400 X0.057 Y68.877
G01 F400 X0.120 Y68.820
G01 F400 X0.193 Y68.797
G01 F400 X0.402 Y68.797
G01 F400 X0.340 Y68.726
G01 F400 X0.309 Y68.656
G01 F400 X0.309 Y68.572
G01 F400 X0.343 Y68.496
G01 F400 X0.405 Y68.439
G01 F400 X0.479 Y68.416
G01 F400 X0.602 Y68.416
G01 F400 X0.627 Y68.403
G01 F400 X0.628 Y68.401
G01 F400 X0.640 Y68.377
G01 F400 X0.640 Y68.231
G01 F400 X0.629 Y68.209
G01 F400 X0.627 Y68.206
G01 F400 X0.602 Y68.194
G01 F400 X0.411 Y68.194
G01 F400 X0.386 Y68.206
G01 F400 X0.347 Y68.246
G01 F400 X0.283 Y68.282
G01 F400 X0.199 Y68.291
G01 F400 X0.120 Y68.265
G01 F400 X0.057 Y68.209
G01 F400 X0.039 Y68.167
G01 F400 X0.039 Y68.918
G00 Z3.000
G00  X89.051 Y68.564
G01 F750 Z0
G01 F400 Z-0.100
G01 F400 X88.867 Y68.552
G01 F400 X88.684 Y68.527
G01 F400 X88.504 Y68.490
G01 F400 X88.314 Y68.439
G01 F400 X88.140 Y68.377
G01 F400 X87.971 Y68.304
G01 F400 X87.795 Y68.215
G01 F400 X87.637 Y68.119
G01 F400 X87.486 Y68.013
G01 F400 X87.333 Y67.890
G01 F400 X87.198 Y67.764
G01 F400 X87.072 Y67.630
G01 F400 X86.947 Y67.478
G01 F400 X86.840 Y67.327
G01 F400 X86.744 Y67.170
G01 F400 X86.653 Y66.995
G01 F400 X86.579 Y66.826
G01 F400 X86.511 Y66.636
G01 F400 X86.511 Y66.518
G01 F400 X86.595 Y66.425
G01 F400 X86.710 Y66.401
G01 F400 X86.827 Y66.453
G01 F400 X86.918 Y66.682
G01 F400 X86.987 Y66.840
G01 F400 X87.062 Y66.984
G01 F400 X87.145 Y67.120
G01 F400 X87.241 Y67.257
G01 F400 X87.346 Y67.384
G01 F400 X87.453 Y67.499
G01 F400 X87.576 Y67.614
G01 F400 X87.704 Y67.717
G01 F400 X87.832 Y67.807
G01 F400 X87.976 Y67.894
G01 F400 X88.124 Y67.970
G01 F400 X88.252 Y68.025
G01 F400 X88.425 Y68.088
G01 F400 X88.585 Y68.132
G01 F400 X88.739 Y68.163
G01 F400 X88.905 Y68.185
G01 F400 X89.070 Y68.196
G01 F400 X89.226 Y68.196
G01 F400 X89.393 Y68.184
G01 F400 X89.559 Y68.160
G01 F400 X89.710 Y68.128
G01 F400 X89.872 Y68.082
G01 F400 X90.030 Y68.025
G01 F400 X90.172 Y67.962
G01 F400 X90.319 Y67.885
G01 F400 X90.462 Y67.798
G01 F400 X90.589 Y67.707
G01 F400 X90.718 Y67.601
G01 F400 X90.858 Y67.469
G01 F400 X90.948 Y67.429
G01 F400 X91.063 Y67.454
G01 F400 X91.142 Y67.541
G01 F400 X91.154 Y67.658
G01 F400 X91.106 Y67.741
G01 F400 X90.962 Y67.877
G01 F400 X90.820 Y67.994
G01 F400 X90.659 Y68.109
G01 F400 X90.502 Y68.205
G01 F400 X90.339 Y68.291
G01 F400 X90.158 Y68.370
G01 F400 X89.985 Y68.433
G01 F400 X89.808 Y68.483
G01 F400 X89.615 Y68.524
G01 F400 X89.432 Y68.550
G01 F400 X89.248 Y68.563
G01 F400 X89.051 Y68.564
G00 Z3.000
G00  X113.547 Y68.541
G01 F750 Z0
G01 F400 Z-0.100
G01 F400 X113.547 Y68.526
G01 F400 X113.541 Y68.526
G01 F400 X113.547 Y68.541
G00 Z3.000
G00  X48.223 Y68.456
G01 F750 Z0
G01 F400 Z-0.100
G01 F400 X48.143 Y68.430
G01 F400 X48.089 Y68.381
G01 F400 X47.994 Y68.239
G01 F400 X47.936 Y68.181
G01 F400 X47.850 Y68.138
G01 F400 X47.795 Y68.088
G01 F400 X47.776 Y68.046
G01 F400 X47.776 Y68.077
G01 F400 X47.764 Y68.136
G01 F400 X47.701 Y68.261
G01 F400 X47.611 Y68.361
G01 F400 X47.564 Y68.388
G01 F400 X47.472 Y68.435
G01 F400 X47.414 Y68.454
G01 F400 X46.978 Y68.454
G01 F400 X46.905 Y68.430
G01 F400 X46.842 Y68.374
G01 F400 X46.808 Y68.297
G01 F400 X46.807 Y67.236
G01 F400 X46.837 Y67.141
G01 F400 X46.905 Y67.080
G01 F400 X46.985 Y67.054
G01 F400 X47.068 Y67.063
G01 F400 X47.141 Y67.105
G01 F400 X47.190 Y67.173
G01 F400 X47.205 Y67.242
G01 F400 X47.205 Y67.440
G01 F400 X47.423 Y67.128
G01 F400 X47.476 Y67.080
G01 F400 X47.556 Y67.054
G01 F400 X47.640 Y67.063
G01 F400 X47.712 Y67.105
G01 F400 X47.762 Y67.173
G01 F400 X47.767 Y67.199
G01 F400 X47.795 Y67.136
G01 F400 X47.857 Y67.080
G01 F400 X47.931 Y67.056
G01 F400 X48.528 Y67.056
G01 F400 X48.592 Y67.063
G01 F400 X48.665 Y67.105
G01 F400 X48.714 Y67.173
G01 F400 X48.731 Y67.255
G01 F400 X48.714 Y67.337
G01 F400 X48.665 Y67.405
G01 F400 X48.586 Y67.450
G01 F400 X48.443 Y67.451
G01 F400 X48.443 Y68.268
G01 F400 X48.428 Y68.337
G01 F400 X48.379 Y68.405
G01 F400 X48.306 Y68.447
G01 F400 X48.223 Y68.456
G00 Z3.000
G00  X48.835 Y68.454
G01 F750 Z0
G01 F400 Z-0.100
G01 F400 X48.762 Y68.430
G01 F400 X48.700 Y68.374
G01 F400 X48.665 Y68.297
G01 F400 X48.665 Y68.213
G01 F400 X48.700 Y68.136
G01 F400 X48.762 Y68.080
G01 F400 X48.835 Y68.056
G01 F400 X49.228 Y68.056
G01 F400 X48.914 Y67.323
G01 F400 X48.899 Y67.255
G01 F400 X48.916 Y67.173
G01 F400 X48.966 Y67.105
G01 F400 X49.039 Y67.063
G01 F400 X49.122 Y67.054
G01 F400 X49.202 Y67.080
G01 F400 X49.265 Y67.137
G01 F400 X49.720 Y68.193
G01 F400 X49.730 Y68.291
G01 F400 X49.693 Y68.374
G01 F400 X49.631 Y68.430
G01 F400 X49.557 Y68.454
G01 F400 X48.835 Y68.454
G00 Z3.000
G00  X47.205 Y68.056
G01 F750 Z0
G01 F400 Z-0.100
G01 F400 X47.339 Y68.056
G01 F400 X47.365 Y68.044
G01 F400 X47.365 Y68.043
G01 F400 X47.378 Y68.018
G01 F400 X47.378 Y67.969
G01 F400 X47.365 Y67.943
G01 F400 X47.339 Y67.930
G01 F400 X47.205 Y67.930
G01 F400 X47.205 Y68.056
G00 Z3.000
G00  X47.772 Y67.903
G01 F750 Z0
G01 F400 Z-0.100
G01 F400 X47.795 Y67.851
G01 F400 X47.857 Y67.795
G01 F400 X47.937 Y67.769
G01 F400 X48.016 Y67.777
G01 F400 X48.031 Y67.784
G01 F400 X48.040 Y67.453
G01 F400 X47.931 Y67.454
G01 F400 X47.857 Y67.430
G01 F400 X47.795 Y67.374
G01 F400 X47.767 Y67.312
G01 F400 X47.762 Y67.336
G01 F400 X47.576 Y67.603
G01 F400 X47.588 Y67.609
G01 F400 X47.623 Y67.642
G01 F400 X47.673 Y67.689
G01 F400 X47.701 Y67.727
G01 F400 X47.767 Y67.856
G01 F400 X47.772 Y67.903
G00 Z3.000
G00  X84.787 Y67.295
G01 F750 Z0
G01 F400 Z-0.100
G01 F400 X84.729 Y67.276
G01 F400 X84.622 Y67.222
G01 F400 X84.611 Y67.228
G01 F400 X84.518 Y67.276
G01 F400 X84.460 Y67.294
G01 F400 X84.358 Y67.294
G01 F400 X84.301 Y67.276
G01 F400 X84.182 Y67.216
G01 F400 X84.145 Y67.183
G01 F400 X84.092 Y67.132
G01 F400 X84.003 Y66.969
G01 F400 X83.995 Y66.697
G01 F400 X84.017 Y66.630
G01 F400 X84.070 Y66.519
G01 F400 X84.113 Y66.471
G01 F400 X84.135 Y66.447
G01 F400 X84.181 Y66.404
G01 F400 X84.301 Y66.344
G01 F400 X84.333 Y66.334
G01 F400 X84.301 Y66.323
G01 F400 X84.181 Y66.264
G01 F400 X84.094 Y66.182
G01 F400 X84.061 Y66.124
G01 F400 X84.009 Y66.026
G01 F400 X83.996 Y65.966
G01 F400 X83.996 Y65.695
G01 F400 X84.019 Y65.624
G01 F400 X84.067 Y65.525
G01 F400 X84.095 Y65.487
G01 F400 X84.168 Y65.412
G01 F400 X84.262 Y65.370
G01 F400 X84.352 Y65.380
G01 F400 X84.425 Y65.422
G01 F400 X84.475 Y65.490
G01 F400 X84.492 Y65.572
G01 F400 X84.474 Y65.654
G01 F400 X84.435 Y65.709
G01 F400 X84.403 Y65.740
G01 F400 X84.394 Y65.760
G01 F400 X84.394 Y65.906
G01 F400 X84.406 Y65.931
G01 F400 X84.408 Y65.932
G01 F400 X84.433 Y65.945
G01 F400 X84.447 Y65.945
G01 F400 X84.516 Y65.922
G01 F400 X85.068 Y65.369
G01 F400 X85.119 Y65.340
G01 F400 X85.112 Y65.326
G01 F400 X84.909 Y65.385
G01 F400 X84.860 Y65.390
G01 F400 X84.505 Y65.390
G01 F400 X84.261 Y65.329
G01 F400 X84.197 Y65.282
G01 F400 X84.092 Y65.179
G01 F400 X84.005 Y65.021
G01 F400 X83.997 Y64.944
G01 F400 X83.996 Y64.743
G01 F400 X84.019 Y64.672
G01 F400 X84.071 Y64.565
G01 F400 X84.214 Y64.413
G01 F400 X84.279 Y64.384
G01 F400 X84.488 Y64.329
G01 F400 X84.546 Y64.329
G01 F400 X84.867 Y64.326
G01 F400 X85.129 Y64.386
G01 F400 X85.190 Y64.432
G01 F400 X85.297 Y64.535
G01 F400 X85.381 Y64.688
G01 F400 X85.394 Y64.749
G01 F400 X85.394 Y64.973
G01 F400 X85.384 Y65.003
G01 F400 X85.392 Y65.011
G01 F400 X85.424 Y65.068
G01 F400 X85.476 Y65.165
G01 F400 X85.492 Y65.239
G01 F400 X85.475 Y65.321
G01 F400 X85.425 Y65.389
G01 F400 X85.366 Y65.423
G01 F400 X85.392 Y65.482
G01 F400 X85.394 Y66.156
G01 F400 X85.379 Y66.225
G01 F400 X85.330 Y66.293
G01 F400 X85.257 Y66.335
G01 F400 X85.174 Y66.344
G01 F400 X85.094 Y66.318
G01 F400 X85.032 Y66.262
G01 F400 X84.997 Y66.186
G01 F400 X84.997 Y66.003
G01 F400 X84.750 Y66.251
G01 F400 X84.698 Y66.281
G01 F400 X84.525 Y66.338
G01 F400 X84.505 Y66.339
G01 F400 X84.626 Y66.398
G01 F400 X84.636 Y66.393
G01 F400 X84.728 Y66.345
G01 F400 X84.786 Y66.326
G01 F400 X85.032 Y66.326
G01 F400 X85.089 Y66.344
G01 F400 X85.209 Y66.404
G01 F400 X85.291 Y66.481
G01 F400 X85.322 Y66.524
G01 F400 X85.381 Y66.643
G01 F400 X85.394 Y66.702
G01 F400 X85.394 Y66.918
G01 F400 X85.381 Y66.977
G01 F400 X85.322 Y67.096
G01 F400 X85.292 Y67.137
G01 F400 X85.226 Y67.203
G01 F400 X85.182 Y67.228
G01 F400 X85.084 Y67.279
G01 F400 X85.025 Y67.291
G01 F400 X84.787 Y67.295
G00 Z3.000
G00  X84.861 Y66.897
G01 F750 Z0
G01 F400 Z-0.100
G01 F400 X84.957 Y66.897
G01 F400 X84.983 Y66.884
G01 F400 X84.985 Y66.882
G01 F400 X84.997 Y66.857
G01 F400 X84.996 Y66.761
G01 F400 X84.983 Y66.736
G01 F400 X84.957 Y66.723
G01 F400 X84.859 Y66.723
G01 F400 X84.837 Y66.735
G01 F400 X84.834 Y66.738
G01 F400 X84.821 Y66.763
G01 F400 X84.822 Y66.859
G01 F400 X84.835 Y66.884
G01 F400 X84.861 Y66.897
G00 Z3.000
G00  X44.917 Y66.894
G01 F750 Z0
G01 F400 Z-0.100
G01 F400 X44.823 Y66.852
G01 F400 X44.767 Y66.756
G01 F400 X44.767 Y65.518
G01 F400 X44.148 Y65.524
G01 F400 X44.053 Y65.482
G01 F400 X43.994 Y65.380
G01 F400 X44.006 Y65.263
G01 F400 X44.085 Y65.175
G01 F400 X44.173 Y65.156
G01 F400 X44.766 Y65.156
G01 F400 X44.766 Y63.950
G01 F400 X44.790 Y63.877
G01 F400 X44.855 Y63.805
G01 F400 X44.943 Y63.786
G01 F400 X51.523 Y63.786
G01 F400 X51.617 Y63.828
G01 F400 X51.673 Y63.924
G01 F400 X51.673 Y65.156
G01 F400 X52.293 Y65.156
G01 F400 X52.388 Y65.198
G01 F400 X52.446 Y65.300
G01 F400 X52.434 Y65.418
G01 F400 X52.355 Y65.505
G01 F400 X52.267 Y65.524
G01 F400 X51.674 Y65.524
G01 F400 X51.674 Y66.730
G01 F400 X51.650 Y66.803
G01 F400 X51.585 Y66.875
G01 F400 X51.497 Y66.894
G01 F400 X44.917 Y66.894
G00 Z3.000
G00  X84.408 Y66.884
G01 F750 Z0
G01 F400 Z-0.100
G01 F400 X84.412 Y66.882
G01 F400 X84.425 Y66.856
G01 F400 X84.425 Y66.761
G01 F400 X84.413 Y66.738
G01 F400 X84.411 Y66.736
G01 F400 X84.406 Y66.738
G01 F400 X84.394 Y66.762
G01 F400 X84.394 Y66.858
G01 F400 X84.406 Y66.883
G01 F400 X84.408 Y66.884
G00 Z3.000
G00  X45.134 Y66.526
G01 F750 Z0
G01 F400 Z-0.100
G01 F400 X51.307 Y66.526
G01 F400 X51.306 Y64.146
G01 F400 X45.133 Y64.154
G01 F400 X45.134 Y66.526
G00 Z3.000
G00  X61.421 Y66.494
G01 F750 Z0
G01 F400 Z-0.100
G01 F400 X61.237 Y66.482
G01 F400 X61.054 Y66.457
G01 F400 X60.874 Y66.420
G01 F400 X60.684 Y66.369
G01 F400 X60.510 Y66.307
G01 F400 X60.341 Y66.234
G01 F400 X60.165 Y66.145
G01 F400 X60.007 Y66.049
G01 F400 X59.856 Y65.943
G01 F400 X59.703 Y65.820
G01 F400 X59.568 Y65.694
G01 F400 X59.442 Y65.560
G01 F400 X59.317 Y65.407
G01 F400 X59.210 Y65.257
G01 F400 X59.114 Y65.100
G01 F400 X59.023 Y64.925
G01 F400 X58.949 Y64.756
G01 F400 X58.881 Y64.566
G01 F400 X58.881 Y64.448
G01 F400 X58.965 Y64.355
G01 F400 X59.080 Y64.331
G01 F400 X59.197 Y64.383
G01 F400 X59.288 Y64.612
G01 F400 X59.357 Y64.770
G01 F400 X59.431 Y64.914
G01 F400 X59.468 Y64.974
G01 F400 X59.515 Y65.050
G01 F400 X59.611 Y65.187
G01 F400 X59.716 Y65.314
G01 F400 X59.823 Y65.429
G01 F400 X59.946 Y65.544
G01 F400 X60.074 Y65.647
G01 F400 X60.202 Y65.737
G01 F400 X60.346 Y65.824
G01 F400 X60.494 Y65.900
G01 F400 X60.622 Y65.955
G01 F400 X60.795 Y66.017
G01 F400 X60.955 Y66.062
G01 F400 X61.109 Y66.093
G01 F400 X61.275 Y66.115
G01 F400 X61.440 Y66.126
G01 F400 X61.596 Y66.126
G01 F400 X61.763 Y66.114
G01 F400 X61.929 Y66.090
G01 F400 X62.080 Y66.058
G01 F400 X62.242 Y66.012
G01 F400 X62.400 Y65.955
G01 F400 X62.542 Y65.892
G01 F400 X62.689 Y65.815
G01 F400 X62.832 Y65.728
G01 F400 X62.959 Y65.637
G01 F400 X63.088 Y65.531
G01 F400 X63.228 Y65.399
G01 F400 X63.318 Y65.359
G01 F400 X63.433 Y65.383
G01 F400 X63.512 Y65.471
G01 F400 X63.524 Y65.588
G01 F400 X63.476 Y65.671
G01 F400 X63.332 Y65.807
G01 F400 X63.190 Y65.924
G01 F400 X63.029 Y66.038
G01 F400 X62.872 Y66.135
G01 F400 X62.709 Y66.221
G01 F400 X62.528 Y66.300
G01 F400 X62.355 Y66.363
G01 F400 X62.178 Y66.413
G01 F400 X61.985 Y66.454
G01 F400 X61.802 Y66.480
G01 F400 X61.618 Y66.493
G01 F400 X61.421 Y66.494
G00 Z3.000
G00  X5.440 Y66.396
G01 F750 Z0
G01 F400 Z-0.100
G01 F400 X5.361 Y66.370
G01 F400 X5.298 Y66.314
G01 F400 X5.280 Y66.274
G01 F400 X5.263 Y66.298
G01 F400 X5.202 Y66.333
G01 F400 X5.029 Y66.390
G01 F400 X4.720 Y66.394
G01 F400 X4.663 Y66.375
G01 F400 X4.543 Y66.315
G01 F400 X4.456 Y66.234
G01 F400 X4.422 Y66.176
G01 F400 X4.370 Y66.078
G01 F400 X4.358 Y66.018
G01 F400 X4.358 Y65.890
G01 F400 X4.381 Y65.819
G01 F400 X4.429 Y65.720
G01 F400 X4.456 Y65.682
G01 F400 X4.527 Y65.610
G01 F400 X4.569 Y65.588
G01 F400 X4.664 Y65.538
G01 F400 X4.709 Y65.526
G01 F400 X4.867 Y65.484
G01 F400 X4.916 Y65.460
G01 F400 X4.919 Y65.456
G01 F400 X4.929 Y65.436
G01 F400 X4.929 Y65.431
G01 F400 X4.917 Y65.407
G01 F400 X4.890 Y65.394
G01 F400 X4.729 Y65.394
G01 F400 X4.607 Y65.436
G01 F400 X4.536 Y65.444
G01 F400 X4.456 Y65.418
G01 F400 X4.393 Y65.362
G01 F400 X4.359 Y65.285
G01 F400 X4.359 Y65.201
G01 F400 X4.393 Y65.124
G01 F400 X4.455 Y65.069
G01 F400 X4.655 Y65.000
G01 F400 X4.964 Y64.996
G01 F400 X5.022 Y65.015
G01 F400 X5.142 Y65.075
G01 F400 X5.174 Y65.105
G01 F400 X5.224 Y65.152
G01 F400 X5.252 Y65.191
G01 F400 X5.315 Y65.313
G01 F400 X5.327 Y65.373
G01 F400 X5.327 Y65.494
G01 F400 X5.315 Y65.553
G01 F400 X5.255 Y65.671
G01 F400 X5.225 Y65.713
G01 F400 X5.158 Y65.781
G01 F400 X5.020 Y65.853
G01 F400 X4.818 Y65.906
G01 F400 X4.770 Y65.930
G01 F400 X4.765 Y65.935
G01 F400 X4.756 Y65.954
G01 F400 X4.756 Y65.958
G01 F400 X4.768 Y65.982
G01 F400 X4.770 Y65.984
G01 F400 X4.795 Y65.996
G01 F400 X4.952 Y65.996
G01 F400 X5.085 Y65.952
G01 F400 X5.184 Y65.952
G01 F400 X5.263 Y65.998
G01 F400 X5.294 Y66.040
G01 F400 X5.508 Y65.140
G01 F400 X5.536 Y65.077
G01 F400 X5.599 Y65.020
G01 F400 X5.678 Y64.994
G01 F400 X5.762 Y65.003
G01 F400 X5.835 Y65.045
G01 F400 X5.882 Y65.110
G01 F400 X5.890 Y65.139
G01 F400 X5.890 Y65.138
G01 F400 X5.917 Y65.077
G01 F400 X5.980 Y65.020
G01 F400 X6.059 Y64.994
G01 F400 X6.143 Y65.003
G01 F400 X6.216 Y65.045
G01 F400 X6.264 Y65.112
G01 F400 X6.478 Y66.005
G01 F400 X6.489 Y65.981
G01 F400 X6.551 Y65.925
G01 F400 X6.631 Y65.899
G01 F400 X6.714 Y65.908
G01 F400 X6.778 Y65.945
G01 F400 X6.818 Y65.984
G01 F400 X6.842 Y65.996
G01 F400 X6.985 Y65.996
G01 F400 X7.010 Y65.984
G01 F400 X7.015 Y65.980
G01 F400 X7.024 Y65.960
G01 F400 X7.024 Y65.941
G01 F400 X7.002 Y65.875
G01 F400 X6.459 Y65.332
G01 F400 X6.420 Y65.277
G01 F400 X6.402 Y65.195
G01 F400 X6.420 Y65.113
G01 F400 X6.469 Y65.045
G01 F400 X6.548 Y65.000
G01 F400 X7.222 Y64.996
G01 F400 X7.286 Y65.003
G01 F400 X7.358 Y65.045
G01 F400 X7.408 Y65.113
G01 F400 X7.425 Y65.195
G01 F400 X7.408 Y65.277
G01 F400 X7.358 Y65.345
G01 F400 X7.280 Y65.390
G01 F400 X7.081 Y65.391
G01 F400 X7.320 Y65.630
G01 F400 X7.360 Y65.684
G01 F400 X7.370 Y65.732
G01 F400 X7.415 Y65.854
G01 F400 X7.423 Y66.021
G01 F400 X7.399 Y66.095
G01 F400 X7.351 Y66.195
G01 F400 X7.324 Y66.232
G01 F400 X7.253 Y66.304
G01 F400 X7.211 Y66.326
G01 F400 X7.103 Y66.383
G01 F400 X6.769 Y66.395
G01 F400 X6.710 Y66.375
G01 F400 X6.590 Y66.315
G01 F400 X6.510 Y66.240
G01 F400 X6.507 Y66.272
G01 F400 X6.454 Y66.345
G01 F400 X6.381 Y66.387
G01 F400 X6.298 Y66.396
G01 F400 X6.218 Y66.370
G01 F400 X6.155 Y66.314
G01 F400 X6.127 Y66.251
G01 F400 X6.067 Y65.998
G01 F400 X6.053 Y66.028
G01 F400 X5.986 Y66.089
G01 F400 X5.875 Y66.112
G01 F400 X5.789 Y66.084
G01 F400 X5.727 Y66.028
G01 F400 X5.713 Y65.997
G01 F400 X5.651 Y66.257
G01 F400 X5.603 Y66.342
G01 F400 X5.524 Y66.387
G01 F400 X5.440 Y66.396
G00 Z3.000
G00  X75.480 Y65.654
G01 F750 Z0
G01 F400 Z-0.100
G01 F400 X75.405 Y65.630
G01 F400 X75.342 Y65.574
G01 F400 X75.308 Y65.497
G01 F400 X75.307 Y64.436
G01 F400 X75.337 Y64.341
G01 F400 X75.405 Y64.280
G01 F400 X75.485 Y64.254
G01 F400 X75.568 Y64.263
G01 F400 X75.641 Y64.305
G01 F400 X75.690 Y64.373
G01 F400 X75.705 Y64.442
G01 F400 X75.705 Y64.640
G01 F400 X75.923 Y64.328
G01 F400 X75.976 Y64.280
G01 F400 X76.056 Y64.254
G01 F400 X76.139 Y64.263
G01 F400 X76.212 Y64.305
G01 F400 X76.244 Y64.349
G01 F400 X76.275 Y64.305
G01 F400 X76.354 Y64.260
G01 F400 X76.431 Y64.260
G01 F400 X77.057 Y64.256
G01 F400 X77.130 Y64.280
G01 F400 X77.193 Y64.337
G01 F400 X77.227 Y64.413
G01 F400 X77.227 Y64.497
G01 F400 X77.193 Y64.574
G01 F400 X77.130 Y64.630
G01 F400 X77.057 Y64.654
G01 F400 X76.889 Y64.654
G01 F400 X77.134 Y64.898
G01 F400 X77.169 Y64.969
G01 F400 X77.213 Y65.092
G01 F400 X77.211 Y64.822
G01 F400 X77.221 Y64.782
G01 F400 X77.267 Y64.590
G01 F400 X77.285 Y64.549
G01 F400 X77.333 Y64.450
G01 F400 X77.426 Y64.347
G01 F400 X77.563 Y64.276
G01 F400 X77.621 Y64.257
G01 F400 X77.748 Y64.257
G01 F400 X77.818 Y64.270
G01 F400 X77.948 Y64.335
G01 F400 X77.981 Y64.365
G01 F400 X78.030 Y64.412
G01 F400 X78.058 Y64.451
G01 F400 X78.120 Y64.571
G01 F400 X78.179 Y64.805
G01 F400 X78.181 Y65.087
G01 F400 X78.171 Y65.132
G01 F400 X78.125 Y65.322
G01 F400 X78.062 Y65.454
G01 F400 X78.032 Y65.496
G01 F400 X77.965 Y65.563
G01 F400 X77.922 Y65.588
G01 F400 X77.829 Y65.635
G01 F400 X77.771 Y65.654
G01 F400 X77.621 Y65.654
G01 F400 X77.564 Y65.635
G01 F400 X77.445 Y65.576
G01 F400 X77.408 Y65.542
G01 F400 X77.356 Y65.492
G01 F400 X77.273 Y65.341
G01 F400 X77.222 Y65.142
G01 F400 X77.229 Y65.275
G01 F400 X77.216 Y65.337
G01 F400 X77.157 Y65.455
G01 F400 X77.127 Y65.496
G01 F400 X77.061 Y65.563
G01 F400 X77.017 Y65.588
G01 F400 X76.924 Y65.635
G01 F400 X76.867 Y65.654
G01 F400 X76.574 Y65.654
G01 F400 X76.516 Y65.635
G01 F400 X76.398 Y65.576
G01 F400 X76.360 Y65.542
G01 F400 X76.309 Y65.493
G01 F400 X76.261 Y65.409
G01 F400 X76.261 Y65.333
G01 F400 X76.253 Y65.355
G01 F400 X76.205 Y65.455
G01 F400 X76.177 Y65.492
G01 F400 X76.107 Y65.564
G01 F400 X76.065 Y65.586
G01 F400 X75.956 Y65.644
G01 F400 X75.480 Y65.654
G00 Z3.000
G00  X20.794 Y65.554
G01 F750 Z0
G01 F400 Z-0.100
G01 F400 X20.721 Y65.530
G01 F400 X20.659 Y65.474
G01 F400 X20.625 Y65.397
G01 F400 X20.623 Y64.336
G01 F400 X20.654 Y64.241
G01 F400 X20.721 Y64.180
G01 F400 X20.801 Y64.154
G01 F400 X20.884 Y64.163
G01 F400 X20.957 Y64.205
G01 F400 X21.006 Y64.273
G01 F400 X21.021 Y64.342
G01 F400 X21.021 Y64.540
G01 F400 X21.239 Y64.228
G01 F400 X21.292 Y64.180
G01 F400 X21.372 Y64.154
G01 F400 X21.456 Y64.163
G01 F400 X21.528 Y64.205
G01 F400 X21.578 Y64.273
G01 F400 X21.595 Y64.355
G01 F400 X21.578 Y64.436
G01 F400 X21.392 Y64.703
G01 F400 X21.405 Y64.709
G01 F400 X21.495 Y64.794
G01 F400 X21.579 Y64.948
G01 F400 X21.592 Y65.009
G01 F400 X21.592 Y65.044
G01 F400 X21.598 Y65.026
G01 F400 X21.647 Y64.927
G01 F400 X21.647 Y64.927
G01 F400 X21.588 Y64.808
G01 F400 X21.575 Y64.749
G01 F400 X21.575 Y64.533
G01 F400 X21.588 Y64.474
G01 F400 X21.647 Y64.355
G01 F400 X21.677 Y64.314
G01 F400 X21.745 Y64.246
G01 F400 X21.879 Y64.175
G01 F400 X21.937 Y64.157
G01 F400 X22.183 Y64.157
G01 F400 X22.240 Y64.175
G01 F400 X22.360 Y64.235
G01 F400 X22.442 Y64.312
G01 F400 X22.473 Y64.355
G01 F400 X22.532 Y64.474
G01 F400 X22.545 Y64.533
G01 F400 X22.545 Y64.749
G01 F400 X22.532 Y64.808
G01 F400 X22.473 Y64.927
G01 F400 X22.470 Y64.930
G01 F400 X22.532 Y65.043
G01 F400 X22.545 Y65.104
G01 F400 X22.545 Y65.184
G01 F400 X22.522 Y65.255
G01 F400 X22.473 Y65.355
G01 F400 X22.446 Y65.392
G01 F400 X22.376 Y65.464
G01 F400 X22.333 Y65.486
G01 F400 X22.241 Y65.535
G01 F400 X22.183 Y65.554
G01 F400 X21.937 Y65.554
G01 F400 X21.880 Y65.535
G01 F400 X21.760 Y65.475
G01 F400 X21.672 Y65.392
G01 F400 X21.588 Y65.239
G01 F400 X21.583 Y65.214
G01 F400 X21.569 Y65.255
G01 F400 X21.521 Y65.355
G01 F400 X21.494 Y65.392
G01 F400 X21.423 Y65.464
G01 F400 X21.381 Y65.486
G01 F400 X21.289 Y65.535
G01 F400 X21.230 Y65.554
G01 F400 X20.794 Y65.554
G00 Z3.000
G00  X76.276 Y65.283
G01 F750 Z0
G01 F400 Z-0.100
G01 F400 X76.295 Y65.241
G01 F400 X76.357 Y65.185
G01 F400 X76.437 Y65.159
G01 F400 X76.520 Y65.168
G01 F400 X76.585 Y65.205
G01 F400 X76.624 Y65.244
G01 F400 X76.648 Y65.257
G01 F400 X76.791 Y65.257
G01 F400 X76.817 Y65.244
G01 F400 X76.818 Y65.242
G01 F400 X76.831 Y65.217
G01 F400 X76.831 Y65.202
G01 F400 X76.808 Y65.135
G01 F400 X76.266 Y64.592
G01 F400 X76.244 Y64.562
G01 F400 X76.076 Y64.803
G01 F400 X76.088 Y64.809
G01 F400 X76.178 Y64.893
G01 F400 X76.211 Y64.951
G01 F400 X76.264 Y65.049
G01 F400 X76.276 Y65.109
G01 F400 X76.276 Y65.283
G00 Z3.000
G00  X77.696 Y65.257
G01 F750 Z0
G01 F400 Z-0.100
G01 F400 X77.696 Y65.257
G01 F400 X77.721 Y65.244
G01 F400 X77.723 Y65.242
G01 F400 X77.746 Y65.195
G01 F400 X77.783 Y65.050
G01 F400 X77.783 Y64.861
G01 F400 X77.746 Y64.715
G01 F400 X77.723 Y64.667
G01 F400 X77.696 Y64.654
G01 F400 X77.696 Y64.654
G01 F400 X77.671 Y64.666
G01 F400 X77.669 Y64.668
G01 F400 X77.646 Y64.715
G01 F400 X77.610 Y64.861
G01 F400 X77.610 Y65.054
G01 F400 X77.646 Y65.195
G01 F400 X77.669 Y65.242
G01 F400 X77.671 Y65.244
G01 F400 X77.696 Y65.257
G00 Z3.000
G00  X75.705 Y65.257
G01 F750 Z0
G01 F400 Z-0.100
G01 F400 X75.839 Y65.257
G01 F400 X75.864 Y65.244
G01 F400 X75.869 Y65.240
G01 F400 X75.878 Y65.220
G01 F400 X75.878 Y65.169
G01 F400 X75.866 Y65.144
G01 F400 X75.864 Y65.143
G01 F400 X75.839 Y65.130
G01 F400 X75.705 Y65.130
G01 F400 X75.705 Y65.257
G00 Z3.000
G00  X57.109 Y65.224
G01 F750 Z0
G01 F400 Z-0.100
G01 F400 X57.052 Y65.206
G01 F400 X56.933 Y65.147
G01 F400 X56.896 Y65.113
G01 F400 X56.843 Y65.062
G01 F400 X56.764 Y64.917
G01 F400 X56.764 Y64.991
G01 F400 X56.749 Y65.060
G01 F400 X56.700 Y65.128
G01 F400 X56.627 Y65.170
G01 F400 X56.544 Y65.179
G01 F400 X56.464 Y65.153
G01 F400 X56.402 Y65.097
G01 F400 X56.367 Y65.020
G01 F400 X56.366 Y64.489
G01 F400 X56.380 Y64.420
G01 F400 X56.430 Y64.352
G01 F400 X56.503 Y64.310
G01 F400 X57.033 Y64.255
G01 F400 X57.103 Y64.262
G01 F400 X57.176 Y64.304
G01 F400 X57.225 Y64.372
G01 F400 X57.243 Y64.454
G01 F400 X57.225 Y64.536
G01 F400 X57.186 Y64.591
G01 F400 X57.157 Y64.620
G01 F400 X57.145 Y64.644
G01 F400 X57.145 Y64.788
G01 F400 X57.157 Y64.813
G01 F400 X57.159 Y64.815
G01 F400 X57.184 Y64.827
G01 F400 X57.327 Y64.827
G01 F400 X57.352 Y64.815
G01 F400 X57.354 Y64.813
G01 F400 X57.367 Y64.786
G01 F400 X57.366 Y64.645
G01 F400 X57.353 Y64.620
G01 F400 X57.320 Y64.586
G01 F400 X57.272 Y64.503
G01 F400 X57.272 Y64.412
G01 F400 X57.306 Y64.336
G01 F400 X57.369 Y64.279
G01 F400 X57.449 Y64.254
G01 F400 X57.495 Y64.258
G01 F400 X57.464 Y64.248
G01 F400 X57.402 Y64.192
G01 F400 X57.367 Y64.115
G01 F400 X57.367 Y63.933
G01 F400 X57.112 Y64.188
G01 F400 X56.898 Y64.268
G01 F400 X56.729 Y64.273
G01 F400 X56.671 Y64.253
G01 F400 X56.552 Y64.194
G01 F400 X56.515 Y64.160
G01 F400 X56.462 Y64.110
G01 F400 X56.373 Y63.947
G01 F400 X56.365 Y63.627
G01 F400 X56.387 Y63.561
G01 F400 X56.440 Y63.449
G01 F400 X56.483 Y63.401
G01 F400 X56.505 Y63.377
G01 F400 X56.558 Y63.328
G01 F400 X56.639 Y63.301
G01 F400 X56.722 Y63.310
G01 F400 X56.795 Y63.352
G01 F400 X56.845 Y63.420
G01 F400 X56.862 Y63.502
G01 F400 X56.844 Y63.584
G01 F400 X56.805 Y63.639
G01 F400 X56.776 Y63.667
G01 F400 X56.764 Y63.692
G01 F400 X56.764 Y63.836
G01 F400 X56.776 Y63.860
G01 F400 X56.778 Y63.862
G01 F400 X56.803 Y63.875
G01 F400 X56.817 Y63.875
G01 F400 X56.886 Y63.852
G01 F400 X57.438 Y63.299
G01 F400 X57.489 Y63.270
G01 F400 X57.486 Y63.264
G01 F400 X57.484 Y63.265
G01 F400 X57.438 Y63.270
G01 F400 X57.272 Y63.316
G01 F400 X56.876 Y63.320
G01 F400 X56.631 Y63.259
G01 F400 X56.574 Y63.217
G01 F400 X56.464 Y63.111
G01 F400 X56.431 Y63.054
G01 F400 X56.379 Y62.956
G01 F400 X56.366 Y62.896
G01 F400 X56.366 Y62.673
G01 F400 X56.389 Y62.602
G01 F400 X56.437 Y62.503
G01 F400 X56.465 Y62.465
G01 F400 X56.586 Y62.342
G01 F400 X56.659 Y62.310
G01 F400 X56.859 Y62.259
G01 F400 X57.237 Y62.256
G01 F400 X57.491 Y62.314
G01 F400 X57.548 Y62.347
G01 F400 X57.667 Y62.465
G01 F400 X57.699 Y62.521
G01 F400 X57.751 Y62.619
G01 F400 X57.764 Y62.679
G01 F400 X57.764 Y62.903
G01 F400 X57.754 Y62.933
G01 F400 X57.763 Y62.943
G01 F400 X57.846 Y63.095
G01 F400 X57.862 Y63.169
G01 F400 X57.845 Y63.251
G01 F400 X57.795 Y63.319
G01 F400 X57.736 Y63.353
G01 F400 X57.762 Y63.412
G01 F400 X57.764 Y64.086
G01 F400 X57.749 Y64.155
G01 F400 X57.700 Y64.223
G01 F400 X57.627 Y64.265
G01 F400 X57.551 Y64.273
G01 F400 X57.596 Y64.299
G01 F400 X57.662 Y64.365
G01 F400 X57.689 Y64.402
G01 F400 X57.757 Y64.535
G01 F400 X57.764 Y64.847
G01 F400 X57.751 Y64.907
G01 F400 X57.692 Y65.026
G01 F400 X57.662 Y65.067
G01 F400 X57.596 Y65.133
G01 F400 X57.552 Y65.159
G01 F400 X57.460 Y65.206
G01 F400 X57.402 Y65.224
G01 F400 X57.109 Y65.224
G00 Z3.000
G00  X86.670 Y65.179
G01 F750 Z0
G01 F400 Z-0.100
G01 F400 X86.563 Y65.132
G01 F400 X86.504 Y65.030
G01 F400 X86.513 Y64.937
G01 F400 X86.582 Y64.754
G01 F400 X86.658 Y64.586
G01 F400 X86.745 Y64.424
G01 F400 X86.849 Y64.257
G01 F400 X86.958 Y64.108
G01 F400 X87.076 Y63.967
G01 F400 X87.212 Y63.824
G01 F400 X87.348 Y63.700
G01 F400 X87.493 Y63.586
G01 F400 X87.655 Y63.475
G01 F400 X87.814 Y63.381
G01 F400 X87.978 Y63.298
G01 F400 X88.159 Y63.222
G01 F400 X88.334 Y63.162
G01 F400 X88.512 Y63.115
G01 F400 X88.705 Y63.077
G01 F400 X88.888 Y63.054
G01 F400 X89.071 Y63.043
G01 F400 X89.268 Y63.045
G01 F400 X89.452 Y63.060
G01 F400 X89.634 Y63.087
G01 F400 X89.826 Y63.129
G01 F400 X90.003 Y63.180
G01 F400 X90.176 Y63.244
G01 F400 X90.356 Y63.324
G01 F400 X90.519 Y63.410
G01 F400 X90.675 Y63.507
G01 F400 X90.825 Y63.615
G01 F400 X90.977 Y63.739
G01 F400 X91.120 Y63.876
G01 F400 X91.168 Y63.959
G01 F400 X91.156 Y64.076
G01 F400 X91.077 Y64.163
G01 F400 X90.962 Y64.188
G01 F400 X90.872 Y64.147
G01 F400 X90.732 Y64.015
G01 F400 X90.603 Y63.908
G01 F400 X90.477 Y63.818
G01 F400 X90.335 Y63.729
G01 F400 X90.187 Y63.651
G01 F400 X90.035 Y63.583
G01 F400 X89.890 Y63.531
G01 F400 X89.729 Y63.484
G01 F400 X89.577 Y63.451
G01 F400 X89.410 Y63.426
G01 F400 X89.245 Y63.413
G01 F400 X89.087 Y63.411
G01 F400 X88.922 Y63.420
G01 F400 X88.744 Y63.441
G01 F400 X88.604 Y63.469
G01 F400 X88.454 Y63.508
G01 F400 X88.297 Y63.559
G01 F400 X88.272 Y63.568
G01 F400 X88.153 Y63.616
G01 F400 X87.994 Y63.702
G01 F400 X87.849 Y63.788
G01 F400 X87.717 Y63.878
G01 F400 X87.589 Y63.980
G01 F400 X87.466 Y64.091
G01 F400 X87.354 Y64.208
G01 F400 X87.251 Y64.331
G01 F400 X87.152 Y64.466
G01 F400 X87.066 Y64.604
G01 F400 X86.991 Y64.743
G01 F400 X86.921 Y64.897
G01 F400 X86.853 Y65.080
G01 F400 X86.785 Y65.155
G01 F400 X86.670 Y65.179
G00 Z3.000
G00  X22.012 Y65.157
G01 F750 Z0
G01 F400 Z-0.100
G01 F400 X22.108 Y65.157
G01 F400 X22.133 Y65.144
G01 F400 X22.134 Y65.142
G01 F400 X22.135 Y65.141
G01 F400 X22.135 Y65.140
G01 F400 X22.133 Y65.138
G01 F400 X22.108 Y65.125
G01 F400 X22.012 Y65.125
G01 F400 X21.987 Y65.138
G01 F400 X21.986 Y65.139
G01 F400 X21.985 Y65.141
G01 F400 X21.985 Y65.142
G01 F400 X21.988 Y65.144
G01 F400 X22.012 Y65.157
G00 Z3.000
G00  X21.021 Y65.157
G01 F750 Z0
G01 F400 Z-0.100
G01 F400 X21.155 Y65.157
G01 F400 X21.180 Y65.144
G01 F400 X21.182 Y65.142
G01 F400 X21.194 Y65.118
G01 F400 X21.194 Y65.068
G01 F400 X21.183 Y65.045
G01 F400 X21.180 Y65.043
G01 F400 X21.155 Y65.030
G01 F400 X21.021 Y65.030
G01 F400 X21.021 Y65.157
G00 Z3.000
G00  X0.158 Y65.074
G01 F750 Z0
G01 F400 Z-0.100
G01 F400 X0.063 Y65.032
G01 F400 X0.007 Y64.936
G01 F400 X0.006 Y63.534
G01 F400 X-1.463 Y63.534
G01 F400 X-1.558 Y63.492
G01 F400 X-1.613 Y63.396
G01 F400 X-1.614 Y61.710
G01 F400 X-1.590 Y61.637
G01 F400 X-1.525 Y61.565
G01 F400 X-1.437 Y61.546
G01 F400 X0.246 Y61.546
G01 F400 X0.246 Y60.397
G01 F400 X0.320 Y60.268
G01 F400 X0.423 Y60.246
G01 F400 X11.383 Y60.246
G01 F400 X11.478 Y60.288
G01 F400 X11.533 Y60.384
G01 F400 X11.534 Y64.683
G01 F400 X11.460 Y64.812
G01 F400 X11.357 Y64.834
G01 F400 X1.750 Y64.834
G01 F400 X1.759 Y64.850
G01 F400 X1.747 Y64.968
G01 F400 X1.659 Y65.066
G01 F400 X0.158 Y65.074
G00 Z3.000
G00  X84.554 Y64.992
G01 F750 Z0
G01 F400 Z-0.100
G01 F400 X84.825 Y64.992
G01 F400 X84.770 Y64.882
G01 F400 X84.758 Y64.823
G01 F400 X84.758 Y64.723
G01 F400 X84.553 Y64.723
G01 F400 X84.439 Y64.752
G01 F400 X84.406 Y64.785
G01 F400 X84.394 Y64.809
G01 F400 X84.394 Y64.906
G01 F400 X84.406 Y64.931
G01 F400 X84.439 Y64.964
G01 F400 X84.554 Y64.992
G00 Z3.000
G00  X22.012 Y64.728
G01 F750 Z0
G01 F400 Z-0.100
G01 F400 X22.108 Y64.728
G01 F400 X22.134 Y64.715
G01 F400 X22.136 Y64.713
G01 F400 X22.148 Y64.688
G01 F400 X22.147 Y64.592
G01 F400 X22.135 Y64.569
G01 F400 X22.133 Y64.566
G01 F400 X22.108 Y64.554
G01 F400 X22.010 Y64.554
G01 F400 X21.988 Y64.565
G01 F400 X21.984 Y64.569
G01 F400 X21.972 Y64.594
G01 F400 X21.973 Y64.690
G01 F400 X21.985 Y64.713
G01 F400 X21.989 Y64.717
G01 F400 X22.012 Y64.728
G00 Z3.000
G00  X0.614 Y64.466
G01 F750 Z0
G01 F400 Z-0.100
G01 F400 X11.167 Y64.466
G01 F400 X11.166 Y60.606
G01 F400 X0.613 Y60.614
G01 F400 X0.613 Y61.730
G01 F400 X0.614 Y63.350
G01 F400 X0.614 Y64.466
G00 Z3.000
G00  X73.417 Y64.094
G01 F750 Z0
G01 F400 Z-0.100
G01 F400 X73.323 Y64.052
G01 F400 X73.267 Y63.956
G01 F400 X73.266 Y62.718
G01 F400 X72.648 Y62.724
G01 F400 X72.553 Y62.682
G01 F400 X72.494 Y62.580
G01 F400 X72.506 Y62.463
G01 F400 X72.585 Y62.375
G01 F400 X72.673 Y62.356
G01 F400 X73.266 Y62.356
G01 F400 X73.266 Y61.150
G01 F400 X73.290 Y61.077
G01 F400 X73.355 Y61.005
G01 F400 X73.443 Y60.986
G01 F400 X80.023 Y60.986
G01 F400 X80.118 Y61.028
G01 F400 X80.173 Y61.124
G01 F400 X80.173 Y62.356
G01 F400 X80.793 Y62.356
G01 F400 X80.888 Y62.398
G01 F400 X80.946 Y62.500
G01 F400 X80.934 Y62.617
G01 F400 X80.855 Y62.705
G01 F400 X80.767 Y62.724
G01 F400 X80.174 Y62.724
G01 F400 X80.174 Y63.930
G01 F400 X80.150 Y64.003
G01 F400 X80.085 Y64.075
G01 F400 X79.997 Y64.094
G01 F400 X73.417 Y64.094
G00 Z3.000
G00  X18.257 Y63.994
G01 F750 Z0
G01 F400 Z-0.100
G01 F400 X18.163 Y63.952
G01 F400 X18.107 Y63.856
G01 F400 X18.106 Y62.618
G01 F400 X17.507 Y62.624
G01 F400 X17.396 Y62.588
G01 F400 X17.334 Y62.480
G01 F400 X17.346 Y62.363
G01 F400 X17.434 Y62.265
G01 F400 X18.106 Y62.258
G01 F400 X18.106 Y61.050
G01 F400 X18.130 Y60.977
G01 F400 X18.195 Y60.905
G01 F400 X18.283 Y60.886
G01 F400 X24.863 Y60.886
G01 F400 X24.957 Y60.928
G01 F400 X25.013 Y61.024
G01 F400 X25.013 Y62.256
G01 F400 X25.633 Y62.256
G01 F400 X25.728 Y62.298
G01 F400 X25.786 Y62.400
G01 F400 X25.774 Y62.518
G01 F400 X25.695 Y62.605
G01 F400 X25.607 Y62.624
G01 F400 X25.014 Y62.624
G01 F400 X25.014 Y63.830
G01 F400 X24.990 Y63.903
G01 F400 X24.925 Y63.975
G01 F400 X24.837 Y63.994
G01 F400 X18.257 Y63.994
G00 Z3.000
G00  X73.634 Y63.726
G01 F750 Z0
G01 F400 Z-0.100
G01 F400 X79.807 Y63.726
G01 F400 X79.806 Y61.346
G01 F400 X73.634 Y61.354
G01 F400 X73.634 Y63.726
G00 Z3.000
G00  X48.243 Y63.656
G01 F750 Z0
G01 F400 Z-0.100
G01 F400 X48.163 Y63.630
G01 F400 X48.108 Y63.581
G01 F400 X48.012 Y63.436
G01 F400 X47.956 Y63.381
G01 F400 X47.870 Y63.338
G01 F400 X47.815 Y63.288
G01 F400 X47.796 Y63.245
G01 F400 X47.797 Y63.275
G01 F400 X47.784 Y63.337
G01 F400 X47.724 Y63.455
G01 F400 X47.694 Y63.496
G01 F400 X47.628 Y63.563
G01 F400 X47.584 Y63.588
G01 F400 X47.492 Y63.635
G01 F400 X47.434 Y63.654
G01 F400 X46.998 Y63.654
G01 F400 X46.925 Y63.630
G01 F400 X46.862 Y63.574
G01 F400 X46.828 Y63.497
G01 F400 X46.827 Y62.436
G01 F400 X46.857 Y62.341
G01 F400 X46.925 Y62.280
G01 F400 X47.005 Y62.254
G01 F400 X47.088 Y62.263
G01 F400 X47.161 Y62.305
G01 F400 X47.210 Y62.373
G01 F400 X47.225 Y62.442
G01 F400 X47.225 Y62.640
G01 F400 X47.443 Y62.328
G01 F400 X47.496 Y62.280
G01 F400 X47.576 Y62.254
G01 F400 X47.660 Y62.263
G01 F400 X47.732 Y62.305
G01 F400 X47.782 Y62.373
G01 F400 X47.787 Y62.399
G01 F400 X47.815 Y62.337
G01 F400 X47.877 Y62.280
G01 F400 X47.951 Y62.257
G01 F400 X48.548 Y62.257
G01 F400 X48.612 Y62.263
G01 F400 X48.685 Y62.305
G01 F400 X48.734 Y62.373
G01 F400 X48.751 Y62.455
G01 F400 X48.734 Y62.537
G01 F400 X48.685 Y62.605
G01 F400 X48.606 Y62.650
G01 F400 X48.463 Y62.651
G01 F400 X48.463 Y63.468
G01 F400 X48.448 Y63.537
G01 F400 X48.399 Y63.605
G01 F400 X48.326 Y63.647
G01 F400 X48.243 Y63.656
G00 Z3.000
G00  X49.190 Y63.654
G01 F750 Z0
G01 F400 Z-0.100
G01 F400 X49.132 Y63.635
G01 F400 X49.013 Y63.576
G01 F400 X48.976 Y63.542
G01 F400 X48.928 Y63.496
G01 F400 X48.809 Y63.322
G01 F400 X48.787 Y63.273
G01 F400 X48.733 Y63.058
G01 F400 X48.732 Y62.889
G01 F400 X48.731 Y62.633
G01 F400 X48.744 Y62.574
G01 F400 X48.803 Y62.455
G01 F400 X48.833 Y62.414
G01 F400 X48.901 Y62.346
G01 F400 X49.035 Y62.276
G01 F400 X49.093 Y62.257
G01 F400 X49.339 Y62.257
G01 F400 X49.396 Y62.275
G01 F400 X49.516 Y62.335
G01 F400 X49.598 Y62.412
G01 F400 X49.629 Y62.455
G01 F400 X49.689 Y62.574
G01 F400 X49.701 Y62.633
G01 F400 X49.701 Y62.897
G01 F400 X49.689 Y62.956
G01 F400 X49.629 Y63.074
G01 F400 X49.599 Y63.116
G01 F400 X49.531 Y63.183
G01 F400 X49.392 Y63.257
G01 F400 X49.405 Y63.257
G01 F400 X49.469 Y63.263
G01 F400 X49.542 Y63.305
G01 F400 X49.591 Y63.373
G01 F400 X49.608 Y63.455
G01 F400 X49.591 Y63.537
G01 F400 X49.542 Y63.605
G01 F400 X49.464 Y63.650
G01 F400 X49.190 Y63.654
G00 Z3.000
G00  X34.061 Y63.654
G01 F750 Z0
G01 F400 Z-0.100
G01 F400 X33.877 Y63.642
G01 F400 X33.694 Y63.617
G01 F400 X33.514 Y63.580
G01 F400 X33.324 Y63.529
G01 F400 X33.150 Y63.467
G01 F400 X32.980 Y63.394
G01 F400 X32.805 Y63.305
G01 F400 X32.647 Y63.209
G01 F400 X32.496 Y63.103
G01 F400 X32.343 Y62.980
G01 F400 X32.208 Y62.854
G01 F400 X32.082 Y62.720
G01 F400 X31.957 Y62.568
G01 F400 X31.850 Y62.417
G01 F400 X31.754 Y62.260
G01 F400 X31.663 Y62.085
G01 F400 X31.589 Y61.916
G01 F400 X31.521 Y61.726
G01 F400 X31.521 Y61.608
G01 F400 X31.605 Y61.515
G01 F400 X31.720 Y61.491
G01 F400 X31.837 Y61.543
G01 F400 X31.928 Y61.772
G01 F400 X31.997 Y61.930
G01 F400 X32.072 Y62.074
G01 F400 X32.154 Y62.210
G01 F400 X32.251 Y62.346
G01 F400 X32.356 Y62.474
G01 F400 X32.463 Y62.589
G01 F400 X32.586 Y62.704
G01 F400 X32.714 Y62.807
G01 F400 X32.842 Y62.897
G01 F400 X32.986 Y62.984
G01 F400 X33.134 Y63.060
G01 F400 X33.262 Y63.115
G01 F400 X33.435 Y63.178
G01 F400 X33.595 Y63.222
G01 F400 X33.749 Y63.253
G01 F400 X33.915 Y63.275
G01 F400 X34.080 Y63.286
G01 F400 X34.236 Y63.286
G01 F400 X34.403 Y63.274
G01 F400 X34.569 Y63.250
G01 F400 X34.720 Y63.218
G01 F400 X34.882 Y63.172
G01 F400 X35.040 Y63.115
G01 F400 X35.182 Y63.052
G01 F400 X35.329 Y62.975
G01 F400 X35.472 Y62.888
G01 F400 X35.599 Y62.797
G01 F400 X35.728 Y62.691
G01 F400 X35.868 Y62.559
G01 F400 X35.958 Y62.519
G01 F400 X36.073 Y62.544
G01 F400 X36.152 Y62.631
G01 F400 X36.164 Y62.748
G01 F400 X36.116 Y62.831
G01 F400 X35.972 Y62.967
G01 F400 X35.830 Y63.084
G01 F400 X35.669 Y63.199
G01 F400 X35.512 Y63.295
G01 F400 X35.349 Y63.381
G01 F400 X35.168 Y63.460
G01 F400 X34.995 Y63.523
G01 F400 X34.818 Y63.573
G01 F400 X34.625 Y63.614
G01 F400 X34.442 Y63.640
G01 F400 X34.258 Y63.653
G01 F400 X34.061 Y63.654
G00 Z3.000
G00  X18.474 Y63.626
G01 F750 Z0
G01 F400 Z-0.100
G01 F400 X24.647 Y63.626
G01 F400 X24.646 Y61.246
G01 F400 X18.474 Y61.254
G01 F400 X18.474 Y63.626
G00 Z3.000
G00  X47.225 Y63.257
G01 F750 Z0
G01 F400 Z-0.100
G01 F400 X47.359 Y63.257
G01 F400 X47.384 Y63.244
G01 F400 X47.386 Y63.242
G01 F400 X47.399 Y63.216
G01 F400 X47.399 Y63.170
G01 F400 X47.386 Y63.144
G01 F400 X47.384 Y63.143
G01 F400 X47.354 Y63.127
G01 F400 X47.276 Y63.128
G01 F400 X47.251 Y63.128
G01 F400 X47.225 Y63.128
G01 F400 X47.225 Y63.257
G00 Z3.000
G00  X-1.246 Y63.166
G01 F750 Z0
G01 F400 Z-0.100
G01 F400 X0.247 Y63.166
G01 F400 X0.246 Y61.907
G01 F400 X-1.247 Y61.913
G01 F400 X-1.246 Y63.166
G00 Z3.000
G00  X59.040 Y63.109
G01 F750 Z0
G01 F400 Z-0.100
G01 F400 X58.933 Y63.062
G01 F400 X58.874 Y62.960
G01 F400 X58.883 Y62.867
G01 F400 X58.952 Y62.684
G01 F400 X59.028 Y62.516
G01 F400 X59.115 Y62.354
G01 F400 X59.219 Y62.187
G01 F400 X59.328 Y62.038
G01 F400 X59.446 Y61.897
G01 F400 X59.582 Y61.754
G01 F400 X59.718 Y61.630
G01 F400 X59.863 Y61.516
G01 F400 X60.025 Y61.405
G01 F400 X60.184 Y61.311
G01 F400 X60.348 Y61.228
G01 F400 X60.529 Y61.152
G01 F400 X60.704 Y61.092
G01 F400 X60.882 Y61.045
G01 F400 X61.075 Y61.007
G01 F400 X61.258 Y60.984
G01 F400 X61.441 Y60.973
G01 F400 X61.638 Y60.975
G01 F400 X61.822 Y60.990
G01 F400 X62.004 Y61.017
G01 F400 X62.196 Y61.059
G01 F400 X62.373 Y61.110
G01 F400 X62.546 Y61.174
G01 F400 X62.726 Y61.254
G01 F400 X62.889 Y61.340
G01 F400 X63.045 Y61.437
G01 F400 X63.195 Y61.545
G01 F400 X63.347 Y61.669
G01 F400 X63.490 Y61.806
G01 F400 X63.538 Y61.889
G01 F400 X63.526 Y62.006
G01 F400 X63.447 Y62.093
G01 F400 X63.332 Y62.118
G01 F400 X63.242 Y62.077
G01 F400 X63.102 Y61.945
G01 F400 X62.974 Y61.839
G01 F400 X62.847 Y61.747
G01 F400 X62.705 Y61.659
G01 F400 X62.557 Y61.581
G01 F400 X62.416 Y61.518
G01 F400 X62.260 Y61.461
G01 F400 X62.099 Y61.414
G01 F400 X61.947 Y61.381
G01 F400 X61.781 Y61.356
G01 F400 X61.615 Y61.343
G01 F400 X61.447 Y61.341
G01 F400 X61.292 Y61.350
G01 F400 X61.126 Y61.370
G01 F400 X60.973 Y61.399
G01 F400 X60.826 Y61.437
G01 F400 X60.669 Y61.489
G01 F400 X60.521 Y61.548
G01 F400 X60.364 Y61.632
G01 F400 X60.219 Y61.717
G01 F400 X60.087 Y61.808
G01 F400 X59.959 Y61.910
G01 F400 X59.836 Y62.021
G01 F400 X59.720 Y62.142
G01 F400 X59.621 Y62.261
G01 F400 X59.523 Y62.395
G01 F400 X59.435 Y62.535
G01 F400 X59.361 Y62.674
G01 F400 X59.291 Y62.827
G01 F400 X59.223 Y63.010
G01 F400 X59.155 Y63.085
G01 F400 X59.040 Y63.109
G00 Z3.000
G00  X47.790 Y63.106
G01 F750 Z0
G01 F400 Z-0.100
G01 F400 X47.815 Y63.051
G01 F400 X47.877 Y62.995
G01 F400 X47.957 Y62.969
G01 F400 X48.036 Y62.977
G01 F400 X48.066 Y62.991
G01 F400 X48.065 Y62.653
G01 F400 X47.951 Y62.654
G01 F400 X47.877 Y62.630
G01 F400 X47.815 Y62.574
G01 F400 X47.787 Y62.512
G01 F400 X47.782 Y62.536
G01 F400 X47.596 Y62.803
G01 F400 X47.610 Y62.810
G01 F400 X47.643 Y62.842
G01 F400 X47.643 Y62.842
G01 F400 X47.693 Y62.889
G01 F400 X47.721 Y62.927
G01 F400 X47.789 Y63.059
G01 F400 X47.790 Y63.106
G00 Z3.000
G00  X56.924 Y62.922
G01 F750 Z0
G01 F400 Z-0.100
G01 F400 X57.196 Y62.922
G01 F400 X57.140 Y62.812
G01 F400 X57.128 Y62.753
G01 F400 X57.128 Y62.653
G01 F400 X56.924 Y62.653
G01 F400 X56.809 Y62.681
G01 F400 X56.773 Y62.718
G01 F400 X56.764 Y62.737
G01 F400 X56.764 Y62.836
G01 F400 X56.776 Y62.861
G01 F400 X56.809 Y62.894
G01 F400 X56.924 Y62.922
G00 Z3.000
G00  X49.168 Y62.876
G01 F750 Z0
G01 F400 Z-0.100
G01 F400 X49.264 Y62.876
G01 F400 X49.290 Y62.863
G01 F400 X49.292 Y62.861
G01 F400 X49.304 Y62.836
G01 F400 X49.303 Y62.692
G01 F400 X49.291 Y62.669
G01 F400 X49.289 Y62.666
G01 F400 X49.264 Y62.654
G01 F400 X49.166 Y62.654
G01 F400 X49.144 Y62.666
G01 F400 X49.141 Y62.669
G01 F400 X49.128 Y62.694
G01 F400 X49.129 Y62.836
G01 F400 X49.141 Y62.861
G01 F400 X49.144 Y62.864
G01 F400 X49.168 Y62.876
G00 Z3.000
G00  X29.374 Y62.386
G01 F750 Z0
G01 F400 Z-0.100
G01 F400 X29.311 Y62.366
G01 F400 X29.191 Y62.306
G01 F400 X29.104 Y62.224
G01 F400 X29.071 Y62.166
G01 F400 X29.019 Y62.069
G01 F400 X29.006 Y62.008
G01 F400 X29.006 Y61.785
G01 F400 X29.029 Y61.714
G01 F400 X29.077 Y61.615
G01 F400 X29.105 Y61.577
G01 F400 X29.175 Y61.505
G01 F400 X29.217 Y61.483
G01 F400 X29.320 Y61.429
G01 F400 X29.434 Y61.415
G01 F400 X29.501 Y61.422
G01 F400 X29.636 Y61.488
G01 F400 X29.738 Y61.435
G01 F400 X29.796 Y61.416
G01 F400 X30.042 Y61.416
G01 F400 X30.099 Y61.434
G01 F400 X30.219 Y61.494
G01 F400 X30.251 Y61.525
G01 F400 X30.301 Y61.572
G01 F400 X30.329 Y61.610
G01 F400 X30.391 Y61.732
G01 F400 X30.404 Y61.792
G01 F400 X30.404 Y62.008
G01 F400 X30.391 Y62.067
G01 F400 X30.332 Y62.186
G01 F400 X30.302 Y62.227
G01 F400 X30.234 Y62.295
G01 F400 X30.094 Y62.369
G01 F400 X30.036 Y62.381
G01 F400 X29.797 Y62.385
G01 F400 X29.739 Y62.366
G01 F400 X29.631 Y62.312
G01 F400 X29.621 Y62.317
G01 F400 X29.517 Y62.372
G01 F400 X29.374 Y62.386
G00 Z3.000
G00  X44.937 Y62.094
G01 F750 Z0
G01 F400 Z-0.100
G01 F400 X44.843 Y62.052
G01 F400 X44.787 Y61.956
G01 F400 X44.786 Y60.718
G01 F400 X44.168 Y60.724
G01 F400 X44.073 Y60.682
G01 F400 X44.014 Y60.580
G01 F400 X44.026 Y60.463
G01 F400 X44.105 Y60.375
G01 F400 X44.193 Y60.356
G01 F400 X44.786 Y60.356
G01 F400 X44.786 Y59.150
G01 F400 X44.810 Y59.077
G01 F400 X44.875 Y59.005
G01 F400 X44.963 Y58.986
G01 F400 X46.828 Y58.986
G01 F400 X46.827 Y58.036
G01 F400 X46.857 Y57.941
G01 F400 X46.925 Y57.880
G01 F400 X47.005 Y57.854
G01 F400 X47.088 Y57.863
G01 F400 X47.161 Y57.905
G01 F400 X47.210 Y57.973
G01 F400 X47.225 Y58.042
G01 F400 X47.225 Y58.240
G01 F400 X47.443 Y57.928
G01 F400 X47.496 Y57.880
G01 F400 X47.576 Y57.854
G01 F400 X47.660 Y57.863
G01 F400 X47.732 Y57.905
G01 F400 X47.782 Y57.973
G01 F400 X47.787 Y57.999
G01 F400 X47.815 Y57.937
G01 F400 X47.877 Y57.880
G01 F400 X47.951 Y57.857
G01 F400 X48.548 Y57.857
G01 F400 X48.612 Y57.863
G01 F400 X48.685 Y57.905
G01 F400 X48.734 Y57.973
G01 F400 X48.751 Y58.055
G01 F400 X48.734 Y58.137
G01 F400 X48.685 Y58.205
G01 F400 X48.606 Y58.250
G01 F400 X48.463 Y58.251
G01 F400 X48.463 Y58.986
G01 F400 X48.770 Y58.986
G01 F400 X48.741 Y58.932
G01 F400 X48.730 Y58.809
G01 F400 X48.744 Y58.745
G01 F400 X48.803 Y58.627
G01 F400 X48.744 Y58.508
G01 F400 X48.731 Y58.449
G01 F400 X48.731 Y58.233
G01 F400 X48.744 Y58.174
G01 F400 X48.803 Y58.055
G01 F400 X48.833 Y58.014
G01 F400 X48.901 Y57.946
G01 F400 X48.943 Y57.924
G01 F400 X49.035 Y57.876
G01 F400 X49.093 Y57.857
G01 F400 X49.339 Y57.857
G01 F400 X49.396 Y57.875
G01 F400 X49.516 Y57.935
G01 F400 X49.598 Y58.012
G01 F400 X49.629 Y58.055
G01 F400 X49.689 Y58.174
G01 F400 X49.701 Y58.233
G01 F400 X49.701 Y58.449
G01 F400 X49.689 Y58.508
G01 F400 X49.629 Y58.627
G01 F400 X49.629 Y58.627
G01 F400 X49.692 Y58.752
G01 F400 X49.702 Y58.873
G01 F400 X49.689 Y58.937
G01 F400 X49.664 Y58.986
G01 F400 X51.543 Y58.986
G01 F400 X51.638 Y59.028
G01 F400 X51.693 Y59.124
G01 F400 X51.693 Y60.356
G01 F400 X52.313 Y60.356
G01 F400 X52.408 Y60.398
G01 F400 X52.466 Y60.500
G01 F400 X52.454 Y60.617
G01 F400 X52.375 Y60.705
G01 F400 X52.287 Y60.724
G01 F400 X51.694 Y60.724
G01 F400 X51.694 Y61.930
G01 F400 X51.670 Y62.003
G01 F400 X51.605 Y62.075
G01 F400 X51.517 Y62.094
G01 F400 X44.937 Y62.094
G00 Z3.000
G00  X29.871 Y61.987
G01 F750 Z0
G01 F400 Z-0.100
G01 F400 X29.967 Y61.987
G01 F400 X29.993 Y61.974
G01 F400 X29.996 Y61.971
G01 F400 X30.006 Y61.950
G01 F400 X30.006 Y61.851
G01 F400 X29.993 Y61.826
G01 F400 X29.967 Y61.813
G01 F400 X29.869 Y61.813
G01 F400 X29.847 Y61.825
G01 F400 X29.842 Y61.829
G01 F400 X29.833 Y61.850
G01 F400 X29.833 Y61.950
G01 F400 X29.845 Y61.975
G01 F400 X29.845 Y61.975
G01 F400 X29.871 Y61.987
G00 Z3.000
G00  X29.418 Y61.974
G01 F750 Z0
G01 F400 Z-0.100
G01 F400 X29.423 Y61.972
G01 F400 X29.425 Y61.970
G01 F400 X29.434 Y61.950
G01 F400 X29.434 Y61.851
G01 F400 X29.423 Y61.828
G01 F400 X29.421 Y61.826
G01 F400 X29.415 Y61.828
G01 F400 X29.413 Y61.830
G01 F400 X29.404 Y61.850
G01 F400 X29.404 Y61.948
G01 F400 X29.416 Y61.973
G01 F400 X29.418 Y61.974
G00 Z3.000
G00  X45.154 Y61.726
G01 F750 Z0
G01 F400 Z-0.100
G01 F400 X51.327 Y61.726
G01 F400 X51.326 Y59.346
G01 F400 X45.154 Y59.354
G01 F400 X45.154 Y61.726
G00 Z3.000
G00  X89.051 Y61.564
G01 F750 Z0
G01 F400 Z-0.100
G01 F400 X88.867 Y61.552
G01 F400 X88.684 Y61.527
G01 F400 X88.504 Y61.490
G01 F400 X88.314 Y61.439
G01 F400 X88.140 Y61.377
G01 F400 X87.971 Y61.304
G01 F400 X87.795 Y61.215
G01 F400 X87.637 Y61.119
G01 F400 X87.486 Y61.013
G01 F400 X87.333 Y60.890
G01 F400 X87.198 Y60.764
G01 F400 X87.072 Y60.630
G01 F400 X86.947 Y60.478
G01 F400 X86.840 Y60.327
G01 F400 X86.744 Y60.170
G01 F400 X86.653 Y59.995
G01 F400 X86.579 Y59.826
G01 F400 X86.511 Y59.636
G01 F400 X86.511 Y59.518
G01 F400 X86.595 Y59.425
G01 F400 X86.710 Y59.401
G01 F400 X86.827 Y59.453
G01 F400 X86.918 Y59.682
G01 F400 X86.987 Y59.840
G01 F400 X87.062 Y59.984
G01 F400 X87.145 Y60.120
G01 F400 X87.241 Y60.256
G01 F400 X87.346 Y60.384
G01 F400 X87.453 Y60.499
G01 F400 X87.576 Y60.614
G01 F400 X87.704 Y60.717
G01 F400 X87.832 Y60.807
G01 F400 X87.976 Y60.894
G01 F400 X88.124 Y60.970
G01 F400 X88.252 Y61.025
G01 F400 X88.425 Y61.088
G01 F400 X88.585 Y61.132
G01 F400 X88.739 Y61.163
G01 F400 X88.905 Y61.185
G01 F400 X89.070 Y61.196
G01 F400 X89.226 Y61.196
G01 F400 X89.393 Y61.184
G01 F400 X89.559 Y61.160
G01 F400 X89.710 Y61.128
G01 F400 X89.872 Y61.082
G01 F400 X90.030 Y61.025
G01 F400 X90.172 Y60.962
G01 F400 X90.319 Y60.885
G01 F400 X90.462 Y60.798
G01 F400 X90.589 Y60.707
G01 F400 X90.718 Y60.601
G01 F400 X90.858 Y60.469
G01 F400 X90.948 Y60.429
G01 F400 X91.063 Y60.454
G01 F400 X91.142 Y60.541
G01 F400 X91.154 Y60.658
G01 F400 X91.106 Y60.741
G01 F400 X90.962 Y60.877
G01 F400 X90.820 Y60.994
G01 F400 X90.659 Y61.109
G01 F400 X90.502 Y61.205
G01 F400 X90.339 Y61.291
G01 F400 X90.158 Y61.370
G01 F400 X89.985 Y61.433
G01 F400 X89.808 Y61.483
G01 F400 X89.615 Y61.524
G01 F400 X89.432 Y61.550
G01 F400 X89.248 Y61.563
G01 F400 X89.051 Y61.564
G00 Z3.000
G00  X30.184 Y61.434
G01 F750 Z0
G01 F400 Z-0.100
G01 F400 X30.104 Y61.408
G01 F400 X30.042 Y61.352
G01 F400 X30.007 Y61.276
G01 F400 X30.007 Y61.146
G01 F400 X29.177 Y61.146
G01 F400 X29.104 Y61.122
G01 F400 X29.042 Y61.066
G01 F400 X29.007 Y60.990
G01 F400 X29.007 Y60.906
G01 F400 X29.042 Y60.829
G01 F400 X29.091 Y60.784
G01 F400 X29.223 Y60.696
G01 F400 X29.279 Y60.640
G01 F400 X29.316 Y60.567
G01 F400 X29.356 Y60.512
G01 F400 X29.428 Y60.470
G01 F400 X29.462 Y60.466
G01 F400 X29.271 Y60.419
G01 F400 X29.207 Y60.372
G01 F400 X29.102 Y60.269
G01 F400 X29.013 Y60.107
G01 F400 X29.005 Y59.835
G01 F400 X29.027 Y59.768
G01 F400 X29.080 Y59.657
G01 F400 X29.124 Y59.608
G01 F400 X29.225 Y59.503
G01 F400 X29.299 Y59.470
G01 F400 X29.499 Y59.419
G01 F400 X29.870 Y59.416
G01 F400 X29.913 Y59.420
G01 F400 X30.132 Y59.474
G01 F400 X30.197 Y59.512
G01 F400 X30.223 Y59.548
G01 F400 X30.306 Y59.624
G01 F400 X30.391 Y59.778
G01 F400 X30.404 Y59.839
G01 F400 X30.404 Y60.056
G01 F400 X30.396 Y60.095
G01 F400 X30.403 Y60.102
G01 F400 X30.486 Y60.255
G01 F400 X30.502 Y60.329
G01 F400 X30.485 Y60.411
G01 F400 X30.435 Y60.479
G01 F400 X30.362 Y60.521
G01 F400 X30.345 Y60.522
G01 F400 X30.368 Y60.543
G01 F400 X30.402 Y60.620
G01 F400 X30.403 Y60.943
G01 F400 X30.404 Y61.246
G01 F400 X30.389 Y61.315
G01 F400 X30.340 Y61.383
G01 F400 X30.267 Y61.425
G01 F400 X30.184 Y61.434
G00 Z3.000
G00  X109.794 Y61.284
G01 F750 Z0
G01 F400 Z-0.100
G01 F400 X109.754 Y61.283
G01 F400 X109.714 Y61.282
G01 F400 X109.675 Y61.280
G01 F400 X109.635 Y61.278
G01 F400 X109.595 Y61.274
G01 F400 X109.556 Y61.270
G01 F400 X109.516 Y61.265
G01 F400 X109.477 Y61.259
G01 F400 X109.437 Y61.253
G01 F400 X109.398 Y61.246
G01 F400 X109.359 Y61.238
G01 F400 X109.308 Y61.227
G01 F400 X109.269 Y61.217
G01 F400 X109.231 Y61.207
G01 F400 X109.159 Y61.187
G01 F400 X109.058 Y61.075
G01 F400 X109.072 Y60.943
G01 F400 X109.151 Y60.855
G01 F400 X109.266 Y60.831
G01 F400 X109.314 Y60.852
G01 F400 X109.334 Y60.856
G01 F400 X109.366 Y60.862
G01 F400 X109.405 Y60.874
G01 F400 X109.434 Y60.878
G01 F400 X109.477 Y60.889
G01 F400 X109.502 Y60.891
G01 F400 X109.546 Y60.901
G01 F400 X109.595 Y60.904
G01 F400 X109.642 Y60.910
G01 F400 X109.663 Y60.911
G01 F400 X109.703 Y60.913
G01 F400 X109.736 Y60.915
G01 F400 X109.770 Y60.916
G01 F400 X109.805 Y60.916
G01 F400 X109.879 Y60.915
G01 F400 X109.903 Y60.914
G01 F400 X109.941 Y60.912
G01 F400 X109.965 Y60.910
G01 F400 X110.002 Y60.904
G01 F400 X110.042 Y60.899
G01 F400 X110.079 Y60.896
G01 F400 X110.104 Y60.890
G01 F400 X110.142 Y60.883
G01 F400 X110.180 Y60.875
G01 F400 X110.219 Y60.868
G01 F400 X110.238 Y60.862
G01 F400 X110.325 Y60.837
G01 F400 X110.445 Y60.850
G01 F400 X110.529 Y60.942
G01 F400 X110.541 Y61.059
G01 F400 X110.478 Y61.169
G01 F400 X110.390 Y61.196
G01 F400 X110.338 Y61.216
G01 F400 X110.293 Y61.227
G01 F400 X110.252 Y61.236
G01 F400 X110.209 Y61.243
G01 F400 X110.166 Y61.253
G01 F400 X110.124 Y61.259
G01 F400 X110.083 Y61.265
G01 F400 X110.047 Y61.269
G01 F400 X110.007 Y61.274
G01 F400 X109.966 Y61.278
G01 F400 X109.925 Y61.280
G01 F400 X109.887 Y61.282
G01 F400 X109.847 Y61.283
G01 F400 X109.794 Y61.284
G00 Z3.000
G00  X77.548 Y60.755
G01 F750 Z0
G01 F400 Z-0.100
G01 F400 X77.489 Y60.735
G01 F400 X77.369 Y60.675
G01 F400 X77.282 Y60.594
G01 F400 X77.233 Y60.509
G01 F400 X77.233 Y60.432
G01 F400 X77.225 Y60.455
G01 F400 X77.177 Y60.555
G01 F400 X77.150 Y60.592
G01 F400 X77.080 Y60.664
G01 F400 X77.037 Y60.686
G01 F400 X76.945 Y60.735
G01 F400 X76.887 Y60.754
G01 F400 X76.594 Y60.754
G01 F400 X76.536 Y60.735
G01 F400 X76.416 Y60.675
G01 F400 X76.330 Y60.594
G01 F400 X76.281 Y60.509
G01 F400 X76.281 Y60.443
G01 F400 X76.224 Y60.555
G01 F400 X76.194 Y60.596
G01 F400 X76.128 Y60.663
G01 F400 X76.084 Y60.688
G01 F400 X75.992 Y60.735
G01 F400 X75.934 Y60.754
G01 F400 X75.498 Y60.754
G01 F400 X75.425 Y60.730
G01 F400 X75.362 Y60.674
G01 F400 X75.328 Y60.597
G01 F400 X75.327 Y59.536
G01 F400 X75.357 Y59.441
G01 F400 X75.425 Y59.380
G01 F400 X75.505 Y59.354
G01 F400 X75.588 Y59.363
G01 F400 X75.661 Y59.405
G01 F400 X75.710 Y59.473
G01 F400 X75.725 Y59.542
G01 F400 X75.725 Y59.740
G01 F400 X75.943 Y59.428
G01 F400 X75.996 Y59.380
G01 F400 X76.076 Y59.354
G01 F400 X76.160 Y59.363
G01 F400 X76.232 Y59.405
G01 F400 X76.264 Y59.449
G01 F400 X76.295 Y59.405
G01 F400 X76.374 Y59.360
G01 F400 X77.048 Y59.357
G01 F400 X77.112 Y59.363
G01 F400 X77.185 Y59.405
G01 F400 X77.216 Y59.449
G01 F400 X77.248 Y59.405
G01 F400 X77.326 Y59.360
G01 F400 X78.000 Y59.357
G01 F400 X78.064 Y59.363
G01 F400 X78.137 Y59.405
G01 F400 X78.186 Y59.473
G01 F400 X78.204 Y59.555
G01 F400 X78.186 Y59.637
G01 F400 X78.137 Y59.705
G01 F400 X78.059 Y59.750
G01 F400 X77.859 Y59.751
G01 F400 X78.099 Y59.990
G01 F400 X78.139 Y60.045
G01 F400 X78.149 Y60.092
G01 F400 X78.193 Y60.214
G01 F400 X78.202 Y60.381
G01 F400 X78.178 Y60.455
G01 F400 X78.130 Y60.555
G01 F400 X78.102 Y60.592
G01 F400 X78.032 Y60.664
G01 F400 X77.989 Y60.686
G01 F400 X77.882 Y60.743
G01 F400 X77.548 Y60.755
G00 Z3.000
G00  X30.006 Y60.744
G01 F750 Z0
G01 F400 Z-0.100
G01 F400 X30.006 Y60.649
G01 F400 X30.020 Y60.580
G01 F400 X30.070 Y60.512
G01 F400 X30.142 Y60.470
G01 F400 X30.160 Y60.468
G01 F400 X30.139 Y60.450
G01 F400 X30.122 Y60.415
G01 F400 X29.913 Y60.476
G01 F400 X29.568 Y60.479
G01 F400 X29.591 Y60.487
G01 F400 X29.654 Y60.543
G01 F400 X29.688 Y60.620
G01 F400 X29.688 Y60.706
G01 F400 X29.674 Y60.735
G01 F400 X30.006 Y60.744
G00 Z3.000
G00  X21.959 Y60.456
G01 F750 Z0
G01 F400 Z-0.100
G01 F400 X21.879 Y60.430
G01 F400 X21.825 Y60.381
G01 F400 X21.730 Y60.239
G01 F400 X21.672 Y60.181
G01 F400 X21.580 Y60.135
G01 F400 X21.512 Y60.059
G01 F400 X21.512 Y60.084
G01 F400 X21.489 Y60.155
G01 F400 X21.441 Y60.255
G01 F400 X21.414 Y60.292
G01 F400 X21.343 Y60.364
G01 F400 X21.301 Y60.386
G01 F400 X21.209 Y60.435
G01 F400 X21.150 Y60.454
G01 F400 X20.714 Y60.454
G01 F400 X20.641 Y60.430
G01 F400 X20.579 Y60.374
G01 F400 X20.544 Y60.297
G01 F400 X20.543 Y59.236
G01 F400 X20.573 Y59.141
G01 F400 X20.641 Y59.080
G01 F400 X20.721 Y59.054
G01 F400 X20.804 Y59.063
G01 F400 X20.877 Y59.105
G01 F400 X20.926 Y59.173
G01 F400 X20.941 Y59.242
G01 F400 X20.941 Y59.440
G01 F400 X21.159 Y59.128
G01 F400 X21.212 Y59.080
G01 F400 X21.292 Y59.054
G01 F400 X21.376 Y59.063
G01 F400 X21.448 Y59.105
G01 F400 X21.498 Y59.173
G01 F400 X21.503 Y59.199
G01 F400 X21.531 Y59.137
G01 F400 X21.593 Y59.080
G01 F400 X21.667 Y59.056
G01 F400 X22.264 Y59.056
G01 F400 X22.328 Y59.063
G01 F400 X22.401 Y59.105
G01 F400 X22.450 Y59.173
G01 F400 X22.468 Y59.255
G01 F400 X22.450 Y59.337
G01 F400 X22.401 Y59.405
G01 F400 X22.323 Y59.450
G01 F400 X22.179 Y59.451
G01 F400 X22.179 Y60.268
G01 F400 X22.164 Y60.337
G01 F400 X22.115 Y60.405
G01 F400 X22.042 Y60.447
G01 F400 X21.959 Y60.456
G00 Z3.000
G00  X76.294 Y60.388
G01 F750 Z0
G01 F400 Z-0.100
G01 F400 X76.315 Y60.341
G01 F400 X76.377 Y60.285
G01 F400 X76.457 Y60.259
G01 F400 X76.541 Y60.268
G01 F400 X76.605 Y60.305
G01 F400 X76.644 Y60.344
G01 F400 X76.669 Y60.357
G01 F400 X76.812 Y60.357
G01 F400 X76.837 Y60.344
G01 F400 X76.838 Y60.342
G01 F400 X76.850 Y60.318
G01 F400 X76.850 Y60.294
G01 F400 X76.830 Y60.236
G01 F400 X76.286 Y59.692
G01 F400 X76.264 Y59.662
G01 F400 X76.096 Y59.903
G01 F400 X76.109 Y59.909
G01 F400 X76.143 Y59.942
G01 F400 X76.143 Y59.942
G01 F400 X76.193 Y59.989
G01 F400 X76.221 Y60.027
G01 F400 X76.289 Y60.159
G01 F400 X76.297 Y60.375
G01 F400 X76.294 Y60.388
G00 Z3.000
G00  X77.249 Y60.383
G01 F750 Z0
G01 F400 Z-0.100
G01 F400 X77.267 Y60.341
G01 F400 X77.330 Y60.285
G01 F400 X77.409 Y60.259
G01 F400 X77.493 Y60.268
G01 F400 X77.557 Y60.305
G01 F400 X77.596 Y60.344
G01 F400 X77.621 Y60.357
G01 F400 X77.764 Y60.357
G01 F400 X77.789 Y60.344
G01 F400 X77.794 Y60.339
G01 F400 X77.803 Y60.320
G01 F400 X77.803 Y60.301
G01 F400 X77.781 Y60.235
G01 F400 X77.238 Y59.692
G01 F400 X77.216 Y59.662
G01 F400 X77.185 Y59.705
G01 F400 X77.106 Y59.750
G01 F400 X76.907 Y59.752
G01 F400 X77.154 Y59.998
G01 F400 X77.190 Y60.069
G01 F400 X77.238 Y60.205
G01 F400 X77.249 Y60.256
G01 F400 X77.249 Y60.383
G00 Z3.000
G00  X75.725 Y60.357
G01 F750 Z0
G01 F400 Z-0.100
G01 F400 X75.859 Y60.357
G01 F400 X75.884 Y60.344
G01 F400 X75.886 Y60.342
G01 F400 X75.899 Y60.316
G01 F400 X75.898 Y60.270
G01 F400 X75.886 Y60.244
G01 F400 X75.884 Y60.243
G01 F400 X75.854 Y60.227
G01 F400 X75.776 Y60.228
G01 F400 X75.725 Y60.228
G01 F400 X75.725 Y60.357
G00 Z3.000
G00  X84.174 Y60.344
G01 F750 Z0
G01 F400 Z-0.100
G01 F400 X84.094 Y60.318
G01 F400 X84.032 Y60.262
G01 F400 X83.997 Y60.185
G01 F400 X83.996 Y59.457
G01 F400 X84.026 Y59.363
G01 F400 X84.094 Y59.302
G01 F400 X84.174 Y59.276
G01 F400 X84.214 Y59.280
G01 F400 X84.181 Y59.264
G01 F400 X84.093 Y59.181
G01 F400 X84.009 Y59.027
G01 F400 X83.996 Y58.966
G01 F400 X83.996 Y58.695
G01 F400 X84.019 Y58.624
G01 F400 X84.067 Y58.525
G01 F400 X84.095 Y58.487
G01 F400 X84.168 Y58.412
G01 F400 X84.262 Y58.370
G01 F400 X84.352 Y58.380
G01 F400 X84.425 Y58.422
G01 F400 X84.475 Y58.490
G01 F400 X84.492 Y58.572
G01 F400 X84.474 Y58.654
G01 F400 X84.435 Y58.709
G01 F400 X84.406 Y58.737
G01 F400 X84.394 Y58.762
G01 F400 X84.394 Y58.907
G01 F400 X84.406 Y58.930
G01 F400 X84.408 Y58.932
G01 F400 X84.433 Y58.945
G01 F400 X84.451 Y58.945
G01 F400 X84.515 Y58.922
G01 F400 X85.068 Y58.369
G01 F400 X85.119 Y58.340
G01 F400 X85.112 Y58.325
G01 F400 X84.903 Y58.386
G01 F400 X84.506 Y58.390
G01 F400 X84.261 Y58.329
G01 F400 X84.197 Y58.282
G01 F400 X84.092 Y58.179
G01 F400 X84.003 Y58.017
G01 F400 X83.995 Y57.745
G01 F400 X84.017 Y57.678
G01 F400 X84.070 Y57.567
G01 F400 X84.114 Y57.518
G01 F400 X84.215 Y57.413
G01 F400 X84.289 Y57.380
G01 F400 X84.489 Y57.329
G01 F400 X84.860 Y57.326
G01 F400 X84.903 Y57.330
G01 F400 X85.122 Y57.384
G01 F400 X85.187 Y57.422
G01 F400 X85.213 Y57.458
G01 F400 X85.296 Y57.534
G01 F400 X85.381 Y57.688
G01 F400 X85.394 Y57.749
G01 F400 X85.394 Y57.966
G01 F400 X85.386 Y58.005
G01 F400 X85.392 Y58.012
G01 F400 X85.476 Y58.165
G01 F400 X85.492 Y58.239
G01 F400 X85.475 Y58.321
G01 F400 X85.425 Y58.389
G01 F400 X85.366 Y58.423
G01 F400 X85.392 Y58.482
G01 F400 X85.394 Y59.156
G01 F400 X85.379 Y59.225
G01 F400 X85.330 Y59.293
G01 F400 X85.257 Y59.335
G01 F400 X85.174 Y59.344
G01 F400 X85.094 Y59.318
G01 F400 X85.032 Y59.262
G01 F400 X84.998 Y59.186
G01 F400 X84.997 Y59.003
G01 F400 X84.742 Y59.258
G01 F400 X84.528 Y59.338
G01 F400 X84.359 Y59.343
G01 F400 X84.336 Y59.335
G01 F400 X84.379 Y59.395
G01 F400 X84.394 Y59.464
G01 F400 X84.394 Y59.842
G01 F400 X85.146 Y59.519
G01 F400 X85.251 Y59.519
G01 F400 X85.330 Y59.565
G01 F400 X85.379 Y59.633
G01 F400 X85.397 Y59.715
G01 F400 X85.379 Y59.797
G01 F400 X85.330 Y59.865
G01 F400 X85.274 Y59.897
G01 F400 X84.250 Y60.336
G01 F400 X84.174 Y60.344
G00 Z3.000
G00  X31.680 Y60.269
G01 F750 Z0
G01 F400 Z-0.100
G01 F400 X31.573 Y60.222
G01 F400 X31.514 Y60.120
G01 F400 X31.523 Y60.027
G01 F400 X31.592 Y59.844
G01 F400 X31.668 Y59.676
G01 F400 X31.755 Y59.514
G01 F400 X31.859 Y59.347
G01 F400 X31.968 Y59.198
G01 F400 X32.086 Y59.057
G01 F400 X32.222 Y58.914
G01 F400 X32.358 Y58.790
G01 F400 X32.503 Y58.676
G01 F400 X32.665 Y58.565
G01 F400 X32.824 Y58.471
G01 F400 X32.988 Y58.388
G01 F400 X33.169 Y58.312
G01 F400 X33.344 Y58.252
G01 F400 X33.522 Y58.205
G01 F400 X33.715 Y58.167
G01 F400 X33.898 Y58.144
G01 F400 X34.081 Y58.133
G01 F400 X34.278 Y58.135
G01 F400 X34.462 Y58.150
G01 F400 X34.644 Y58.177
G01 F400 X34.836 Y58.219
G01 F400 X35.013 Y58.270
G01 F400 X35.186 Y58.334
G01 F400 X35.366 Y58.414
G01 F400 X35.529 Y58.500
G01 F400 X35.685 Y58.597
G01 F400 X35.835 Y58.705
G01 F400 X35.987 Y58.829
G01 F400 X36.130 Y58.966
G01 F400 X36.178 Y59.049
G01 F400 X36.166 Y59.166
G01 F400 X36.087 Y59.253
G01 F400 X35.972 Y59.278
G01 F400 X35.882 Y59.237
G01 F400 X35.742 Y59.105
G01 F400 X35.614 Y58.998
G01 F400 X35.487 Y58.907
G01 F400 X35.345 Y58.819
G01 F400 X35.197 Y58.741
G01 F400 X35.056 Y58.678
G01 F400 X34.900 Y58.621
G01 F400 X34.739 Y58.574
G01 F400 X34.587 Y58.541
G01 F400 X34.421 Y58.516
G01 F400 X34.255 Y58.503
G01 F400 X34.087 Y58.501
G01 F400 X33.933 Y58.509
G01 F400 X33.766 Y58.530
G01 F400 X33.613 Y58.559
G01 F400 X33.466 Y58.597
G01 F400 X33.309 Y58.649
G01 F400 X33.161 Y58.708
G01 F400 X33.004 Y58.792
G01 F400 X32.859 Y58.877
G01 F400 X32.727 Y58.968
G01 F400 X32.599 Y59.070
G01 F400 X32.477 Y59.180
G01 F400 X32.360 Y59.302
G01 F400 X32.261 Y59.420
G01 F400 X32.163 Y59.555
G01 F400 X32.075 Y59.694
G01 F400 X32.001 Y59.834
G01 F400 X31.931 Y59.986
G01 F400 X31.863 Y60.170
G01 F400 X31.795 Y60.245
G01 F400 X31.680 Y60.269
G00 Z3.000
G00  X29.564 Y60.082
G01 F750 Z0
G01 F400 Z-0.100
G01 F400 X29.835 Y60.082
G01 F400 X29.780 Y59.972
G01 F400 X29.768 Y59.913
G01 F400 X29.768 Y59.811
G01 F400 X29.565 Y59.813
G01 F400 X29.449 Y59.842
G01 F400 X29.416 Y59.875
G01 F400 X29.404 Y59.899
G01 F400 X29.404 Y59.996
G01 F400 X29.416 Y60.021
G01 F400 X29.449 Y60.054
G01 F400 X29.564 Y60.082
G00 Z3.000
G00  X20.941 Y60.056
G01 F750 Z0
G01 F400 Z-0.100
G01 F400 X21.075 Y60.056
G01 F400 X21.100 Y60.044
G01 F400 X21.102 Y60.042
G01 F400 X21.114 Y60.018
G01 F400 X21.114 Y59.968
G01 F400 X21.103 Y59.945
G01 F400 X21.100 Y59.943
G01 F400 X21.075 Y59.930
G01 F400 X20.941 Y59.930
G01 F400 X20.941 Y60.056
G00 Z3.000
G00  X21.509 Y59.892
G01 F750 Z0
G01 F400 Z-0.100
G01 F400 X21.510 Y59.887
G01 F400 X21.559 Y59.819
G01 F400 X21.632 Y59.778
G01 F400 X21.715 Y59.769
G01 F400 X21.779 Y59.789
G01 F400 X21.782 Y59.791
G01 F400 X21.781 Y59.453
G01 F400 X21.667 Y59.454
G01 F400 X21.593 Y59.430
G01 F400 X21.531 Y59.374
G01 F400 X21.503 Y59.312
G01 F400 X21.498 Y59.336
G01 F400 X21.312 Y59.603
G01 F400 X21.325 Y59.608
G01 F400 X21.415 Y59.694
G01 F400 X21.499 Y59.848
G01 F400 X21.509 Y59.892
G00 Z3.000
G00  X107.900 Y59.884
G01 F750 Z0
G01 F400 Z-0.100
G01 F400 X107.793 Y59.836
G01 F400 X107.746 Y59.756
G01 F400 X107.732 Y59.704
G01 F400 X107.721 Y59.665
G01 F400 X107.712 Y59.627
G01 F400 X107.703 Y59.588
G01 F400 X107.695 Y59.549
G01 F400 X107.688 Y59.510
G01 F400 X107.682 Y59.470
G01 F400 X107.676 Y59.431
G01 F400 X107.671 Y59.391
G01 F400 X107.667 Y59.352
G01 F400 X107.662 Y59.299
G01 F400 X107.657 Y59.221
G01 F400 X107.656 Y59.180
G01 F400 X107.656 Y59.140
G01 F400 X107.656 Y59.100
G01 F400 X107.657 Y59.061
G01 F400 X107.659 Y59.021
G01 F400 X107.662 Y58.980
G01 F400 X107.671 Y58.890
G01 F400 X107.676 Y58.850
G01 F400 X107.682 Y58.810
G01 F400 X107.688 Y58.771
G01 F400 X107.695 Y58.732
G01 F400 X107.703 Y58.693
G01 F400 X107.712 Y58.654
G01 F400 X107.722 Y58.614
G01 F400 X107.733 Y58.575
G01 F400 X107.747 Y58.519
G01 F400 X107.818 Y58.423
G01 F400 X107.940 Y58.397
G01 F400 X108.047 Y58.444
G01 F400 X108.106 Y58.546
G01 F400 X108.097 Y58.634
G01 F400 X108.084 Y58.680
G01 F400 X108.078 Y58.703
G01 F400 X108.070 Y58.737
G01 F400 X108.064 Y58.759
G01 F400 X108.056 Y58.802
G01 F400 X108.050 Y58.840
G01 F400 X108.044 Y58.874
G01 F400 X108.039 Y58.909
G01 F400 X108.035 Y58.942
G01 F400 X108.031 Y58.980
G01 F400 X108.028 Y59.007
G01 F400 X108.027 Y59.032
G01 F400 X108.024 Y59.084
G01 F400 X108.023 Y59.110
G01 F400 X108.022 Y59.143
G01 F400 X108.024 Y59.171
G01 F400 X108.026 Y59.209
G01 F400 X108.027 Y59.249
G01 F400 X108.028 Y59.285
G01 F400 X108.033 Y59.314
G01 F400 X108.035 Y59.359
G01 F400 X108.040 Y59.382
G01 F400 X108.045 Y59.427
G01 F400 X108.056 Y59.475
G01 F400 X108.064 Y59.521
G01 F400 X108.070 Y59.542
G01 F400 X108.079 Y59.578
G01 F400 X108.089 Y59.614
G01 F400 X108.105 Y59.671
G01 F400 X108.094 Y59.772
G01 F400 X108.015 Y59.859
G01 F400 X107.900 Y59.884
G00 Z3.000
G00  X111.660 Y59.883
G01 F750 Z0
G01 F400 Z-0.100
G01 F400 X111.553 Y59.836
G01 F400 X111.492 Y59.730
G01 F400 X111.510 Y59.619
G01 F400 X111.521 Y59.580
G01 F400 X111.529 Y59.544
G01 F400 X111.537 Y59.511
G01 F400 X111.544 Y59.477
G01 F400 X111.550 Y59.440
G01 F400 X111.556 Y59.406
G01 F400 X111.561 Y59.371
G01 F400 X111.565 Y59.338
G01 F400 X111.569 Y59.299
G01 F400 X111.575 Y59.260
G01 F400 X111.574 Y59.235
G01 F400 X111.578 Y59.192
G01 F400 X111.576 Y59.141
G01 F400 X111.577 Y59.088
G01 F400 X111.577 Y59.056
G01 F400 X111.570 Y58.999
G01 F400 X111.569 Y58.955
G01 F400 X111.565 Y58.922
G01 F400 X111.555 Y58.871
G01 F400 X111.553 Y58.842
G01 F400 X111.550 Y58.815
G01 F400 X111.542 Y58.787
G01 F400 X111.529 Y58.736
G01 F400 X111.521 Y58.702
G01 F400 X111.511 Y58.666
G01 F400 X111.495 Y58.609
G01 F400 X111.506 Y58.508
G01 F400 X111.585 Y58.421
G01 F400 X111.700 Y58.396
G01 F400 X111.807 Y58.444
G01 F400 X111.854 Y58.524
G01 F400 X111.869 Y58.576
G01 F400 X111.879 Y58.615
G01 F400 X111.888 Y58.654
G01 F400 X111.897 Y58.692
G01 F400 X111.905 Y58.731
G01 F400 X111.912 Y58.771
G01 F400 X111.918 Y58.810
G01 F400 X111.924 Y58.849
G01 F400 X111.929 Y58.889
G01 F400 X111.933 Y58.928
G01 F400 X111.938 Y58.980
G01 F400 X111.941 Y59.020
G01 F400 X111.943 Y59.060
G01 F400 X111.944 Y59.100
G01 F400 X111.944 Y59.140
G01 F400 X111.944 Y59.180
G01 F400 X111.943 Y59.219
G01 F400 X111.941 Y59.259
G01 F400 X111.938 Y59.299
G01 F400 X111.935 Y59.339
G01 F400 X111.929 Y59.391
G01 F400 X111.924 Y59.430
G01 F400 X111.918 Y59.470
G01 F400 X111.912 Y59.509
G01 F400 X111.905 Y59.548
G01 F400 X111.897 Y59.587
G01 F400 X111.888 Y59.626
G01 F400 X111.879 Y59.665
G01 F400 X111.869 Y59.703
G01 F400 X111.852 Y59.762
G01 F400 X111.782 Y59.857
G01 F400 X111.660 Y59.883
G00 Z3.000
G00  X105.219 Y59.769
G01 F750 Z0
G01 F400 Z-0.100
G01 F400 X105.146 Y59.732
G01 F400 X105.146 Y58.548
G01 F400 X105.219 Y58.511
G01 F400 X106.092 Y59.140
G01 F400 X105.219 Y59.769
G00 Z3.000
G00  X61.351 Y59.264
G01 F750 Z0
G01 F400 Z-0.100
G01 F400 X61.167 Y59.252
G01 F400 X60.984 Y59.227
G01 F400 X60.804 Y59.190
G01 F400 X60.614 Y59.139
G01 F400 X60.440 Y59.077
G01 F400 X60.271 Y59.004
G01 F400 X60.095 Y58.915
G01 F400 X59.937 Y58.819
G01 F400 X59.786 Y58.713
G01 F400 X59.633 Y58.590
G01 F400 X59.498 Y58.464
G01 F400 X59.372 Y58.330
G01 F400 X59.247 Y58.178
G01 F400 X59.140 Y58.027
G01 F400 X59.044 Y57.870
G01 F400 X58.953 Y57.695
G01 F400 X58.879 Y57.526
G01 F400 X58.811 Y57.336
G01 F400 X58.811 Y57.218
G01 F400 X58.895 Y57.125
G01 F400 X59.010 Y57.101
G01 F400 X59.127 Y57.153
G01 F400 X59.218 Y57.382
G01 F400 X59.287 Y57.540
G01 F400 X59.362 Y57.684
G01 F400 X59.393 Y57.736
G01 F400 X59.445 Y57.820
G01 F400 X59.541 Y57.957
G01 F400 X59.646 Y58.084
G01 F400 X59.753 Y58.199
G01 F400 X59.876 Y58.314
G01 F400 X60.004 Y58.417
G01 F400 X60.132 Y58.507
G01 F400 X60.276 Y58.594
G01 F400 X60.424 Y58.670
G01 F400 X60.552 Y58.725
G01 F400 X60.725 Y58.788
G01 F400 X60.885 Y58.832
G01 F400 X61.039 Y58.863
G01 F400 X61.205 Y58.885
G01 F400 X61.370 Y58.896
G01 F400 X61.526 Y58.896
G01 F400 X61.693 Y58.884
G01 F400 X61.859 Y58.860
G01 F400 X62.010 Y58.828
G01 F400 X62.172 Y58.782
G01 F400 X62.330 Y58.725
G01 F400 X62.472 Y58.662
G01 F400 X62.619 Y58.585
G01 F400 X62.762 Y58.498
G01 F400 X62.889 Y58.407
G01 F400 X63.018 Y58.301
G01 F400 X63.158 Y58.169
G01 F400 X63.248 Y58.129
G01 F400 X63.363 Y58.154
G01 F400 X63.442 Y58.241
G01 F400 X63.454 Y58.358
G01 F400 X63.406 Y58.441
G01 F400 X63.262 Y58.577
G01 F400 X63.120 Y58.694
G01 F400 X62.959 Y58.809
G01 F400 X62.802 Y58.905
G01 F400 X62.639 Y58.991
G01 F400 X62.458 Y59.070
G01 F400 X62.285 Y59.133
G01 F400 X62.108 Y59.183
G01 F400 X61.915 Y59.224
G01 F400 X61.732 Y59.250
G01 F400 X61.548 Y59.263
G01 F400 X61.351 Y59.264
G00 Z3.000
G00  X73.437 Y59.194
G01 F750 Z0
G01 F400 Z-0.100
G01 F400 X73.343 Y59.152
G01 F400 X73.287 Y59.056
G01 F400 X73.287 Y57.818
G01 F400 X72.668 Y57.824
G01 F400 X72.573 Y57.782
G01 F400 X72.514 Y57.680
G01 F400 X72.526 Y57.563
G01 F400 X72.605 Y57.475
G01 F400 X72.693 Y57.456
G01 F400 X73.286 Y57.456
G01 F400 X73.286 Y56.250
G01 F400 X73.310 Y56.177
G01 F400 X73.375 Y56.105
G01 F400 X73.463 Y56.086
G01 F400 X80.043 Y56.086
G01 F400 X80.138 Y56.128
G01 F400 X80.193 Y56.224
G01 F400 X80.194 Y57.456
G01 F400 X80.813 Y57.456
G01 F400 X80.907 Y57.498
G01 F400 X80.966 Y57.600
G01 F400 X80.954 Y57.718
G01 F400 X80.875 Y57.805
G01 F400 X80.787 Y57.824
G01 F400 X80.194 Y57.824
G01 F400 X80.194 Y59.030
G01 F400 X80.170 Y59.103
G01 F400 X80.105 Y59.175
G01 F400 X80.017 Y59.194
G01 F400 X73.437 Y59.194
G00 Z3.000
G00  X47.758 Y58.986
G01 F750 Z0
G01 F400 Z-0.100
G01 F400 X47.961 Y58.986
G01 F400 X47.956 Y58.981
G01 F400 X47.864 Y58.935
G01 F400 X47.796 Y58.860
G01 F400 X47.796 Y58.884
G01 F400 X47.773 Y58.955
G01 F400 X47.758 Y58.986
G00 Z3.000
G00  X18.177 Y58.894
G01 F750 Z0
G01 F400 Z-0.100
G01 F400 X18.082 Y58.852
G01 F400 X18.027 Y58.756
G01 F400 X18.027 Y57.518
G01 F400 X17.408 Y57.524
G01 F400 X17.313 Y57.482
G01 F400 X17.254 Y57.380
G01 F400 X17.266 Y57.263
G01 F400 X17.354 Y57.165
G01 F400 X18.026 Y57.158
G01 F400 X18.026 Y55.950
G01 F400 X18.050 Y55.877
G01 F400 X18.115 Y55.805
G01 F400 X18.203 Y55.786
G01 F400 X24.783 Y55.786
G01 F400 X24.878 Y55.828
G01 F400 X24.933 Y55.924
G01 F400 X24.933 Y57.162
G01 F400 X25.533 Y57.156
G01 F400 X25.644 Y57.192
G01 F400 X25.706 Y57.300
G01 F400 X25.694 Y57.418
G01 F400 X25.606 Y57.516
G01 F400 X24.934 Y57.522
G01 F400 X24.934 Y58.730
G01 F400 X24.910 Y58.803
G01 F400 X24.845 Y58.875
G01 F400 X24.757 Y58.894
G01 F400 X18.177 Y58.894
G00 Z3.000
G00  X49.169 Y58.857
G01 F750 Z0
G01 F400 Z-0.100
G01 F400 X49.264 Y58.857
G01 F400 X49.289 Y58.844
G01 F400 X49.290 Y58.843
G01 F400 X49.288 Y58.838
G01 F400 X49.260 Y58.823
G01 F400 X49.168 Y58.825
G01 F400 X49.145 Y58.837
G01 F400 X49.142 Y58.839
G01 F400 X49.145 Y58.845
G01 F400 X49.169 Y58.857
G00 Z3.000
G00  X47.225 Y58.857
G01 F750 Z0
G01 F400 Z-0.100
G01 F400 X47.359 Y58.857
G01 F400 X47.384 Y58.844
G01 F400 X47.386 Y58.842
G01 F400 X47.398 Y58.818
G01 F400 X47.398 Y58.768
G01 F400 X47.387 Y58.745
G01 F400 X47.384 Y58.743
G01 F400 X47.359 Y58.730
G01 F400 X47.225 Y58.730
G01 F400 X47.225 Y58.857
G00 Z3.000
G00  X73.654 Y58.834
G01 F750 Z0
G01 F400 Z-0.100
G01 F400 X79.827 Y58.826
G01 F400 X79.826 Y56.454
G01 F400 X73.654 Y56.454
G01 F400 X73.654 Y58.834
G00 Z3.000
G00  X47.793 Y58.692
G01 F750 Z0
G01 F400 Z-0.100
G01 F400 X47.794 Y58.687
G01 F400 X47.843 Y58.619
G01 F400 X47.916 Y58.578
G01 F400 X47.999 Y58.569
G01 F400 X48.063 Y58.589
G01 F400 X48.066 Y58.591
G01 F400 X48.065 Y58.253
G01 F400 X47.951 Y58.254
G01 F400 X47.877 Y58.230
G01 F400 X47.815 Y58.174
G01 F400 X47.787 Y58.111
G01 F400 X47.782 Y58.136
G01 F400 X47.596 Y58.403
G01 F400 X47.608 Y58.409
G01 F400 X47.699 Y58.494
G01 F400 X47.783 Y58.648
G01 F400 X47.793 Y58.692
G00 Z3.000
G00  X18.394 Y58.526
G01 F750 Z0
G01 F400 Z-0.100
G01 F400 X24.567 Y58.526
G01 F400 X24.566 Y56.146
G01 F400 X18.393 Y56.154
G01 F400 X18.394 Y58.526
G00 Z3.000
G00  X49.168 Y58.428
G01 F750 Z0
G01 F400 Z-0.100
G01 F400 X49.264 Y58.428
G01 F400 X49.290 Y58.415
G01 F400 X49.292 Y58.413
G01 F400 X49.304 Y58.388
G01 F400 X49.303 Y58.292
G01 F400 X49.290 Y58.267
G01 F400 X49.264 Y58.254
G01 F400 X49.166 Y58.254
G01 F400 X49.144 Y58.266
G01 F400 X49.141 Y58.269
G01 F400 X49.128 Y58.294
G01 F400 X49.129 Y58.390
G01 F400 X49.142 Y58.415
G01 F400 X49.142 Y58.415
G01 F400 X49.168 Y58.428
G00 Z3.000
G00  X86.670 Y58.179
G01 F750 Z0
G01 F400 Z-0.100
G01 F400 X86.563 Y58.132
G01 F400 X86.504 Y58.030
G01 F400 X86.513 Y57.937
G01 F400 X86.582 Y57.754
G01 F400 X86.658 Y57.586
G01 F400 X86.745 Y57.424
G01 F400 X86.849 Y57.257
G01 F400 X86.958 Y57.108
G01 F400 X87.076 Y56.967
G01 F400 X87.212 Y56.824
G01 F400 X87.348 Y56.700
G01 F400 X87.493 Y56.586
G01 F400 X87.655 Y56.475
G01 F400 X87.814 Y56.381
G01 F400 X87.978 Y56.298
G01 F400 X88.159 Y56.222
G01 F400 X88.334 Y56.162
G01 F400 X88.512 Y56.115
G01 F400 X88.705 Y56.077
G01 F400 X88.888 Y56.054
G01 F400 X89.071 Y56.043
G01 F400 X89.268 Y56.045
G01 F400 X89.452 Y56.060
G01 F400 X89.634 Y56.087
G01 F400 X89.826 Y56.129
G01 F400 X90.003 Y56.180
G01 F400 X90.176 Y56.244
G01 F400 X90.356 Y56.324
G01 F400 X90.519 Y56.410
G01 F400 X90.675 Y56.507
G01 F400 X90.825 Y56.615
G01 F400 X90.977 Y56.739
G01 F400 X91.120 Y56.876
G01 F400 X91.168 Y56.959
G01 F400 X91.156 Y57.076
G01 F400 X91.077 Y57.163
G01 F400 X90.962 Y57.188
G01 F400 X90.872 Y57.147
G01 F400 X90.732 Y57.015
G01 F400 X90.604 Y56.909
G01 F400 X90.477 Y56.817
G01 F400 X90.335 Y56.729
G01 F400 X90.187 Y56.651
G01 F400 X90.046 Y56.588
G01 F400 X89.890 Y56.531
G01 F400 X89.729 Y56.484
G01 F400 X89.577 Y56.451
G01 F400 X89.410 Y56.426
G01 F400 X89.245 Y56.413
G01 F400 X89.077 Y56.411
G01 F400 X88.923 Y56.419
G01 F400 X88.756 Y56.440
G01 F400 X88.603 Y56.469
G01 F400 X88.456 Y56.507
G01 F400 X88.299 Y56.559
G01 F400 X88.151 Y56.618
G01 F400 X87.994 Y56.702
G01 F400 X87.849 Y56.787
G01 F400 X87.717 Y56.878
G01 F400 X87.589 Y56.980
G01 F400 X87.466 Y57.091
G01 F400 X87.350 Y57.212
G01 F400 X87.251 Y57.330
G01 F400 X87.153 Y57.465
G01 F400 X87.065 Y57.605
G01 F400 X86.991 Y57.744
G01 F400 X86.922 Y57.896
G01 F400 X86.853 Y58.080
G01 F400 X86.785 Y58.155
G01 F400 X86.670 Y58.179
G00 Z3.000
G00  X57.140 Y58.044
G01 F750 Z0
G01 F400 Z-0.100
G01 F400 X57.061 Y58.018
G01 F400 X56.998 Y57.962
G01 F400 X56.970 Y57.899
G01 F400 X56.823 Y57.899
G01 F400 X56.732 Y57.880
G01 F400 X56.665 Y57.819
G01 F400 X56.631 Y57.742
G01 F400 X56.631 Y57.659
G01 F400 X56.656 Y57.602
G01 F400 X56.497 Y57.656
G01 F400 X56.426 Y57.663
G01 F400 X56.346 Y57.637
G01 F400 X56.284 Y57.581
G01 F400 X56.250 Y57.504
G01 F400 X56.250 Y57.420
G01 F400 X56.284 Y57.344
G01 F400 X56.346 Y57.288
G01 F400 X57.112 Y57.031
G01 F400 X57.183 Y57.024
G01 F400 X57.262 Y57.050
G01 F400 X57.325 Y57.106
G01 F400 X57.359 Y57.182
G01 F400 X57.360 Y57.502
G01 F400 X57.494 Y57.502
G01 F400 X57.557 Y57.509
G01 F400 X57.630 Y57.550
G01 F400 X57.679 Y57.618
G01 F400 X57.697 Y57.701
G01 F400 X57.679 Y57.783
G01 F400 X57.630 Y57.851
G01 F400 X57.552 Y57.896
G01 F400 X57.352 Y57.898
G01 F400 X57.346 Y57.925
G01 F400 X57.297 Y57.993
G01 F400 X57.224 Y58.035
G01 F400 X57.140 Y58.044
G00 Z3.000
G00  X84.554 Y57.992
G01 F750 Z0
G01 F400 Z-0.100
G01 F400 X84.825 Y57.992
G01 F400 X84.770 Y57.882
G01 F400 X84.758 Y57.823
G01 F400 X84.758 Y57.721
G01 F400 X84.555 Y57.723
G01 F400 X84.439 Y57.752
G01 F400 X84.406 Y57.785
G01 F400 X84.394 Y57.809
G01 F400 X84.394 Y57.906
G01 F400 X84.406 Y57.930
G01 F400 X84.440 Y57.964
G01 F400 X84.554 Y57.992
G00 Z3.000
G00  X115.354 Y57.757
G01 F750 Z0
G01 F400 Z-0.100
G01 F400 X115.274 Y57.732
G01 F400 X115.212 Y57.675
G01 F400 X115.177 Y57.599
G01 F400 X115.177 Y57.470
G01 F400 X114.347 Y57.470
G01 F400 X114.274 Y57.446
G01 F400 X114.212 Y57.390
G01 F400 X114.177 Y57.313
G01 F400 X114.177 Y57.229
G01 F400 X114.212 Y57.152
G01 F400 X114.261 Y57.108
G01 F400 X114.393 Y57.020
G01 F400 X114.449 Y56.963
G01 F400 X114.486 Y56.890
G01 F400 X114.526 Y56.835
G01 F400 X114.598 Y56.793
G01 F400 X114.682 Y56.785
G01 F400 X114.762 Y56.810
G01 F400 X114.824 Y56.867
G01 F400 X114.858 Y56.943
G01 F400 X114.858 Y57.029
G01 F400 X114.844 Y57.058
G01 F400 X115.176 Y57.067
G01 F400 X115.176 Y56.972
G01 F400 X115.190 Y56.903
G01 F400 X115.240 Y56.835
G01 F400 X115.312 Y56.793
G01 F400 X115.396 Y56.785
G01 F400 X115.476 Y56.810
G01 F400 X115.538 Y56.867
G01 F400 X115.572 Y56.943
G01 F400 X115.573 Y57.267
G01 F400 X115.574 Y57.570
G01 F400 X115.559 Y57.639
G01 F400 X115.510 Y57.707
G01 F400 X115.437 Y57.749
G01 F400 X115.354 Y57.757
G00 Z3.000
G00  X44.937 Y57.694
G01 F750 Z0
G01 F400 Z-0.100
G01 F400 X44.843 Y57.652
G01 F400 X44.787 Y57.556
G01 F400 X44.787 Y56.318
G01 F400 X44.168 Y56.324
G01 F400 X44.073 Y56.282
G01 F400 X44.014 Y56.180
G01 F400 X44.026 Y56.063
G01 F400 X44.105 Y55.975
G01 F400 X44.193 Y55.956
G01 F400 X44.786 Y55.956
G01 F400 X44.786 Y54.750
G01 F400 X44.810 Y54.677
G01 F400 X44.875 Y54.605
G01 F400 X44.963 Y54.586
G01 F400 X51.543 Y54.586
G01 F400 X51.638 Y54.628
G01 F400 X51.693 Y54.724
G01 F400 X51.694 Y55.956
G01 F400 X52.313 Y55.956
G01 F400 X52.408 Y55.998
G01 F400 X52.466 Y56.100
G01 F400 X52.454 Y56.218
G01 F400 X52.375 Y56.305
G01 F400 X52.287 Y56.324
G01 F400 X51.694 Y56.324
G01 F400 X51.694 Y57.530
G01 F400 X51.670 Y57.603
G01 F400 X51.605 Y57.675
G01 F400 X51.517 Y57.694
G01 F400 X44.937 Y57.694
G00 Z3.000
G00  X56.956 Y57.502
G01 F750 Z0
G01 F400 Z-0.100
G01 F400 X56.963 Y57.502
G01 F400 X56.963 Y57.499
G01 F400 X56.956 Y57.502
G00 Z3.000
G00  X109.229 Y57.451
G01 F750 Z0
G01 F400 Z-0.100
G01 F400 X109.118 Y57.402
G01 F400 X109.059 Y57.300
G01 F400 X109.072 Y57.183
G01 F400 X109.146 Y57.100
G01 F400 X109.229 Y57.074
G01 F400 X109.307 Y57.054
G01 F400 X109.346 Y57.045
G01 F400 X109.397 Y57.034
G01 F400 X109.437 Y57.027
G01 F400 X109.476 Y57.021
G01 F400 X109.516 Y57.015
G01 F400 X109.555 Y57.010
G01 F400 X109.596 Y57.006
G01 F400 X109.635 Y57.003
G01 F400 X109.672 Y57.000
G01 F400 X109.714 Y56.998
G01 F400 X109.767 Y56.997
G01 F400 X109.793 Y56.996
G01 F400 X109.846 Y56.997
G01 F400 X109.886 Y56.998
G01 F400 X109.925 Y57.000
G01 F400 X109.965 Y57.002
G01 F400 X110.005 Y57.006
G01 F400 X110.044 Y57.010
G01 F400 X110.084 Y57.015
G01 F400 X110.123 Y57.021
G01 F400 X110.163 Y57.027
G01 F400 X110.202 Y57.034
G01 F400 X110.241 Y57.042
G01 F400 X110.292 Y57.053
G01 F400 X110.331 Y57.063
G01 F400 X110.369 Y57.073
G01 F400 X110.441 Y57.093
G01 F400 X110.542 Y57.206
G01 F400 X110.528 Y57.338
G01 F400 X110.449 Y57.425
G01 F400 X110.345 Y57.447
G01 F400 X110.268 Y57.427
G01 F400 X110.232 Y57.417
G01 F400 X110.232 Y57.417
G01 F400 X110.198 Y57.409
G01 F400 X110.171 Y57.403
G01 F400 X110.141 Y57.397
G01 F400 X110.108 Y57.391
G01 F400 X110.074 Y57.385
G01 F400 X110.037 Y57.380
G01 F400 X110.005 Y57.376
G01 F400 X109.968 Y57.372
G01 F400 X109.935 Y57.369
G01 F400 X109.898 Y57.367
G01 F400 X109.864 Y57.365
G01 F400 X109.830 Y57.364
G01 F400 X109.794 Y57.364
G01 F400 X109.760 Y57.364
G01 F400 X109.723 Y57.365
G01 F400 X109.690 Y57.367
G01 F400 X109.652 Y57.369
G01 F400 X109.623 Y57.372
G01 F400 X109.597 Y57.376
G01 F400 X109.551 Y57.380
G01 F400 X109.528 Y57.385
G01 F400 X109.482 Y57.391
G01 F400 X109.460 Y57.397
G01 F400 X109.414 Y57.404
G01 F400 X109.392 Y57.412
G01 F400 X109.339 Y57.421
G01 F400 X109.229 Y57.451
G00 Z3.000
G00  X45.154 Y57.326
G01 F750 Z0
G01 F400 Z-0.100
G01 F400 X51.327 Y57.326
G01 F400 X51.326 Y54.954
G01 F400 X45.154 Y54.954
G01 F400 X45.154 Y57.326
G00 Z3.000
G00  X57.474 Y57.044
G01 F750 Z0
G01 F400 Z-0.100
G01 F400 X57.394 Y57.018
G01 F400 X57.332 Y56.962
G01 F400 X57.297 Y56.886
G01 F400 X57.297 Y56.703
G01 F400 X57.050 Y56.951
G01 F400 X56.998 Y56.981
G01 F400 X56.826 Y57.038
G01 F400 X56.771 Y57.040
G01 F400 X56.659 Y57.043
G01 F400 X56.601 Y57.023
G01 F400 X56.482 Y56.964
G01 F400 X56.445 Y56.931
G01 F400 X56.392 Y56.880
G01 F400 X56.306 Y56.721
G01 F400 X56.297 Y56.644
G01 F400 X56.296 Y56.396
G01 F400 X56.319 Y56.324
G01 F400 X56.370 Y56.219
G01 F400 X56.466 Y56.114
G01 F400 X56.562 Y56.070
G01 F400 X56.652 Y56.080
G01 F400 X56.725 Y56.122
G01 F400 X56.775 Y56.190
G01 F400 X56.792 Y56.272
G01 F400 X56.774 Y56.354
G01 F400 X56.735 Y56.409
G01 F400 X56.706 Y56.437
G01 F400 X56.694 Y56.462
G01 F400 X56.694 Y56.606
G01 F400 X56.706 Y56.631
G01 F400 X56.708 Y56.632
G01 F400 X56.733 Y56.645
G01 F400 X56.747 Y56.645
G01 F400 X56.818 Y56.621
G01 F400 X57.368 Y56.069
G01 F400 X57.419 Y56.040
G01 F400 X57.413 Y56.028
G01 F400 X57.398 Y56.035
G01 F400 X57.201 Y56.086
G01 F400 X56.806 Y56.090
G01 F400 X56.561 Y56.029
G01 F400 X56.497 Y55.982
G01 F400 X56.392 Y55.879
G01 F400 X56.309 Y55.727
G01 F400 X56.296 Y55.666
G01 F400 X56.296 Y55.443
G01 F400 X56.319 Y55.372
G01 F400 X56.367 Y55.273
G01 F400 X56.395 Y55.235
G01 F400 X56.516 Y55.112
G01 F400 X56.589 Y55.080
G01 F400 X56.789 Y55.029
G01 F400 X57.160 Y55.026
G01 F400 X57.206 Y55.031
G01 F400 X57.430 Y55.086
G01 F400 X57.490 Y55.132
G01 F400 X57.597 Y55.235
G01 F400 X57.681 Y55.388
G01 F400 X57.694 Y55.449
G01 F400 X57.694 Y55.672
G01 F400 X57.684 Y55.703
G01 F400 X57.693 Y55.713
G01 F400 X57.776 Y55.864
G01 F400 X57.792 Y55.939
G01 F400 X57.775 Y56.021
G01 F400 X57.725 Y56.089
G01 F400 X57.666 Y56.123
G01 F400 X57.692 Y56.182
G01 F400 X57.694 Y56.856
G01 F400 X57.679 Y56.925
G01 F400 X57.630 Y56.993
G01 F400 X57.557 Y57.035
G01 F400 X57.474 Y57.044
G00 Z3.000
G00  X114.348 Y56.755
G01 F750 Z0
G01 F400 Z-0.100
G01 F400 X114.274 Y56.732
G01 F400 X114.212 Y56.675
G01 F400 X114.177 Y56.599
G01 F400 X114.177 Y56.515
G01 F400 X114.212 Y56.438
G01 F400 X114.274 Y56.382
G01 F400 X114.347 Y56.358
G01 F400 X115.056 Y56.358
G01 F400 X115.125 Y56.335
G01 F400 X115.154 Y56.306
G01 F400 X115.177 Y56.237
G01 F400 X115.175 Y56.157
G01 F400 X115.206 Y56.062
G01 F400 X115.274 Y56.001
G01 F400 X115.354 Y55.975
G01 F400 X115.437 Y55.984
G01 F400 X115.510 Y56.026
G01 F400 X115.559 Y56.094
G01 F400 X115.574 Y56.163
G01 F400 X115.574 Y56.284
G01 F400 X115.563 Y56.333
G01 F400 X115.507 Y56.502
G01 F400 X115.472 Y56.550
G01 F400 X115.351 Y56.672
G01 F400 X115.135 Y56.752
G01 F400 X114.348 Y56.755
G00 Z3.000
G00  X109.794 Y56.284
G01 F750 Z0
G01 F400 Z-0.100
G01 F400 X109.576 Y56.273
G01 F400 X109.361 Y56.238
G01 F400 X109.138 Y56.179
G01 F400 X108.934 Y56.101
G01 F400 X108.728 Y55.997
G01 F400 X108.545 Y55.878
G01 F400 X108.365 Y55.734
G01 F400 X108.211 Y55.579
G01 F400 X108.065 Y55.401
G01 F400 X107.947 Y55.218
G01 F400 X107.841 Y55.012
G01 F400 X107.763 Y54.809
G01 F400 X107.703 Y54.586
G01 F400 X107.669 Y54.370
G01 F400 X107.656 Y54.140
G01 F400 X107.667 Y53.922
G01 F400 X107.703 Y53.694
G01 F400 X107.759 Y53.484
G01 F400 X107.841 Y53.268
G01 F400 X107.940 Y53.074
G01 F400 X108.065 Y52.880
G01 F400 X108.202 Y52.710
G01 F400 X108.365 Y52.547
G01 F400 X108.535 Y52.409
G01 F400 X108.728 Y52.283
G01 F400 X108.922 Y52.184
G01 F400 X109.137 Y52.101
G01 F400 X109.348 Y52.044
G01 F400 X109.576 Y52.008
G01 F400 X109.794 Y51.996
G01 F400 X110.024 Y52.008
G01 F400 X110.239 Y52.042
G01 F400 X110.462 Y52.101
G01 F400 X110.666 Y52.179
G01 F400 X110.872 Y52.283
G01 F400 X111.055 Y52.402
G01 F400 X111.235 Y52.546
G01 F400 X111.389 Y52.701
G01 F400 X111.535 Y52.880
G01 F400 X111.654 Y53.062
G01 F400 X111.759 Y53.268
G01 F400 X111.837 Y53.471
G01 F400 X111.897 Y53.694
G01 F400 X111.932 Y53.909
G01 F400 X111.944 Y54.140
G01 F400 X111.936 Y54.298
G01 F400 X111.933 Y54.358
G01 F400 X111.898 Y54.586
G01 F400 X111.841 Y54.796
G01 F400 X111.759 Y55.012
G01 F400 X111.660 Y55.206
G01 F400 X111.535 Y55.400
G01 F400 X111.398 Y55.570
G01 F400 X111.235 Y55.733
G01 F400 X111.065 Y55.871
G01 F400 X110.872 Y55.997
G01 F400 X110.678 Y56.096
G01 F400 X110.463 Y56.179
G01 F400 X110.254 Y56.235
G01 F400 X110.213 Y56.242
G01 F400 X110.183 Y56.247
G01 F400 X110.096 Y56.261
G01 F400 X110.024 Y56.273
G01 F400 X109.794 Y56.284
G00 Z3.000
G00  X109.800 Y55.916
G01 F750 Z0
G01 F400 Z-0.100
G01 F400 X109.985 Y55.906
G01 F400 X110.169 Y55.877
G01 F400 X110.349 Y55.829
G01 F400 X110.506 Y55.769
G01 F400 X110.689 Y55.677
G01 F400 X110.844 Y55.576
G01 F400 X110.988 Y55.460
G01 F400 X111.120 Y55.328
G01 F400 X111.236 Y55.184
G01 F400 X111.299 Y55.088
G01 F400 X111.327 Y55.044
G01 F400 X111.421 Y54.865
G01 F400 X111.489 Y54.689
G01 F400 X111.537 Y54.509
G01 F400 X111.563 Y54.344
G01 F400 X111.576 Y54.139
G01 F400 X111.566 Y53.955
G01 F400 X111.537 Y53.771
G01 F400 X111.489 Y53.592
G01 F400 X111.422 Y53.417
G01 F400 X111.335 Y53.246
G01 F400 X111.237 Y53.096
G01 F400 X111.120 Y52.952
G01 F400 X110.988 Y52.820
G01 F400 X110.839 Y52.699
G01 F400 X110.688 Y52.602
G01 F400 X110.522 Y52.518
G01 F400 X110.349 Y52.451
G01 F400 X110.169 Y52.403
G01 F400 X109.985 Y52.374
G01 F400 X109.799 Y52.364
G01 F400 X109.614 Y52.373
G01 F400 X109.427 Y52.402
G01 F400 X109.263 Y52.445
G01 F400 X109.090 Y52.508
G01 F400 X108.913 Y52.602
G01 F400 X108.752 Y52.707
G01 F400 X108.611 Y52.821
G01 F400 X108.481 Y52.952
G01 F400 X108.364 Y53.096
G01 F400 X108.262 Y53.252
G01 F400 X108.178 Y53.417
G01 F400 X108.111 Y53.592
G01 F400 X108.063 Y53.771
G01 F400 X108.033 Y53.960
G01 F400 X108.024 Y54.140
G01 F400 X108.034 Y54.322
G01 F400 X108.063 Y54.509
G01 F400 X108.111 Y54.689
G01 F400 X108.178 Y54.862
G01 F400 X108.262 Y55.028
G01 F400 X108.364 Y55.184
G01 F400 X108.480 Y55.328
G01 F400 X108.612 Y55.460
G01 F400 X108.756 Y55.576
G01 F400 X108.912 Y55.678
G01 F400 X109.078 Y55.762
G01 F400 X109.245 Y55.826
G01 F400 X109.399 Y55.868
G01 F400 X109.616 Y55.906
G01 F400 X109.650 Y55.908
G01 F400 X109.800 Y55.916
G00 Z3.000
G00  X58.970 Y55.879
G01 F750 Z0
G01 F400 Z-0.100
G01 F400 X58.863 Y55.832
G01 F400 X58.804 Y55.730
G01 F400 X58.813 Y55.637
G01 F400 X58.882 Y55.454
G01 F400 X58.958 Y55.286
G01 F400 X59.045 Y55.124
G01 F400 X59.149 Y54.957
G01 F400 X59.258 Y54.808
G01 F400 X59.376 Y54.667
G01 F400 X59.512 Y54.524
G01 F400 X59.648 Y54.400
G01 F400 X59.793 Y54.286
G01 F400 X59.955 Y54.175
G01 F400 X60.114 Y54.081
G01 F400 X60.278 Y53.998
G01 F400 X60.459 Y53.922
G01 F400 X60.634 Y53.862
G01 F400 X60.812 Y53.815
G01 F400 X61.005 Y53.777
G01 F400 X61.188 Y53.754
G01 F400 X61.371 Y53.743
G01 F400 X61.568 Y53.745
G01 F400 X61.752 Y53.760
G01 F400 X61.934 Y53.787
G01 F400 X62.126 Y53.829
G01 F400 X62.303 Y53.880
G01 F400 X62.476 Y53.944
G01 F400 X62.656 Y54.024
G01 F400 X62.819 Y54.110
G01 F400 X62.975 Y54.207
G01 F400 X63.125 Y54.315
G01 F400 X63.277 Y54.439
G01 F400 X63.420 Y54.576
G01 F400 X63.468 Y54.659
G01 F400 X63.456 Y54.776
G01 F400 X63.377 Y54.863
G01 F400 X63.262 Y54.888
G01 F400 X63.172 Y54.847
G01 F400 X63.032 Y54.715
G01 F400 X62.903 Y54.608
G01 F400 X62.777 Y54.518
G01 F400 X62.635 Y54.429
G01 F400 X62.487 Y54.351
G01 F400 X62.335 Y54.283
G01 F400 X62.190 Y54.231
G01 F400 X62.029 Y54.184
G01 F400 X61.877 Y54.151
G01 F400 X61.711 Y54.126
G01 F400 X61.545 Y54.113
G01 F400 X61.387 Y54.111
G01 F400 X61.222 Y54.120
G01 F400 X61.044 Y54.141
G01 F400 X60.904 Y54.169
G01 F400 X60.754 Y54.208
G01 F400 X60.597 Y54.259
G01 F400 X60.572 Y54.268
G01 F400 X60.453 Y54.316
G01 F400 X60.294 Y54.402
G01 F400 X60.149 Y54.488
G01 F400 X60.017 Y54.578
G01 F400 X59.889 Y54.680
G01 F400 X59.766 Y54.791
G01 F400 X59.654 Y54.908
G01 F400 X59.551 Y55.031
G01 F400 X59.452 Y55.167
G01 F400 X59.366 Y55.304
G01 F400 X59.291 Y55.444
G01 F400 X59.221 Y55.597
G01 F400 X59.153 Y55.780
G01 F400 X59.085 Y55.855
G01 F400 X58.970 Y55.879
G00 Z3.000
G00  X77.113 Y55.854
G01 F750 Z0
G01 F400 Z-0.100
G01 F400 X77.055 Y55.835
G01 F400 X76.935 Y55.775
G01 F400 X76.852 Y55.697
G01 F400 X76.732 Y55.522
G01 F400 X76.711 Y55.473
G01 F400 X76.668 Y55.300
G01 F400 X76.671 Y55.330
G01 F400 X76.673 Y55.477
G01 F400 X76.660 Y55.537
G01 F400 X76.598 Y55.661
G01 F400 X76.507 Y55.761
G01 F400 X76.461 Y55.788
G01 F400 X76.368 Y55.835
G01 F400 X76.310 Y55.854
G01 F400 X75.874 Y55.854
G01 F400 X75.801 Y55.830
G01 F400 X75.739 Y55.774
G01 F400 X75.705 Y55.697
G01 F400 X75.703 Y54.636
G01 F400 X75.734 Y54.541
G01 F400 X75.801 Y54.480
G01 F400 X75.881 Y54.454
G01 F400 X75.964 Y54.463
G01 F400 X76.037 Y54.505
G01 F400 X76.086 Y54.573
G01 F400 X76.101 Y54.642
G01 F400 X76.101 Y54.840
G01 F400 X76.319 Y54.528
G01 F400 X76.372 Y54.480
G01 F400 X76.452 Y54.454
G01 F400 X76.536 Y54.463
G01 F400 X76.608 Y54.505
G01 F400 X76.658 Y54.573
G01 F400 X76.675 Y54.655
G01 F400 X76.658 Y54.736
G01 F400 X76.472 Y55.003
G01 F400 X76.484 Y55.009
G01 F400 X76.520 Y55.042
G01 F400 X76.570 Y55.089
G01 F400 X76.597 Y55.127
G01 F400 X76.657 Y55.244
G01 F400 X76.656 Y55.089
G01 F400 X76.655 Y54.833
G01 F400 X76.668 Y54.774
G01 F400 X76.727 Y54.655
G01 F400 X76.757 Y54.614
G01 F400 X76.825 Y54.546
G01 F400 X76.867 Y54.524
G01 F400 X76.959 Y54.476
G01 F400 X77.017 Y54.457
G01 F400 X77.263 Y54.457
G01 F400 X77.320 Y54.475
G01 F400 X77.440 Y54.535
G01 F400 X77.522 Y54.612
G01 F400 X77.553 Y54.655
G01 F400 X77.612 Y54.774
G01 F400 X77.625 Y54.833
G01 F400 X77.625 Y55.097
G01 F400 X77.612 Y55.156
G01 F400 X77.553 Y55.274
G01 F400 X77.523 Y55.316
G01 F400 X77.457 Y55.382
G01 F400 X77.413 Y55.407
G01 F400 X77.316 Y55.457
G01 F400 X77.329 Y55.457
G01 F400 X77.393 Y55.463
G01 F400 X77.466 Y55.505
G01 F400 X77.515 Y55.573
G01 F400 X77.532 Y55.655
G01 F400 X77.515 Y55.737
G01 F400 X77.466 Y55.805
G01 F400 X77.388 Y55.850
G01 F400 X77.113 Y55.854
G00 Z3.000
G00  X56.854 Y55.692
G01 F750 Z0
G01 F400 Z-0.100
G01 F400 X57.125 Y55.692
G01 F400 X57.070 Y55.582
G01 F400 X57.058 Y55.523
G01 F400 X57.058 Y55.423
G01 F400 X56.854 Y55.423
G01 F400 X56.740 Y55.452
G01 F400 X56.706 Y55.485
G01 F400 X56.694 Y55.509
G01 F400 X56.694 Y55.607
G01 F400 X56.706 Y55.630
G01 F400 X56.739 Y55.664
G01 F400 X56.854 Y55.692
G00 Z3.000
G00  X20.716 Y55.654
G01 F750 Z0
G01 F400 Z-0.100
G01 F400 X20.641 Y55.630
G01 F400 X20.579 Y55.574
G01 F400 X20.544 Y55.497
G01 F400 X20.543 Y54.436
G01 F400 X20.573 Y54.341
G01 F400 X20.641 Y54.280
G01 F400 X20.721 Y54.254
G01 F400 X20.804 Y54.263
G01 F400 X20.877 Y54.305
G01 F400 X20.926 Y54.373
G01 F400 X20.941 Y54.442
G01 F400 X20.941 Y54.640
G01 F400 X21.159 Y54.328
G01 F400 X21.212 Y54.280
G01 F400 X21.292 Y54.254
G01 F400 X21.376 Y54.263
G01 F400 X21.448 Y54.305
G01 F400 X21.498 Y54.373
G01 F400 X21.515 Y54.455
G01 F400 X21.498 Y54.536
G01 F400 X21.312 Y54.803
G01 F400 X21.325 Y54.809
G01 F400 X21.414 Y54.893
G01 F400 X21.448 Y54.951
G01 F400 X21.500 Y55.048
G01 F400 X21.512 Y55.109
G01 F400 X21.512 Y55.284
G01 F400 X21.501 Y55.321
G01 F400 X21.546 Y55.280
G01 F400 X21.619 Y55.257
G01 F400 X22.012 Y55.257
G01 F400 X21.697 Y54.523
G01 F400 X21.683 Y54.455
G01 F400 X21.700 Y54.373
G01 F400 X21.750 Y54.305
G01 F400 X21.822 Y54.263
G01 F400 X21.906 Y54.254
G01 F400 X21.986 Y54.280
G01 F400 X22.049 Y54.337
G01 F400 X22.501 Y55.387
G01 F400 X22.515 Y55.455
G01 F400 X22.498 Y55.537
G01 F400 X22.448 Y55.605
G01 F400 X22.370 Y55.651
G01 F400 X21.620 Y55.654
G01 F400 X21.546 Y55.630
G01 F400 X21.483 Y55.574
G01 F400 X21.449 Y55.497
G01 F400 X21.449 Y55.438
G01 F400 X21.441 Y55.455
G01 F400 X21.414 Y55.492
G01 F400 X21.343 Y55.564
G01 F400 X21.301 Y55.586
G01 F400 X21.192 Y55.644
G01 F400 X20.716 Y55.654
G00 Z3.000
G00  X33.891 Y55.624
G01 F750 Z0
G01 F400 Z-0.100
G01 F400 X33.707 Y55.612
G01 F400 X33.524 Y55.587
G01 F400 X33.344 Y55.550
G01 F400 X33.154 Y55.499
G01 F400 X32.980 Y55.437
G01 F400 X32.811 Y55.364
G01 F400 X32.635 Y55.275
G01 F400 X32.477 Y55.179
G01 F400 X32.326 Y55.073
G01 F400 X32.173 Y54.950
G01 F400 X32.038 Y54.824
G01 F400 X31.912 Y54.690
G01 F400 X31.787 Y54.538
G01 F400 X31.680 Y54.387
G01 F400 X31.584 Y54.230
G01 F400 X31.493 Y54.055
G01 F400 X31.419 Y53.886
G01 F400 X31.351 Y53.696
G01 F400 X31.351 Y53.578
G01 F400 X31.435 Y53.485
G01 F400 X31.550 Y53.461
G01 F400 X31.667 Y53.513
G01 F400 X31.758 Y53.742
G01 F400 X31.827 Y53.900
G01 F400 X31.902 Y54.044
G01 F400 X31.985 Y54.180
G01 F400 X32.081 Y54.316
G01 F400 X32.185 Y54.444
G01 F400 X32.293 Y54.559
G01 F400 X32.416 Y54.674
G01 F400 X32.544 Y54.777
G01 F400 X32.672 Y54.867
G01 F400 X32.816 Y54.954
G01 F400 X32.964 Y55.030
G01 F400 X33.092 Y55.085
G01 F400 X33.265 Y55.148
G01 F400 X33.425 Y55.192
G01 F400 X33.579 Y55.223
G01 F400 X33.745 Y55.245
G01 F400 X33.910 Y55.256
G01 F400 X34.066 Y55.256
G01 F400 X34.233 Y55.244
G01 F400 X34.399 Y55.220
G01 F400 X34.550 Y55.188
G01 F400 X34.712 Y55.142
G01 F400 X34.870 Y55.085
G01 F400 X35.012 Y55.022
G01 F400 X35.159 Y54.945
G01 F400 X35.302 Y54.858
G01 F400 X35.429 Y54.767
G01 F400 X35.558 Y54.661
G01 F400 X35.698 Y54.529
G01 F400 X35.788 Y54.489
G01 F400 X35.903 Y54.514
G01 F400 X35.982 Y54.601
G01 F400 X35.994 Y54.718
G01 F400 X35.946 Y54.801
G01 F400 X35.802 Y54.937
G01 F400 X35.660 Y55.054
G01 F400 X35.499 Y55.169
G01 F400 X35.342 Y55.265
G01 F400 X35.179 Y55.351
G01 F400 X34.998 Y55.430
G01 F400 X34.825 Y55.493
G01 F400 X34.648 Y55.543
G01 F400 X34.455 Y55.584
G01 F400 X34.272 Y55.610
G01 F400 X34.088 Y55.623
G01 F400 X33.891 Y55.624
G00 Z3.000
G00  X76.101 Y55.457
G01 F750 Z0
G01 F400 Z-0.100
G01 F400 X76.235 Y55.457
G01 F400 X76.261 Y55.444
G01 F400 X76.262 Y55.443
G01 F400 X76.274 Y55.418
G01 F400 X76.274 Y55.369
G01 F400 X76.261 Y55.343
G01 F400 X76.236 Y55.330
G01 F400 X76.101 Y55.330
G01 F400 X76.101 Y55.457
G00 Z3.000
G00  X20.941 Y55.257
G01 F750 Z0
G01 F400 Z-0.100
G01 F400 X21.075 Y55.257
G01 F400 X21.100 Y55.244
G01 F400 X21.105 Y55.240
G01 F400 X21.114 Y55.220
G01 F400 X21.114 Y55.169
G01 F400 X21.102 Y55.144
G01 F400 X21.100 Y55.143
G01 F400 X21.075 Y55.130
G01 F400 X20.941 Y55.130
G01 F400 X20.941 Y55.257
G00 Z3.000
G00  X77.092 Y55.076
G01 F750 Z0
G01 F400 Z-0.100
G01 F400 X77.188 Y55.076
G01 F400 X77.214 Y55.063
G01 F400 X77.216 Y55.061
G01 F400 X77.228 Y55.036
G01 F400 X77.227 Y54.892
G01 F400 X77.214 Y54.867
G01 F400 X77.188 Y54.854
G01 F400 X77.090 Y54.854
G01 F400 X77.068 Y54.866
G01 F400 X77.065 Y54.869
G01 F400 X77.052 Y54.895
G01 F400 X77.053 Y55.037
G01 F400 X77.066 Y55.063
G01 F400 X77.066 Y55.063
G01 F400 X77.092 Y55.076
G00 Z3.000
G00  X6.199 Y54.898
G01 F750 Z0
G01 F400 Z-0.100
G01 F400 X6.113 Y54.870
G01 F400 X6.050 Y54.814
G01 F400 X6.022 Y54.751
G01 F400 X5.962 Y54.498
G01 F400 X5.948 Y54.528
G01 F400 X5.881 Y54.589
G01 F400 X5.770 Y54.612
G01 F400 X5.684 Y54.584
G01 F400 X5.622 Y54.528
G01 F400 X5.608 Y54.497
G01 F400 X5.546 Y54.757
G01 F400 X5.498 Y54.842
G01 F400 X5.419 Y54.887
G01 F400 X5.335 Y54.896
G01 F400 X5.256 Y54.870
G01 F400 X5.193 Y54.814
G01 F400 X5.176 Y54.776
G01 F400 X5.125 Y54.822
G01 F400 X4.930 Y54.888
G01 F400 X4.879 Y54.894
G01 F400 X4.615 Y54.894
G01 F400 X4.558 Y54.875
G01 F400 X4.439 Y54.816
G01 F400 X4.402 Y54.782
G01 F400 X4.349 Y54.732
G01 F400 X4.262 Y54.573
G01 F400 X4.254 Y54.497
G01 F400 X4.252 Y54.391
G01 F400 X4.276 Y54.319
G01 F400 X4.327 Y54.214
G01 F400 X4.420 Y54.111
G01 F400 X4.556 Y54.039
G01 F400 X4.600 Y54.025
G01 F400 X4.763 Y53.984
G01 F400 X4.811 Y53.960
G01 F400 X4.814 Y53.957
G01 F400 X4.824 Y53.936
G01 F400 X4.810 Y53.907
G01 F400 X4.785 Y53.894
G01 F400 X4.625 Y53.894
G01 F400 X4.502 Y53.936
G01 F400 X4.431 Y53.944
G01 F400 X4.351 Y53.918
G01 F400 X4.288 Y53.861
G01 F400 X4.254 Y53.785
G01 F400 X4.254 Y53.701
G01 F400 X4.288 Y53.624
G01 F400 X4.350 Y53.569
G01 F400 X4.550 Y53.500
G01 F400 X4.859 Y53.496
G01 F400 X4.917 Y53.515
G01 F400 X5.037 Y53.575
G01 F400 X5.119 Y53.652
G01 F400 X5.150 Y53.695
G01 F400 X5.210 Y53.814
G01 F400 X5.222 Y53.873
G01 F400 X5.222 Y53.994
G01 F400 X5.210 Y54.053
G01 F400 X5.150 Y54.171
G01 F400 X5.120 Y54.213
G01 F400 X5.053 Y54.281
G01 F400 X4.915 Y54.353
G01 F400 X4.713 Y54.406
G01 F400 X4.665 Y54.430
G01 F400 X4.663 Y54.432
G01 F400 X4.651 Y54.456
G01 F400 X4.651 Y54.458
G01 F400 X4.663 Y54.482
G01 F400 X4.665 Y54.484
G01 F400 X4.690 Y54.497
G01 F400 X4.847 Y54.497
G01 F400 X4.974 Y54.454
G01 F400 X5.044 Y54.447
G01 F400 X5.124 Y54.473
G01 F400 X5.186 Y54.529
G01 F400 X5.190 Y54.536
G01 F400 X5.403 Y53.640
G01 F400 X5.431 Y53.577
G01 F400 X5.494 Y53.520
G01 F400 X5.573 Y53.494
G01 F400 X5.657 Y53.503
G01 F400 X5.730 Y53.545
G01 F400 X5.777 Y53.610
G01 F400 X5.785 Y53.639
G01 F400 X5.785 Y53.638
G01 F400 X5.812 Y53.577
G01 F400 X5.875 Y53.520
G01 F400 X5.954 Y53.494
G01 F400 X6.038 Y53.503
G01 F400 X6.111 Y53.545
G01 F400 X6.159 Y53.612
G01 F400 X6.347 Y54.399
G01 F400 X6.363 Y54.327
G01 F400 X6.412 Y54.259
G01 F400 X6.485 Y54.218
G01 F400 X6.568 Y54.209
G01 F400 X6.632 Y54.229
G01 F400 X6.634 Y54.231
G01 F400 X6.634 Y53.893
G01 F400 X6.520 Y53.894
G01 F400 X6.446 Y53.870
G01 F400 X6.384 Y53.814
G01 F400 X6.349 Y53.737
G01 F400 X6.349 Y53.653
G01 F400 X6.384 Y53.577
G01 F400 X6.446 Y53.520
G01 F400 X6.519 Y53.497
G01 F400 X7.117 Y53.497
G01 F400 X7.181 Y53.503
G01 F400 X7.253 Y53.545
G01 F400 X7.303 Y53.613
G01 F400 X7.320 Y53.695
G01 F400 X7.303 Y53.777
G01 F400 X7.253 Y53.845
G01 F400 X7.175 Y53.890
G01 F400 X7.032 Y53.891
G01 F400 X7.032 Y54.708
G01 F400 X7.017 Y54.777
G01 F400 X6.968 Y54.845
G01 F400 X6.895 Y54.887
G01 F400 X6.812 Y54.896
G01 F400 X6.732 Y54.870
G01 F400 X6.677 Y54.821
G01 F400 X6.582 Y54.679
G01 F400 X6.524 Y54.621
G01 F400 X6.433 Y54.575
G01 F400 X6.374 Y54.509
G01 F400 X6.411 Y54.665
G01 F400 X6.411 Y54.737
G01 F400 X6.377 Y54.814
G01 F400 X6.309 Y54.875
G01 F400 X6.199 Y54.898
G00 Z3.000
G00  X89.021 Y54.494
G01 F750 Z0
G01 F400 Z-0.100
G01 F400 X88.837 Y54.482
G01 F400 X88.654 Y54.457
G01 F400 X88.474 Y54.420
G01 F400 X88.284 Y54.369
G01 F400 X88.110 Y54.307
G01 F400 X87.941 Y54.234
G01 F400 X87.765 Y54.145
G01 F400 X87.607 Y54.049
G01 F400 X87.456 Y53.943
