( PCB drills )
( Generated by Carbide Copper )
( Material Size )
( X= 152.400, Y= 101.600, Z= 1.580 )
()
G17
G21
G54
G90
T1 M06
T2 M06
T3 M06
T4 M06
T5 M06
T6 M06
G00  X50.590 Y40.840
G00 F750 Z0
G01 F15000   Z-3.500
G00 Z3.000
G00  X63.290 Y40.840
G00 F750 Z0
G01 F15000   Z-3.500
G00 Z3.000
G00  X69.290 Y41.040
G00 F750 Z0
G01 F15000   Z-3.500
G00 Z3.000
G00  X81.990 Y41.040
G00 F750 Z0
G01 F15000   Z-3.500
G00 Z3.000
G00 Z3.000
M05
M30
%