( PCB drills )
( Generated by Carbide Copper )
( Material Size )
( X= 152.400, Y= 101.600, Z= 1.580 )
()
G17
G21
G54
G90
T1 M06
G00  X0.030 Y72.650
G00 F750 Z0
G01 F15000 Z-8.500
G00 Z3.000
G00  X0.030 Y-2.350
G00 F750 Z0
G01 F15000 Z-8.500
G00 Z3.000
G00  X113.030 Y72.650
G00 F750 Z0
G01 F15000 Z-8.500
G00 Z3.000
G00  X113.030 Y-2.350
G00 F750 Z0
G01 F15000 Z-8.500
G00 Z3.000
G00 Z3.000
M05
M30
%